(.../EAGLE 8.0/pcbgcode/pcb-gcode.ulp)
(Copyright 2005 - 2012 by John Johnson)
(See readme.txt for licensing terms.)
(This file generated from the board:)
(.../Documents/eagle/CR01/base v4.brd)
(Current profile is .../EAGLE 8.0/pcbgcode/profiles/mach.pp  )
(This file generated 16.3.2017 12:14)
(Settings from pcb-machine.h)
(spindle on time = 3.0000)
(  Tool Size)
(0.1500  )
(spindle speed = 30000.0000)
(tool change at 0.0000  0.0000  25.4000 )
(feed rate xy = F508   )
(feed rate z  = F254   )
(Z Axis Settings)
(  High     Up        Down     Drill)
(12.0000 	3.0000  	-0.0800 	-1.6000 )
(Settings from pcb-defaults.h)
(isolate min = 0.0254)
(isolate max = 0.5080)
(isolate step = 0.1000)
(Generated top outlines, top drill, bottom outlines, )
(Unit of measure: mm)
(Metric Mode)
G21
(Absolute Coordinates)
G90
S30000
G00 Z12.0000 
G00 X0.0000  Y0.0000  
M03
G04 P3.000000
G00 Z3.0000  
G00 X3.2231  Y-5.8759 
G01 Z-0.0800 F254   
G01 X3.2600  Y-5.8606 F508   
G01 X6.9000  Y-5.8606 
G01 X6.9369  Y-5.8759 
G01 X6.9651  Y-5.9041 
G01 X6.9804  Y-5.9410 
G01 X6.9804  Y-8.1810 
G01 X6.9651  Y-8.2179 
G01 X6.9369  Y-8.2461 
G01 X6.9000  Y-8.2614 
G01 X3.2600  Y-8.2614 
G01 X3.2231  Y-8.2461 
G01 X3.1949  Y-8.2179 
G01 X3.1796  Y-8.1810 
G01 X3.1796  Y-5.9410 
G01 X3.1949  Y-5.9041 
G01 X3.2231  Y-5.8759 
G00 Z3.0000  
G00 X3.3982  Y-12.0408 
G01 Z-0.0800 F254   
G01 X3.4351  Y-12.0561 F508   
G01 X3.4633  Y-12.0843 
G01 X3.4786  Y-12.1212 
G01 X3.4786  Y-14.3964 
G01 X3.4633  Y-14.4333 
G01 X3.4351  Y-14.4615 
G01 X3.3982  Y-14.4768 
G01 X2.1390  Y-14.4768 
G01 X2.1021  Y-14.4615 
G01 X2.0739  Y-14.4333 
G01 X2.0586  Y-14.3964 
G01 X2.0586  Y-12.1212 
G01 X2.0739  Y-12.0843 
G01 X2.1021  Y-12.0561 
G01 X2.1390  Y-12.0408 
G01 X3.3982  Y-12.0408 
G00 Z3.0000  
G00 X4.4135  Y-12.0561 
G01 Z-0.0800 F254   
G01 X4.4504  Y-12.0408 F508   
G01 X5.7096  Y-12.0408 
G01 X5.7465  Y-12.0561 
G01 X5.7747  Y-12.0843 
G01 X5.7900  Y-12.1212 
G01 X5.7900  Y-14.3964 
G01 X5.7747  Y-14.4333 
G01 X5.7465  Y-14.4615 
G01 X5.7096  Y-14.4768 
G01 X4.4504  Y-14.4768 
G01 X4.4135  Y-14.4615 
G01 X4.3853  Y-14.4333 
G01 X4.3700  Y-14.3964 
G01 X4.3700  Y-12.1212 
G01 X4.3853  Y-12.0843 
G01 X4.4135  Y-12.0561 
G00 Z3.0000  
G00 X6.7249  Y-12.0561 
G01 Z-0.0800 F254   
G01 X6.7618  Y-12.0408 F508   
G01 X8.0210  Y-12.0408 
G01 X8.0579  Y-12.0561 
G01 X8.0861  Y-12.0843 
G01 X8.1014  Y-12.1212 
G01 X8.1014  Y-14.3964 
G01 X8.0861  Y-14.4333 
G01 X8.0579  Y-14.4615 
G01 X8.0210  Y-14.4768 
G01 X6.7618  Y-14.4768 
G01 X6.7249  Y-14.4615 
G01 X6.6967  Y-14.4333 
G01 X6.6814  Y-14.3964 
G01 X6.6814  Y-12.1212 
G01 X6.6967  Y-12.0843 
G01 X6.7249  Y-12.0561 
G00 Z3.0000  
G00 X6.5435  Y3.9890  
G01 Z-0.0800 F254   
G01 X6.3739  Y4.0159  F508   
G01 X6.2106  Y4.0689  
G01 X6.0576  Y4.1469  
G01 X5.9187  Y4.2478  
G01 X5.7972  Y4.3693  
G01 X5.6963  Y4.5082  
G01 X5.6183  Y4.6612  
G01 X5.5653  Y4.8245  
G01 X5.5384  Y4.9941  
G01 X5.5384  Y5.1659  
G01 X5.5653  Y5.3355  
G01 X5.6183  Y5.4988  
G01 X5.6963  Y5.6518  
G01 X5.7972  Y5.7907  
G01 X5.9187  Y5.9122  
G01 X6.0576  Y6.0131  
G01 X6.2106  Y6.0911  
G01 X6.3739  Y6.1441  
G01 X6.5435  Y6.1710  
G01 X8.6965  Y6.1710  
G01 X8.8661  Y6.1441  
G01 X9.0294  Y6.0911  
G01 X9.1824  Y6.0131  
G01 X9.3213  Y5.9122  
G01 X9.4428  Y5.7907  
G01 X9.5437  Y5.6518  
G01 X9.6217  Y5.4988  
G01 X9.6747  Y5.3355  
G01 X9.7016  Y5.1659  
G01 X9.7016  Y4.9941  
G01 X9.6747  Y4.8245  
G01 X9.6217  Y4.6612  
G01 X9.5437  Y4.5082  
G01 X9.4428  Y4.3693  
G01 X9.3213  Y4.2478  
G01 X9.1824  Y4.1469  
G01 X9.0294  Y4.0689  
G01 X8.8661  Y4.0159  
G01 X8.6965  Y3.9890  
G01 X6.5435  Y3.9890  
G00 Z3.0000  
G00 X6.5435  Y9.0690  
G01 Z-0.0800 F254   
G01 X6.3739  Y9.0959  F508   
G01 X6.2106  Y9.1489  
G01 X6.0576  Y9.2269  
G01 X5.9187  Y9.3278  
G01 X5.7972  Y9.4493  
G01 X5.6963  Y9.5882  
G01 X5.6183  Y9.7412  
G01 X5.5653  Y9.9045  
G01 X5.5384  Y10.0741 
G01 X5.5384  Y10.2459 
G01 X5.5653  Y10.4155 
G01 X5.6183  Y10.5788 
G01 X5.6963  Y10.7318 
G01 X5.7972  Y10.8707 
G01 X5.9187  Y10.9922 
G01 X6.0576  Y11.0931 
G01 X6.2106  Y11.1711 
G01 X6.3739  Y11.2241 
G01 X6.5435  Y11.2510 
G01 X8.6965  Y11.2510 
G01 X8.8661  Y11.2241 
G01 X9.0294  Y11.1711 
G01 X9.1824  Y11.0931 
G01 X9.3213  Y10.9922 
G01 X9.4428  Y10.8707 
G01 X9.5437  Y10.7318 
G01 X9.6217  Y10.5788 
G01 X9.6747  Y10.4155 
G01 X9.7016  Y10.2459 
G01 X9.7016  Y10.0741 
G01 X9.6747  Y9.9045  
G01 X9.6217  Y9.7412  
G01 X9.5437  Y9.5882  
G01 X9.4428  Y9.4493  
G01 X9.3213  Y9.3278  
G01 X9.1824  Y9.2269  
G01 X9.0294  Y9.1489  
G01 X8.8661  Y9.0959  
G01 X8.6965  Y9.0690  
G01 X6.5435  Y9.0690  
G00 Z3.0000  
G00 X16.7689 Y9.0294  
G01 Z-0.0800 F254   
G01 X16.8469 Y9.1824  F508   
G01 X16.9478 Y9.3213  
G01 X17.0693 Y9.4428  
G01 X17.2082 Y9.5437  
G01 X17.3612 Y9.6217  
G01 X17.5245 Y9.6747  
G01 X17.6941 Y9.7016  
G01 X17.8659 Y9.7016  
G01 X18.0355 Y9.6747  
G01 X18.1988 Y9.6217  
G01 X18.3518 Y9.5437  
G01 X18.4907 Y9.4428  
G01 X18.6122 Y9.3213  
G01 X18.7131 Y9.1824  
G01 X18.7911 Y9.0294  
G01 X18.8441 Y8.8661  
G01 X18.8710 Y8.6965  
G01 X18.8710 Y6.5435  
G01 X18.8441 Y6.3739  
G01 X18.7911 Y6.2106  
G01 X18.7131 Y6.0576  
G01 X18.6122 Y5.9187  
G01 X18.4907 Y5.7972  
G01 X18.3518 Y5.6963  
G01 X18.1988 Y5.6183  
G01 X18.0355 Y5.5653  
G01 X17.8659 Y5.5384  
G01 X17.6941 Y5.5384  
G01 X17.5245 Y5.5653  
G01 X17.3612 Y5.6183  
G01 X17.2082 Y5.6963  
G01 X17.0693 Y5.7972  
G01 X16.9478 Y5.9187  
G01 X16.8469 Y6.0576  
G01 X16.7689 Y6.2106  
G01 X16.7159 Y6.3739  
G01 X16.6890 Y6.5435  
G01 X16.6890 Y8.6965  
G01 X16.7159 Y8.8661  
G01 X16.7689 Y9.0294  
G00 Z3.0000  
G00 X21.4281 Y9.6103  
G01 Z-0.0800 F254   
G01 X21.3337 Y9.7515  F508   
G01 X21.2687 Y9.9084  
G01 X21.2356 Y10.0751 
G01 X21.2356 Y10.2449 
G01 X21.2687 Y10.4116 
G01 X21.3337 Y10.5685 
G01 X21.4281 Y10.7097 
G01 X21.5482 Y10.8299 
G01 X21.6895 Y10.9242 
G01 X21.8464 Y10.9893 
G01 X22.0131 Y11.0224 
G01 X23.7069 Y11.0224 
G01 X23.8736 Y10.9893 
G01 X24.0305 Y10.9242 
G01 X24.1300 Y10.8578 
G01 X24.2295 Y10.9242 
G01 X24.3864 Y10.9893 
G01 X24.5531 Y11.0224 
G01 X26.2469 Y11.0224 
G01 X26.4136 Y10.9893 
G01 X26.5705 Y10.9242 
G01 X26.6700 Y10.8578 
G01 X26.7695 Y10.9242 
G01 X26.9264 Y10.9893 
G01 X27.0931 Y11.0224 
G01 X28.7869 Y11.0224 
G01 X28.9536 Y10.9893 
G01 X29.1105 Y10.9242 
G01 X29.2100 Y10.8578 
G01 X29.3095 Y10.9242 
G01 X29.4664 Y10.9893 
G01 X29.6331 Y11.0224 
G01 X31.3269 Y11.0224 
G01 X31.4936 Y10.9893 
G01 X31.6505 Y10.9242 
G01 X31.7500 Y10.8578 
G01 X31.8495 Y10.9242 
G01 X32.0064 Y10.9893 
G01 X32.1731 Y11.0224 
G01 X33.8669 Y11.0224 
G01 X34.0336 Y10.9893 
G01 X34.1905 Y10.9242 
G01 X34.2900 Y10.8578 
G01 X34.3895 Y10.9242 
G01 X34.5464 Y10.9893 
G01 X34.7131 Y11.0224 
G01 X36.4069 Y11.0224 
G01 X36.5736 Y10.9893 
G01 X36.7305 Y10.9242 
G01 X36.8300 Y10.8578 
G01 X36.9295 Y10.9242 
G01 X37.0864 Y10.9893 
G01 X37.2531 Y11.0224 
G01 X38.9469 Y11.0224 
G01 X39.1136 Y10.9893 
G01 X39.2705 Y10.9242 
G01 X39.3700 Y10.8578 
G01 X39.4695 Y10.9242 
G01 X39.6264 Y10.9893 
G01 X39.7931 Y11.0224 
G01 X41.4869 Y11.0224 
G01 X41.6536 Y10.9893 
G01 X41.8105 Y10.9242 
G01 X41.9517 Y10.8299 
G01 X42.0719 Y10.7097 
G01 X42.1662 Y10.5685 
G01 X42.2313 Y10.4116 
G01 X42.2644 Y10.2449 
G01 X42.2644 Y10.0751 
G01 X42.2313 Y9.9084  
G01 X42.1662 Y9.7515  
G01 X42.0719 Y9.6103  
G01 X41.9517 Y9.4901  
G01 X41.8105 Y9.3957  
G01 X41.6536 Y9.3307  
G01 X41.4869 Y9.2976  
G01 X39.7931 Y9.2976  
G01 X39.6264 Y9.3307  
G01 X39.4695 Y9.3957  
G01 X39.3700 Y9.4622  
G01 X39.2705 Y9.3957  
G01 X39.1136 Y9.3307  
G01 X38.9469 Y9.2976  
G01 X37.2531 Y9.2976  
G01 X37.0864 Y9.3307  
G01 X36.9295 Y9.3957  
G01 X36.8300 Y9.4622  
G01 X36.7305 Y9.3957  
G01 X36.5736 Y9.3307  
G01 X36.4069 Y9.2976  
G01 X34.7131 Y9.2976  
G01 X34.5464 Y9.3307  
G01 X34.3895 Y9.3957  
G01 X34.2900 Y9.4622  
G01 X34.1905 Y9.3957  
G01 X34.0336 Y9.3307  
G01 X33.8669 Y9.2976  
G01 X32.1731 Y9.2976  
G01 X32.0064 Y9.3307  
G01 X31.8495 Y9.3957  
G01 X31.7500 Y9.4622  
G01 X31.6505 Y9.3957  
G01 X31.4936 Y9.3307  
G01 X31.3269 Y9.2976  
G01 X29.6331 Y9.2976  
G01 X29.4664 Y9.3307  
G01 X29.3095 Y9.3957  
G01 X29.2100 Y9.4622  
G01 X29.1105 Y9.3957  
G01 X28.9536 Y9.3307  
G01 X28.7869 Y9.2976  
G01 X27.0931 Y9.2976  
G01 X26.9264 Y9.3307  
G01 X26.7695 Y9.3957  
G01 X26.6700 Y9.4622  
G01 X26.5705 Y9.3957  
G01 X26.4136 Y9.3307  
G01 X26.2469 Y9.2976  
G01 X24.5531 Y9.2976  
G01 X24.3864 Y9.3307  
G01 X24.2295 Y9.3957  
G01 X24.1300 Y9.4622  
G01 X24.0305 Y9.3957  
G01 X23.8736 Y9.3307  
G01 X23.7069 Y9.2976  
G01 X22.0131 Y9.2976  
G01 X21.8464 Y9.3307  
G01 X21.6895 Y9.3957  
G01 X21.5482 Y9.4901  
G01 X21.4281 Y9.6103  
G00 Z3.0000  
G00 X21.5482 Y8.2899  
G01 Z-0.0800 F254   
G01 X21.6895 Y8.3842  F508   
G01 X21.8464 Y8.4493  
G01 X22.0131 Y8.4824  
G01 X23.7069 Y8.4824  
G01 X23.8736 Y8.4493  
G01 X24.0305 Y8.3842  
G01 X24.1300 Y8.3178  
G01 X24.2295 Y8.3842  
G01 X24.3864 Y8.4493  
G01 X24.5531 Y8.4824  
G01 X26.2469 Y8.4824  
G01 X26.4136 Y8.4493  
G01 X26.5705 Y8.3842  
G01 X26.6700 Y8.3178  
G01 X26.7695 Y8.3842  
G01 X26.9264 Y8.4493  
G01 X27.0931 Y8.4824  
G01 X28.7869 Y8.4824  
G01 X28.9536 Y8.4493  
G01 X29.1105 Y8.3842  
G01 X29.2100 Y8.3178  
G01 X29.3095 Y8.3842  
G01 X29.4664 Y8.4493  
G01 X29.6331 Y8.4824  
G01 X31.3269 Y8.4824  
G01 X31.4936 Y8.4493  
G01 X31.6505 Y8.3842  
G01 X31.7500 Y8.3178  
G01 X31.8495 Y8.3842  
G01 X32.0064 Y8.4493  
G01 X32.1731 Y8.4824  
G01 X33.8669 Y8.4824  
G01 X34.0336 Y8.4493  
G01 X34.1905 Y8.3842  
G01 X34.2900 Y8.3178  
G01 X34.3895 Y8.3842  
G01 X34.5464 Y8.4493  
G01 X34.7131 Y8.4824  
G01 X36.4069 Y8.4824  
G01 X36.5736 Y8.4493  
G01 X36.7305 Y8.3842  
G01 X36.8300 Y8.3178  
G01 X36.9295 Y8.3842  
G01 X37.0864 Y8.4493  
G01 X37.2531 Y8.4824  
G01 X38.9469 Y8.4824  
G01 X39.1136 Y8.4493  
G01 X39.2705 Y8.3842  
G01 X39.3700 Y8.3178  
G01 X39.4695 Y8.3842  
G01 X39.6264 Y8.4493  
G01 X39.7931 Y8.4824  
G01 X41.4869 Y8.4824  
G01 X41.6536 Y8.4493  
G01 X41.8105 Y8.3842  
G01 X41.9517 Y8.2899  
G01 X42.0719 Y8.1697  
G01 X42.1662 Y8.0285  
G01 X42.2313 Y7.8716  
G01 X42.2644 Y7.7049  
G01 X42.2644 Y7.5351  
G01 X42.2313 Y7.3684  
G01 X42.1662 Y7.2115  
G01 X42.0719 Y7.0702  
G01 X41.9517 Y6.9501  
G01 X41.8105 Y6.8557  
G01 X41.6536 Y6.7907  
G01 X41.4869 Y6.7576  
G01 X39.7931 Y6.7576  
G01 X39.6264 Y6.7907  
G01 X39.4695 Y6.8557  
G01 X39.3700 Y6.9222  
G01 X39.2705 Y6.8557  
G01 X39.1136 Y6.7907  
G01 X38.9469 Y6.7576  
G01 X37.2531 Y6.7576  
G01 X37.0864 Y6.7907  
G01 X36.9295 Y6.8557  
G01 X36.8300 Y6.9222  
G01 X36.7305 Y6.8557  
G01 X36.5736 Y6.7907  
G01 X36.4069 Y6.7576  
G01 X34.7131 Y6.7576  
G01 X34.5464 Y6.7907  
G01 X34.3895 Y6.8557  
G01 X34.2900 Y6.9222  
G01 X34.1905 Y6.8557  
G01 X34.0336 Y6.7907  
G01 X33.8669 Y6.7576  
G01 X32.1731 Y6.7576  
G01 X32.0064 Y6.7907  
G01 X31.8495 Y6.8557  
G01 X31.7500 Y6.9222  
G01 X31.6505 Y6.8557  
G01 X31.4936 Y6.7907  
G01 X31.3269 Y6.7576  
G01 X29.6331 Y6.7576  
G01 X29.4664 Y6.7907  
G01 X29.3095 Y6.8557  
G01 X29.2100 Y6.9222  
G01 X29.1105 Y6.8557  
G01 X28.9536 Y6.7907  
G01 X28.7869 Y6.7576  
G01 X27.0931 Y6.7576  
G01 X26.9264 Y6.7907  
G01 X26.7695 Y6.8557  
G01 X26.6700 Y6.9222  
G01 X26.5705 Y6.8557  
G01 X26.4136 Y6.7907  
G01 X26.2469 Y6.7576  
G01 X24.5531 Y6.7576  
G01 X24.3864 Y6.7907  
G01 X24.2295 Y6.8557  
G01 X24.1300 Y6.9222  
G01 X24.0305 Y6.8557  
G01 X23.8736 Y6.7907  
G01 X23.7069 Y6.7576  
G01 X22.0131 Y6.7576  
G01 X21.8464 Y6.7907  
G01 X21.6895 Y6.8557  
G01 X21.5482 Y6.9501  
G01 X21.4281 Y7.0702  
G01 X21.3337 Y7.2115  
G01 X21.2687 Y7.3684  
G01 X21.2356 Y7.5351  
G01 X21.2356 Y7.7049  
G01 X21.2687 Y7.8716  
G01 X21.3337 Y8.0285  
G01 X21.4281 Y8.1697  
G01 X21.5482 Y8.2899  
G00 Z3.0000  
G00 X21.5482 Y5.7499  
G01 Z-0.0800 F254   
G01 X21.6895 Y5.8442  F508   
G01 X21.8464 Y5.9093  
G01 X22.0131 Y5.9424  
G01 X23.7069 Y5.9424  
G01 X23.8736 Y5.9093  
G01 X24.0305 Y5.8442  
G01 X24.1300 Y5.7778  
G01 X24.2295 Y5.8442  
G01 X24.3864 Y5.9093  
G01 X24.5531 Y5.9424  
G01 X26.2469 Y5.9424  
G01 X26.4136 Y5.9093  
G01 X26.5705 Y5.8442  
G01 X26.6700 Y5.7778  
G01 X26.7695 Y5.8442  
G01 X26.9264 Y5.9093  
G01 X27.0931 Y5.9424  
G01 X28.7869 Y5.9424  
G01 X28.9536 Y5.9093  
G01 X29.1105 Y5.8442  
G01 X29.2100 Y5.7778  
G01 X29.3095 Y5.8442  
G01 X29.4664 Y5.9093  
G01 X29.6331 Y5.9424  
G01 X31.3269 Y5.9424  
G01 X31.4936 Y5.9093  
G01 X31.6505 Y5.8442  
G01 X31.7500 Y5.7778  
G01 X31.8495 Y5.8442  
G01 X32.0064 Y5.9093  
G01 X32.1731 Y5.9424  
G01 X33.8669 Y5.9424  
G01 X34.0336 Y5.9093  
G01 X34.1905 Y5.8442  
G01 X34.2900 Y5.7778  
G01 X34.3895 Y5.8442  
G01 X34.5464 Y5.9093  
G01 X34.7131 Y5.9424  
G01 X36.4069 Y5.9424  
G01 X36.5736 Y5.9093  
G01 X36.7305 Y5.8442  
G01 X36.8300 Y5.7778  
G01 X36.9295 Y5.8442  
G01 X37.0864 Y5.9093  
G01 X37.2531 Y5.9424  
G01 X38.9469 Y5.9424  
G01 X39.1136 Y5.9093  
G01 X39.2705 Y5.8442  
G01 X39.3700 Y5.7778  
G01 X39.4695 Y5.8442  
G01 X39.6264 Y5.9093  
G01 X39.7931 Y5.9424  
G01 X41.4869 Y5.9424  
G01 X41.6536 Y5.9093  
G01 X41.8105 Y5.8442  
G01 X41.9517 Y5.7499  
G01 X42.0719 Y5.6297  
G01 X42.1662 Y5.4885  
G01 X42.2313 Y5.3316  
G01 X42.2644 Y5.1649  
G01 X42.2644 Y4.9951  
G01 X42.2313 Y4.8284  
G01 X42.1662 Y4.6715  
G01 X42.0719 Y4.5302  
G01 X41.9517 Y4.4101  
G01 X41.8105 Y4.3158  
G01 X41.6536 Y4.2507  
G01 X41.4869 Y4.2176  
G01 X39.7931 Y4.2176  
G01 X39.6264 Y4.2507  
G01 X39.4695 Y4.3158  
G01 X39.3700 Y4.3822  
G01 X39.2705 Y4.3158  
G01 X39.1136 Y4.2507  
G01 X38.9469 Y4.2176  
G01 X37.2531 Y4.2176  
G01 X37.0864 Y4.2507  
G01 X36.9295 Y4.3158  
G01 X36.8300 Y4.3822  
G01 X36.7305 Y4.3158  
G01 X36.5736 Y4.2507  
G01 X36.4069 Y4.2176  
G01 X34.7131 Y4.2176  
G01 X34.5464 Y4.2507  
G01 X34.3895 Y4.3158  
G01 X34.2900 Y4.3822  
G01 X34.1905 Y4.3158  
G01 X34.0336 Y4.2507  
G01 X33.8669 Y4.2176  
G01 X32.1731 Y4.2176  
G01 X32.0064 Y4.2507  
G01 X31.8495 Y4.3158  
G01 X31.7500 Y4.3822  
G01 X31.6505 Y4.3158  
G01 X31.4936 Y4.2507  
G01 X31.3269 Y4.2176  
G01 X29.6331 Y4.2176  
G01 X29.4664 Y4.2507  
G01 X29.3095 Y4.3158  
G01 X29.2100 Y4.3822  
G01 X29.1105 Y4.3158  
G01 X28.9536 Y4.2507  
G01 X28.7869 Y4.2176  
G01 X27.0931 Y4.2176  
G01 X26.9264 Y4.2507  
G01 X26.7695 Y4.3158  
G01 X26.6700 Y4.3822  
G01 X26.5705 Y4.3158  
G01 X26.4136 Y4.2507  
G01 X26.2469 Y4.2176  
G01 X24.5531 Y4.2176  
G01 X24.3864 Y4.2507  
G01 X24.2295 Y4.3158  
G01 X24.1300 Y4.3822  
G01 X24.0305 Y4.3158  
G01 X23.8736 Y4.2507  
G01 X23.7069 Y4.2176  
G01 X22.0131 Y4.2176  
G01 X21.8464 Y4.2507  
G01 X21.6895 Y4.3158  
G01 X21.5482 Y4.4101  
G01 X21.4281 Y4.5302  
G01 X21.3337 Y4.6715  
G01 X21.2687 Y4.8284  
G01 X21.2356 Y4.9951  
G01 X21.2356 Y5.1649  
G01 X21.2687 Y5.3316  
G01 X21.3337 Y5.4885  
G01 X21.4281 Y5.6297  
G01 X21.5482 Y5.7499  
G00 Z3.0000  
G00 X22.2740 Y11.5651 
G01 Z-0.0800 F254   
G01 X22.1915 Y11.6887 F508   
G01 X22.1346 Y11.8259 
G01 X22.1056 Y11.9717 
G01 X22.1056 Y13.4283 
G01 X22.1346 Y13.5740 
G01 X22.1915 Y13.7113 
G01 X22.2740 Y13.8349 
G01 X22.3791 Y13.9400 
G01 X22.5027 Y14.0225 
G01 X22.6399 Y14.0794 
G01 X22.7857 Y14.1084 
G01 X22.9343 Y14.1084 
G01 X23.0800 Y14.0794 
G01 X23.2173 Y14.0225 
G01 X23.3409 Y13.9400 
G01 X23.4460 Y13.8349 
G01 X23.5285 Y13.7113 
G01 X23.5854 Y13.5740 
G01 X23.6144 Y13.4283 
G01 X23.6144 Y11.9717 
G01 X23.5854 Y11.8259 
G01 X23.5285 Y11.6887 
G01 X23.4460 Y11.5651 
G01 X23.3409 Y11.4600 
G01 X23.2173 Y11.3775 
G01 X23.0800 Y11.3206 
G01 X22.9343 Y11.2916 
G01 X22.7857 Y11.2916 
G01 X22.6399 Y11.3206 
G01 X22.5027 Y11.3775 
G01 X22.3791 Y11.4600 
G01 X22.2740 Y11.5651 
G00 Z3.0000  
G00 X24.8140 Y11.5651 
G01 Z-0.0800 F254   
G01 X24.7315 Y11.6887 F508   
G01 X24.6746 Y11.8259 
G01 X24.6456 Y11.9717 
G01 X24.6456 Y13.4283 
G01 X24.6746 Y13.5740 
G01 X24.7315 Y13.7113 
G01 X24.8140 Y13.8349 
G01 X24.9191 Y13.9400 
G01 X25.0427 Y14.0225 
G01 X25.1799 Y14.0794 
G01 X25.3257 Y14.1084 
G01 X25.4743 Y14.1084 
G01 X25.6200 Y14.0794 
G01 X25.7573 Y14.0225 
G01 X25.8809 Y13.9400 
G01 X25.9860 Y13.8349 
G01 X26.0685 Y13.7113 
G01 X26.1254 Y13.5740 
G01 X26.1544 Y13.4283 
G01 X26.1544 Y11.9717 
G01 X26.1254 Y11.8259 
G01 X26.0685 Y11.6887 
G01 X25.9860 Y11.5651 
G01 X25.8809 Y11.4600 
G01 X25.7573 Y11.3775 
G01 X25.6200 Y11.3206 
G01 X25.4743 Y11.2916 
G01 X25.3257 Y11.2916 
G01 X25.1799 Y11.3206 
G01 X25.0427 Y11.3775 
G01 X24.9191 Y11.4600 
G01 X24.8140 Y11.5651 
G00 Z3.0000  
G00 X27.3540 Y11.5651 
G01 Z-0.0800 F254   
G01 X27.2715 Y11.6887 F508   
G01 X27.2146 Y11.8259 
G01 X27.1856 Y11.9717 
G01 X27.1856 Y13.4283 
G01 X27.2146 Y13.5740 
G01 X27.2715 Y13.7113 
G01 X27.3540 Y13.8349 
G01 X27.4591 Y13.9400 
G01 X27.5827 Y14.0225 
G01 X27.7199 Y14.0794 
G01 X27.8657 Y14.1084 
G01 X28.0143 Y14.1084 
G01 X28.1600 Y14.0794 
G01 X28.2973 Y14.0225 
G01 X28.4209 Y13.9400 
G01 X28.5260 Y13.8349 
G01 X28.6085 Y13.7113 
G01 X28.6654 Y13.5740 
G01 X28.6944 Y13.4283 
G01 X28.6944 Y11.9717 
G01 X28.6654 Y11.8259 
G01 X28.6085 Y11.6887 
G01 X28.5260 Y11.5651 
G01 X28.4209 Y11.4600 
G01 X28.2973 Y11.3775 
G01 X28.1600 Y11.3206 
G01 X28.0143 Y11.2916 
G01 X27.8657 Y11.2916 
G01 X27.7199 Y11.3206 
G01 X27.5827 Y11.3775 
G01 X27.4591 Y11.4600 
G01 X27.3540 Y11.5651 
G00 Z3.0000  
G00 X29.8940 Y11.5651 
G01 Z-0.0800 F254   
G01 X29.8115 Y11.6887 F508   
G01 X29.7546 Y11.8259 
G01 X29.7256 Y11.9717 
G01 X29.7256 Y13.4283 
G01 X29.7546 Y13.5740 
G01 X29.8115 Y13.7113 
G01 X29.8940 Y13.8349 
G01 X29.9991 Y13.9400 
G01 X30.1227 Y14.0225 
G01 X30.2599 Y14.0794 
G01 X30.4057 Y14.1084 
G01 X30.5543 Y14.1084 
G01 X30.7001 Y14.0794 
G01 X30.8373 Y14.0225 
G01 X30.9609 Y13.9400 
G01 X31.0660 Y13.8349 
G01 X31.1485 Y13.7113 
G01 X31.2054 Y13.5740 
G01 X31.2344 Y13.4283 
G01 X31.2344 Y11.9717 
G01 X31.2054 Y11.8259 
G01 X31.1485 Y11.6887 
G01 X31.0660 Y11.5651 
G01 X30.9609 Y11.4600 
G01 X30.8373 Y11.3775 
G01 X30.7001 Y11.3206 
G01 X30.5543 Y11.2916 
G01 X30.4057 Y11.2916 
G01 X30.2599 Y11.3206 
G01 X30.1227 Y11.3775 
G01 X29.9991 Y11.4600 
G01 X29.8940 Y11.5651 
G00 Z3.0000  
G00 X32.4340 Y11.5651 
G01 Z-0.0800 F254   
G01 X32.3515 Y11.6887 F508   
G01 X32.2946 Y11.8259 
G01 X32.2656 Y11.9717 
G01 X32.2656 Y13.4283 
G01 X32.2946 Y13.5740 
G01 X32.3515 Y13.7113 
G01 X32.4340 Y13.8349 
G01 X32.5391 Y13.9400 
G01 X32.6627 Y14.0225 
G01 X32.7999 Y14.0794 
G01 X32.9457 Y14.1084 
G01 X33.0943 Y14.1084 
G01 X33.2400 Y14.0794 
G01 X33.3773 Y14.0225 
G01 X33.5009 Y13.9400 
G01 X33.6060 Y13.8349 
G01 X33.6885 Y13.7113 
G01 X33.7454 Y13.5740 
G01 X33.7744 Y13.4283 
G01 X33.7744 Y11.9717 
G01 X33.7454 Y11.8259 
G01 X33.6885 Y11.6887 
G01 X33.6060 Y11.5651 
G01 X33.5009 Y11.4600 
G01 X33.3773 Y11.3775 
G01 X33.2400 Y11.3206 
G01 X33.0943 Y11.2916 
G01 X32.9457 Y11.2916 
G01 X32.7999 Y11.3206 
G01 X32.6627 Y11.3775 
G01 X32.5391 Y11.4600 
G01 X32.4340 Y11.5651 
G00 Z3.0000  
G00 X34.9740 Y11.5651 
G01 Z-0.0800 F254   
G01 X34.8915 Y11.6887 F508   
G01 X34.8346 Y11.8259 
G01 X34.8056 Y11.9717 
G01 X34.8056 Y13.4283 
G01 X34.8346 Y13.5740 
G01 X34.8915 Y13.7113 
G01 X34.9740 Y13.8349 
G01 X35.0791 Y13.9400 
G01 X35.2027 Y14.0225 
G01 X35.3399 Y14.0794 
G01 X35.4857 Y14.1084 
G01 X35.6343 Y14.1084 
G01 X35.7801 Y14.0794 
G01 X35.9173 Y14.0225 
G01 X36.0409 Y13.9400 
G01 X36.1460 Y13.8349 
G01 X36.2285 Y13.7113 
G01 X36.2854 Y13.5740 
G01 X36.3144 Y13.4283 
G01 X36.3144 Y11.9717 
G01 X36.2854 Y11.8259 
G01 X36.2285 Y11.6887 
G01 X36.1460 Y11.5651 
G01 X36.0409 Y11.4600 
G01 X35.9173 Y11.3775 
G01 X35.7801 Y11.3206 
G01 X35.6343 Y11.2916 
G01 X35.4857 Y11.2916 
G01 X35.3399 Y11.3206 
G01 X35.2027 Y11.3775 
G01 X35.0791 Y11.4600 
G01 X34.9740 Y11.5651 
G00 Z3.0000  
G00 X37.5140 Y11.5651 
G01 Z-0.0800 F254   
G01 X37.4315 Y11.6887 F508   
G01 X37.3746 Y11.8259 
G01 X37.3456 Y11.9717 
G01 X37.3456 Y13.4283 
G01 X37.3746 Y13.5740 
G01 X37.4315 Y13.7113 
G01 X37.5140 Y13.8349 
G01 X37.6191 Y13.9400 
G01 X37.7427 Y14.0225 
G01 X37.8799 Y14.0794 
G01 X38.0257 Y14.1084 
G01 X38.1743 Y14.1084 
G01 X38.3201 Y14.0794 
G01 X38.4573 Y14.0225 
G01 X38.5809 Y13.9400 
G01 X38.6860 Y13.8349 
G01 X38.7685 Y13.7113 
G01 X38.8254 Y13.5740 
G01 X38.8544 Y13.4283 
G01 X38.8544 Y11.9717 
G01 X38.8254 Y11.8259 
G01 X38.7685 Y11.6887 
G01 X38.6860 Y11.5651 
G01 X38.5809 Y11.4600 
G01 X38.4573 Y11.3775 
G01 X38.3201 Y11.3206 
G01 X38.1743 Y11.2916 
G01 X38.0257 Y11.2916 
G01 X37.8799 Y11.3206 
G01 X37.7427 Y11.3775 
G01 X37.6191 Y11.4600 
G01 X37.5140 Y11.5651 
G00 Z3.0000  
G00 X40.0540 Y11.5651 
G01 Z-0.0800 F254   
G01 X39.9715 Y11.6887 F508   
G01 X39.9146 Y11.8259 
G01 X39.8856 Y11.9717 
G01 X39.8856 Y13.4283 
G01 X39.9146 Y13.5740 
G01 X39.9715 Y13.7113 
G01 X40.0540 Y13.8349 
G01 X40.1591 Y13.9400 
G01 X40.2827 Y14.0225 
G01 X40.4199 Y14.0794 
G01 X40.5657 Y14.1084 
G01 X40.7143 Y14.1084 
G01 X40.8601 Y14.0794 
G01 X40.9973 Y14.0225 
G01 X41.1209 Y13.9400 
G01 X41.2260 Y13.8349 
G01 X41.3085 Y13.7113 
G01 X41.3654 Y13.5740 
G01 X41.3944 Y13.4283 
G01 X41.3944 Y11.9717 
G01 X41.3654 Y11.8259 
G01 X41.3085 Y11.6887 
G01 X41.2260 Y11.5651 
G01 X41.1209 Y11.4600 
G01 X40.9973 Y11.3775 
G01 X40.8601 Y11.3206 
G01 X40.7143 Y11.2916 
G01 X40.5657 Y11.2916 
G01 X40.4199 Y11.3206 
G01 X40.2827 Y11.3775 
G01 X40.1591 Y11.4600 
G01 X40.0540 Y11.5651 
G00 Z3.0000  
G00 X40.0540 Y19.1851 
G01 Z-0.0800 F254   
G01 X39.9715 Y19.3087 F508   
G01 X39.9146 Y19.4459 
G01 X39.8856 Y19.5917 
G01 X39.8856 Y21.0483 
G01 X39.9146 Y21.1941 
G01 X39.9715 Y21.3313 
G01 X40.0540 Y21.4549 
G01 X40.1591 Y21.5600 
G01 X40.2827 Y21.6425 
G01 X40.4199 Y21.6994 
G01 X40.5657 Y21.7284 
G01 X40.7143 Y21.7284 
G01 X40.8601 Y21.6994 
G01 X40.9973 Y21.6425 
G01 X41.1209 Y21.5600 
G01 X41.2260 Y21.4549 
G01 X41.3085 Y21.3313 
G01 X41.3654 Y21.1941 
G01 X41.3944 Y21.0483 
G01 X41.3944 Y19.5917 
G01 X41.3654 Y19.4459 
G01 X41.3085 Y19.3087 
G01 X41.2260 Y19.1851 
G01 X41.1209 Y19.0800 
G01 X40.9973 Y18.9975 
G01 X40.8601 Y18.9406 
G01 X40.7143 Y18.9116 
G01 X40.5657 Y18.9116 
G01 X40.4199 Y18.9406 
G01 X40.2827 Y18.9975 
G01 X40.1591 Y19.0800 
G01 X40.0540 Y19.1851 
G00 Z3.0000  
G00 X38.6860 Y19.1851 
G01 Z-0.0800 F254   
G01 X38.5809 Y19.0800 F508   
G01 X38.4573 Y18.9975 
G01 X38.3201 Y18.9406 
G01 X38.1743 Y18.9116 
G01 X38.0257 Y18.9116 
G01 X37.8799 Y18.9406 
G01 X37.7427 Y18.9975 
G01 X37.6191 Y19.0800 
G01 X37.5140 Y19.1851 
G01 X37.4315 Y19.3087 
G01 X37.3746 Y19.4459 
G01 X37.3456 Y19.5917 
G01 X37.3456 Y21.0483 
G01 X37.3746 Y21.1941 
G01 X37.4315 Y21.3313 
G01 X37.5140 Y21.4549 
G01 X37.6191 Y21.5600 
G01 X37.7427 Y21.6425 
G01 X37.8799 Y21.6994 
G01 X38.0257 Y21.7284 
G01 X38.1743 Y21.7284 
G01 X38.3201 Y21.6994 
G01 X38.4573 Y21.6425 
G01 X38.5809 Y21.5600 
G01 X38.6860 Y21.4549 
G01 X38.7685 Y21.3313 
G01 X38.8254 Y21.1941 
G01 X38.8544 Y21.0483 
G01 X38.8544 Y19.5917 
G01 X38.8254 Y19.4459 
G01 X38.7685 Y19.3087 
G01 X38.6860 Y19.1851 
G00 Z3.0000  
G00 X36.1460 Y19.1851 
G01 Z-0.0800 F254   
G01 X36.0409 Y19.0800 F508   
G01 X35.9173 Y18.9975 
G01 X35.7801 Y18.9406 
G01 X35.6343 Y18.9116 
G01 X35.4857 Y18.9116 
G01 X35.3399 Y18.9406 
G01 X35.2027 Y18.9975 
G01 X35.0791 Y19.0800 
G01 X34.9740 Y19.1851 
G01 X34.8915 Y19.3087 
G01 X34.8346 Y19.4459 
G01 X34.8056 Y19.5917 
G01 X34.8056 Y21.0483 
G01 X34.8346 Y21.1941 
G01 X34.8915 Y21.3313 
G01 X34.9740 Y21.4549 
G01 X35.0791 Y21.5600 
G01 X35.2027 Y21.6425 
G01 X35.3399 Y21.6994 
G01 X35.4857 Y21.7284 
G01 X35.6343 Y21.7284 
G01 X35.7801 Y21.6994 
G01 X35.9173 Y21.6425 
G01 X36.0409 Y21.5600 
G01 X36.1460 Y21.4549 
G01 X36.2285 Y21.3313 
G01 X36.2854 Y21.1941 
G01 X36.3144 Y21.0483 
G01 X36.3144 Y19.5917 
G01 X36.2854 Y19.4459 
G01 X36.2285 Y19.3087 
G01 X36.1460 Y19.1851 
G00 Z3.0000  
G00 X33.6060 Y19.1851 
G01 Z-0.0800 F254   
G01 X33.5009 Y19.0800 F508   
G01 X33.3773 Y18.9975 
G01 X33.2400 Y18.9406 
G01 X33.0943 Y18.9116 
G01 X32.9457 Y18.9116 
G01 X32.7999 Y18.9406 
G01 X32.6627 Y18.9975 
G01 X32.5391 Y19.0800 
G01 X32.4340 Y19.1851 
G01 X32.3515 Y19.3087 
G01 X32.2946 Y19.4459 
G01 X32.2656 Y19.5917 
G01 X32.2656 Y21.0483 
G01 X32.2946 Y21.1941 
G01 X32.3515 Y21.3313 
G01 X32.4340 Y21.4549 
G01 X32.5391 Y21.5600 
G01 X32.6627 Y21.6425 
G01 X32.7999 Y21.6994 
G01 X32.9457 Y21.7284 
G01 X33.0943 Y21.7284 
G01 X33.2400 Y21.6994 
G01 X33.3773 Y21.6425 
G01 X33.5009 Y21.5600 
G01 X33.6060 Y21.4549 
G01 X33.6885 Y21.3313 
G01 X33.7454 Y21.1941 
G01 X33.7744 Y21.0483 
G01 X33.7744 Y19.5917 
G01 X33.7454 Y19.4459 
G01 X33.6885 Y19.3087 
G01 X33.6060 Y19.1851 
G00 Z3.0000  
G00 X31.0660 Y19.1851 
G01 Z-0.0800 F254   
G01 X30.9609 Y19.0800 F508   
G01 X30.8373 Y18.9975 
G01 X30.7001 Y18.9406 
G01 X30.5543 Y18.9116 
G01 X30.4057 Y18.9116 
G01 X30.2599 Y18.9406 
G01 X30.1227 Y18.9975 
G01 X29.9991 Y19.0800 
G01 X29.8940 Y19.1851 
G01 X29.8115 Y19.3087 
G01 X29.7546 Y19.4459 
G01 X29.7256 Y19.5917 
G01 X29.7256 Y21.0483 
G01 X29.7546 Y21.1941 
G01 X29.8115 Y21.3313 
G01 X29.8940 Y21.4549 
G01 X29.9991 Y21.5600 
G01 X30.1227 Y21.6425 
G01 X30.2599 Y21.6994 
G01 X30.4057 Y21.7284 
G01 X30.5543 Y21.7284 
G01 X30.7001 Y21.6994 
G01 X30.8373 Y21.6425 
G01 X30.9609 Y21.5600 
G01 X31.0660 Y21.4549 
G01 X31.1485 Y21.3313 
G01 X31.2054 Y21.1941 
G01 X31.2344 Y21.0483 
G01 X31.2344 Y19.5917 
G01 X31.2054 Y19.4459 
G01 X31.1485 Y19.3087 
G01 X31.0660 Y19.1851 
G00 Z3.0000  
G00 X28.5260 Y19.1851 
G01 Z-0.0800 F254   
G01 X28.4209 Y19.0800 F508   
G01 X28.2973 Y18.9975 
G01 X28.1600 Y18.9406 
G01 X28.0143 Y18.9116 
G01 X27.8657 Y18.9116 
G01 X27.7199 Y18.9406 
G01 X27.5827 Y18.9975 
G01 X27.4591 Y19.0800 
G01 X27.3540 Y19.1851 
G01 X27.2715 Y19.3087 
G01 X27.2146 Y19.4459 
G01 X27.1856 Y19.5917 
G01 X27.1856 Y21.0483 
G01 X27.2146 Y21.1941 
G01 X27.2715 Y21.3313 
G01 X27.3540 Y21.4549 
G01 X27.4591 Y21.5600 
G01 X27.5827 Y21.6425 
G01 X27.7199 Y21.6994 
G01 X27.8657 Y21.7284 
G01 X28.0143 Y21.7284 
G01 X28.1600 Y21.6994 
G01 X28.2973 Y21.6425 
G01 X28.4209 Y21.5600 
G01 X28.5260 Y21.4549 
G01 X28.6085 Y21.3313 
G01 X28.6654 Y21.1941 
G01 X28.6944 Y21.0483 
G01 X28.6944 Y19.5917 
G01 X28.6654 Y19.4459 
G01 X28.6085 Y19.3087 
G01 X28.5260 Y19.1851 
G00 Z3.0000  
G00 X25.9860 Y19.1851 
G01 Z-0.0800 F254   
G01 X25.8809 Y19.0800 F508   
G01 X25.7573 Y18.9975 
G01 X25.6200 Y18.9406 
G01 X25.4743 Y18.9116 
G01 X25.3257 Y18.9116 
G01 X25.1799 Y18.9406 
G01 X25.0427 Y18.9975 
G01 X24.9191 Y19.0800 
G01 X24.8140 Y19.1851 
G01 X24.7315 Y19.3087 
G01 X24.6746 Y19.4459 
G01 X24.6456 Y19.5917 
G01 X24.6456 Y21.0483 
G01 X24.6746 Y21.1941 
G01 X24.7315 Y21.3313 
G01 X24.8140 Y21.4549 
G01 X24.9191 Y21.5600 
G01 X25.0427 Y21.6425 
G01 X25.1799 Y21.6994 
G01 X25.3257 Y21.7284 
G01 X25.4743 Y21.7284 
G01 X25.6200 Y21.6994 
G01 X25.7573 Y21.6425 
G01 X25.8809 Y21.5600 
G01 X25.9860 Y21.4549 
G01 X26.0685 Y21.3313 
G01 X26.1254 Y21.1941 
G01 X26.1544 Y21.0483 
G01 X26.1544 Y19.5917 
G01 X26.1254 Y19.4459 
G01 X26.0685 Y19.3087 
G01 X25.9860 Y19.1851 
G00 Z3.0000  
G00 X23.4460 Y19.1851 
G01 Z-0.0800 F254   
G01 X23.3409 Y19.0800 F508   
G01 X23.2173 Y18.9975 
G01 X23.0800 Y18.9406 
G01 X22.9343 Y18.9116 
G01 X22.7857 Y18.9116 
G01 X22.6399 Y18.9406 
G01 X22.5027 Y18.9975 
G01 X22.3791 Y19.0800 
G01 X22.2740 Y19.1851 
G01 X22.1915 Y19.3087 
G01 X22.1346 Y19.4459 
G01 X22.1056 Y19.5917 
G01 X22.1056 Y21.0483 
G01 X22.1346 Y21.1941 
G01 X22.1915 Y21.3313 
G01 X22.2740 Y21.4549 
G01 X22.3791 Y21.5600 
G01 X22.5027 Y21.6425 
G01 X22.6399 Y21.6994 
G01 X22.7857 Y21.7284 
G01 X22.9343 Y21.7284 
G01 X23.0800 Y21.6994 
G01 X23.2173 Y21.6425 
G01 X23.3409 Y21.5600 
G01 X23.4460 Y21.4549 
G01 X23.5285 Y21.3313 
G01 X23.5854 Y21.1941 
G01 X23.6144 Y21.0483 
G01 X23.6144 Y19.5917 
G01 X23.5854 Y19.4459 
G01 X23.5285 Y19.3087 
G01 X23.4460 Y19.1851 
G00 Z3.0000  
G00 X16.1024 Y19.9628 
G01 Z-0.0800 F254   
G01 X15.5972 Y19.4576 F508   
G01 X14.8828 Y19.4576 
G01 X14.3776 Y19.9628 
G01 X14.3776 Y20.6772 
G01 X14.8828 Y21.1824 
G01 X15.5972 Y21.1824 
G01 X16.1024 Y20.6772 
G01 X16.1024 Y19.9628 
G00 Z3.0000  
G00 X16.1024 Y18.1372 
G01 Z-0.0800 F254   
G01 X16.1024 Y17.4228 F508   
G01 X15.5972 Y16.9176 
G01 X14.8828 Y16.9176 
G01 X14.3776 Y17.4228 
G01 X14.3776 Y18.1372 
G01 X14.8828 Y18.6424 
G01 X15.5972 Y18.6424 
G01 X16.1024 Y18.1372 
G00 Z3.0000  
G00 X13.5624 Y18.1372 
G01 Z-0.0800 F254   
G01 X13.5624 Y17.4228 F508   
G01 X13.0572 Y16.9176 
G01 X12.3428 Y16.9176 
G01 X11.8376 Y17.4228 
G01 X11.8376 Y18.1372 
G01 X12.3428 Y18.6424 
G01 X13.0572 Y18.6424 
G01 X13.5624 Y18.1372 
G00 Z3.0000  
G00 X13.5624 Y19.9628 
G01 Z-0.0800 F254   
G01 X13.0572 Y19.4576 F508   
G01 X12.3428 Y19.4576 
G01 X11.8376 Y19.9628 
G01 X11.8376 Y20.6772 
G01 X12.3428 Y21.1824 
G01 X13.0572 Y21.1824 
G01 X13.5624 Y20.6772 
G01 X13.5624 Y19.9628 
G00 Z3.0000  
G00 X13.2497 Y22.1901 
G01 Z-0.0800 F254   
G01 X13.1085 Y22.0957 F508   
G01 X12.9516 Y22.0307 
G01 X12.7849 Y21.9976 
G01 X12.6151 Y21.9976 
G01 X12.4484 Y22.0307 
G01 X12.2915 Y22.0957 
G01 X12.1502 Y22.1901 
G01 X12.0301 Y22.3102 
G01 X11.9358 Y22.4515 
G01 X11.8707 Y22.6084 
G01 X11.8376 Y22.7751 
G01 X11.8376 Y22.9449 
G01 X11.8707 Y23.1116 
G01 X11.9358 Y23.2685 
G01 X12.0301 Y23.4097 
G01 X12.1502 Y23.5299 
G01 X12.2915 Y23.6242 
G01 X12.3964 Y23.6677 
G01 X12.3964 Y25.4400 
G01 X12.4171 Y25.5172 
G01 X12.4571 Y25.5864 
G01 X12.5136 Y25.6429 
G01 X12.5828 Y25.6829 
G01 X12.6600 Y25.7036 
G01 X14.9364 Y25.7036 
G01 X14.9364 Y30.1764 
G01 X12.6600 Y30.1764 
G01 X12.5828 Y30.1971 
G01 X12.5136 Y30.2371 
G01 X12.4571 Y30.2936 
G01 X12.4171 Y30.3628 
G01 X12.3964 Y30.4400 
G01 X12.3964 Y33.2896 
G01 X11.7015 Y33.2896 
G01 X11.5082 Y33.3280 
G01 X11.3261 Y33.4035 
G01 X11.1623 Y33.5129 
G01 X11.0229 Y33.6523 
G01 X10.9135 Y33.8161 
G01 X10.8380 Y33.9982 
G01 X10.7996 Y34.1915 
G01 X10.7996 Y34.3885 
G01 X10.8380 Y34.5818 
G01 X10.9135 Y34.7639 
G01 X11.0229 Y34.9277 
G01 X11.1623 Y35.0671 
G01 X11.3261 Y35.1765 
G01 X11.5082 Y35.2520 
G01 X11.7015 Y35.2904 
G01 X13.6985 Y35.2904 
G01 X13.8918 Y35.2520 
G01 X14.0739 Y35.1765 
G01 X14.2377 Y35.0671 
G01 X14.3771 Y34.9277 
G01 X14.4865 Y34.7639 
G01 X14.5620 Y34.5818 
G01 X14.6004 Y34.3885 
G01 X14.6004 Y34.1915 
G01 X14.5620 Y33.9982 
G01 X14.4865 Y33.8161 
G01 X14.3771 Y33.6523 
G01 X14.2377 Y33.5129 
G01 X14.0739 Y33.4035 
G01 X13.8918 Y33.3280 
G01 X13.6985 Y33.2896 
G01 X13.0036 Y33.2896 
G01 X13.0036 Y30.7836 
G01 X15.2800 Y30.7836 
G01 X15.3572 Y30.7629 
G01 X15.4264 Y30.7229 
G01 X15.4829 Y30.6664 
G01 X15.5229 Y30.5972 
G01 X15.5436 Y30.5200 
G01 X15.5436 Y25.3600 
G01 X15.5229 Y25.2828 
G01 X15.4829 Y25.2136 
G01 X15.4264 Y25.1571 
G01 X15.3572 Y25.1171 
G01 X15.2800 Y25.0964 
G01 X13.0036 Y25.0964 
G01 X13.0036 Y23.6677 
G01 X13.1085 Y23.6242 
G01 X13.2497 Y23.5299 
G01 X13.3699 Y23.4097 
G01 X13.4642 Y23.2685 
G01 X13.5293 Y23.1116 
G01 X13.5624 Y22.9449 
G01 X13.5624 Y22.7751 
G01 X13.5293 Y22.6084 
G01 X13.4642 Y22.4515 
G01 X13.3699 Y22.3102 
G01 X13.2497 Y22.1901 
G00 Z3.0000  
G00 X14.3776 Y22.5028 
G01 Z-0.0800 F254   
G01 X14.3776 Y23.2172 F508   
G01 X14.8828 Y23.7224 
G01 X15.5972 Y23.7224 
G01 X16.1024 Y23.2172 
G01 X16.1024 Y22.5028 
G01 X15.5972 Y21.9976 
G01 X14.8828 Y21.9976 
G01 X14.3776 Y22.5028 
G00 Z3.0000  
G00 X13.2497 Y26.5081 
G01 Z-0.0800 F254   
G01 X13.1085 Y26.4138 F508   
G01 X12.9516 Y26.3487 
G01 X12.7849 Y26.3156 
G01 X12.6151 Y26.3156 
G01 X12.4484 Y26.3487 
G01 X12.2915 Y26.4138 
G01 X12.1502 Y26.5081 
G01 X12.0301 Y26.6283 
G01 X11.9358 Y26.7695 
G01 X11.8707 Y26.9264 
G01 X11.8376 Y27.0931 
G01 X11.8376 Y28.7869 
G01 X11.8707 Y28.9536 
G01 X11.9358 Y29.1105 
G01 X12.0301 Y29.2517 
G01 X12.1502 Y29.3719 
G01 X12.2915 Y29.4662 
G01 X12.4484 Y29.5313 
G01 X12.6151 Y29.5644 
G01 X12.7849 Y29.5644 
G01 X12.9516 Y29.5313 
G01 X13.1085 Y29.4662 
G01 X13.2497 Y29.3719 
G01 X13.3699 Y29.2517 
G01 X13.4642 Y29.1105 
G01 X13.5293 Y28.9536 
G01 X13.5624 Y28.7869 
G01 X13.5624 Y27.0931 
G01 X13.5293 Y26.9264 
G01 X13.4642 Y26.7695 
G01 X13.3699 Y26.6283 
G01 X13.2497 Y26.5081 
G00 Z3.0000  
G00 X10.7097 Y26.5081 
G01 Z-0.0800 F254   
G01 X10.5685 Y26.4138 F508   
G01 X10.4116 Y26.3487 
G01 X10.2449 Y26.3156 
G01 X10.0751 Y26.3156 
G01 X9.9084  Y26.3487 
G01 X9.7515  Y26.4138 
G01 X9.6103  Y26.5081 
G01 X9.4901  Y26.6283 
G01 X9.3957  Y26.7695 
G01 X9.3307  Y26.9264 
G01 X9.2976  Y27.0931 
G01 X9.2976  Y28.7869 
G01 X9.3307  Y28.9536 
G01 X9.3957  Y29.1105 
G01 X9.4901  Y29.2517 
G01 X9.6103  Y29.3719 
G01 X9.7515  Y29.4662 
G01 X9.9084  Y29.5313 
G01 X10.0751 Y29.5644 
G01 X10.2449 Y29.5644 
G01 X10.4116 Y29.5313 
G01 X10.5685 Y29.4662 
G01 X10.7097 Y29.3719 
G01 X10.8299 Y29.2517 
G01 X10.9242 Y29.1105 
G01 X10.9893 Y28.9536 
G01 X11.0224 Y28.7869 
G01 X11.0224 Y27.0931 
G01 X10.9893 Y26.9264 
G01 X10.9242 Y26.7695 
G01 X10.8299 Y26.6283 
G01 X10.7097 Y26.5081 
G00 Z3.0000  
G00 X11.0229 Y36.1923 
G01 Z-0.0800 F254   
G01 X10.9135 Y36.3561 F508   
G01 X10.8380 Y36.5382 
G01 X10.7996 Y36.7315 
G01 X10.7996 Y36.9285 
G01 X10.8380 Y37.1218 
G01 X10.9135 Y37.3039 
G01 X11.0229 Y37.4677 
G01 X11.1623 Y37.6071 
G01 X11.3261 Y37.7165 
G01 X11.5082 Y37.7920 
G01 X11.7015 Y37.8304 
G01 X13.6985 Y37.8304 
G01 X13.8918 Y37.7920 
G01 X14.0739 Y37.7165 
G01 X14.2377 Y37.6071 
G01 X14.3771 Y37.4677 
G01 X14.4865 Y37.3039 
G01 X14.5620 Y37.1218 
G01 X14.6004 Y36.9285 
G01 X14.6004 Y36.7315 
G01 X14.5620 Y36.5382 
G01 X14.4865 Y36.3561 
G01 X14.3771 Y36.1923 
G01 X14.2377 Y36.0529 
G01 X14.0739 Y35.9435 
G01 X13.8918 Y35.8680 
G01 X13.6985 Y35.8296 
G01 X11.7015 Y35.8296 
G01 X11.5082 Y35.8680 
G01 X11.3261 Y35.9435 
G01 X11.1623 Y36.0529 
G01 X11.0229 Y36.1923 
G00 Z3.0000  
G00 X11.0229 Y38.7323 
G01 Z-0.0800 F254   
G01 X10.9135 Y38.8961 F508   
G01 X10.8380 Y39.0782 
G01 X10.7996 Y39.2715 
G01 X10.7996 Y39.4685 
G01 X10.8380 Y39.6618 
G01 X10.9135 Y39.8439 
G01 X11.0229 Y40.0077 
G01 X11.1623 Y40.1471 
G01 X11.3261 Y40.2565 
G01 X11.5082 Y40.3320 
G01 X11.7015 Y40.3704 
G01 X13.6985 Y40.3704 
G01 X13.8918 Y40.3320 
G01 X14.0739 Y40.2565 
G01 X14.2377 Y40.1471 
G01 X14.3771 Y40.0077 
G01 X14.4865 Y39.8439 
G01 X14.5620 Y39.6618 
G01 X14.6004 Y39.4685 
G01 X14.6004 Y39.2715 
G01 X14.5620 Y39.0782 
G01 X14.4865 Y38.8961 
G01 X14.3771 Y38.7323 
G01 X14.2377 Y38.5929 
G01 X14.0739 Y38.4835 
G01 X13.8918 Y38.4080 
G01 X13.6985 Y38.3696 
G01 X11.7015 Y38.3696 
G01 X11.5082 Y38.4080 
G01 X11.3261 Y38.4835 
G01 X11.1623 Y38.5929 
G01 X11.0229 Y38.7323 
G00 Z3.0000  
G00 X11.0229 Y41.2723 
G01 Z-0.0800 F254   
G01 X10.9135 Y41.4361 F508   
G01 X10.8380 Y41.6182 
G01 X10.7996 Y41.8115 
G01 X10.7996 Y42.0085 
G01 X10.8380 Y42.2018 
G01 X10.9135 Y42.3839 
G01 X11.0229 Y42.5477 
G01 X11.1623 Y42.6871 
G01 X11.3261 Y42.7965 
G01 X11.5082 Y42.8720 
G01 X11.7015 Y42.9104 
G01 X13.6985 Y42.9104 
G01 X13.8918 Y42.8720 
G01 X14.0739 Y42.7965 
G01 X14.2377 Y42.6871 
G01 X14.3771 Y42.5477 
G01 X14.4865 Y42.3839 
G01 X14.5620 Y42.2018 
G01 X14.6004 Y42.0085 
G01 X14.6004 Y41.8115 
G01 X14.5620 Y41.6182 
G01 X14.4865 Y41.4361 
G01 X14.3771 Y41.2723 
G01 X14.2377 Y41.1329 
G01 X14.0739 Y41.0235 
G01 X13.8918 Y40.9480 
G01 X13.6985 Y40.9096 
G01 X11.7015 Y40.9096 
G01 X11.5082 Y40.9480 
G01 X11.3261 Y41.0235 
G01 X11.1623 Y41.1329 
G01 X11.0229 Y41.2723 
G00 Z3.0000  
G00 X11.0229 Y43.8123 
G01 Z-0.0800 F254   
G01 X10.9135 Y43.9761 F508   
G01 X10.8380 Y44.1582 
G01 X10.7996 Y44.3515 
G01 X10.7996 Y44.5485 
G01 X10.8380 Y44.7418 
G01 X10.9135 Y44.9239 
G01 X11.0229 Y45.0877 
G01 X11.1623 Y45.2271 
G01 X11.3261 Y45.3365 
G01 X11.5082 Y45.4120 
G01 X11.7015 Y45.4504 
G01 X13.6985 Y45.4504 
G01 X13.8918 Y45.4120 
G01 X14.0739 Y45.3365 
G01 X14.2377 Y45.2271 
G01 X14.3771 Y45.0877 
G01 X14.4865 Y44.9239 
G01 X14.5620 Y44.7418 
G01 X14.6004 Y44.5485 
G01 X14.6004 Y44.3515 
G01 X14.5620 Y44.1582 
G01 X14.4865 Y43.9761 
G01 X14.3771 Y43.8123 
G01 X14.2377 Y43.6729 
G01 X14.0739 Y43.5635 
G01 X13.8918 Y43.4880 
G01 X13.6985 Y43.4496 
G01 X11.7015 Y43.4496 
G01 X11.5082 Y43.4880 
G01 X11.3261 Y43.5635 
G01 X11.1623 Y43.6729 
G01 X11.0229 Y43.8123 
G00 Z3.0000  
G00 X11.0229 Y46.3523 
G01 Z-0.0800 F254   
G01 X10.9135 Y46.5161 F508   
G01 X10.8380 Y46.6982 
G01 X10.7996 Y46.8915 
G01 X10.7996 Y47.0885 
G01 X10.8380 Y47.2818 
G01 X10.9135 Y47.4639 
G01 X11.0229 Y47.6277 
G01 X11.1623 Y47.7671 
G01 X11.3261 Y47.8765 
G01 X11.5082 Y47.9520 
G01 X11.7015 Y47.9904 
G01 X13.6985 Y47.9904 
G01 X13.8918 Y47.9520 
G01 X14.0739 Y47.8765 
G01 X14.2377 Y47.7671 
G01 X14.3771 Y47.6277 
G01 X14.4865 Y47.4639 
G01 X14.5620 Y47.2818 
G01 X14.6004 Y47.0885 
G01 X14.6004 Y46.8915 
G01 X14.5620 Y46.6982 
G01 X14.4865 Y46.5161 
G01 X14.3771 Y46.3523 
G01 X14.2377 Y46.2129 
G01 X14.0739 Y46.1035 
G01 X13.8918 Y46.0280 
G01 X13.6985 Y45.9896 
G01 X11.7015 Y45.9896 
G01 X11.5082 Y46.0280 
G01 X11.3261 Y46.1035 
G01 X11.1623 Y46.2129 
G01 X11.0229 Y46.3523 
G00 Z3.0000  
G00 X11.0229 Y48.8923 
G01 Z-0.0800 F254   
G01 X10.9135 Y49.0561 F508   
G01 X10.8380 Y49.2382 
G01 X10.7996 Y49.4315 
G01 X10.7996 Y49.6285 
G01 X10.8380 Y49.8218 
G01 X10.9135 Y50.0039 
G01 X11.0229 Y50.1677 
G01 X11.1623 Y50.3071 
G01 X11.3261 Y50.4165 
G01 X11.5082 Y50.4920 
G01 X11.7015 Y50.5304 
G01 X13.6985 Y50.5304 
G01 X13.8918 Y50.4920 
G01 X14.0739 Y50.4165 
G01 X14.2377 Y50.3071 
G01 X14.3771 Y50.1677 
G01 X14.4865 Y50.0039 
G01 X14.5620 Y49.8218 
G01 X14.6004 Y49.6285 
G01 X14.6004 Y49.4315 
G01 X14.5620 Y49.2382 
G01 X14.4865 Y49.0561 
G01 X14.3771 Y48.8923 
G01 X14.2377 Y48.7529 
G01 X14.0739 Y48.6435 
G01 X13.8918 Y48.5680 
G01 X13.6985 Y48.5296 
G01 X11.7015 Y48.5296 
G01 X11.5082 Y48.5680 
G01 X11.3261 Y48.6435 
G01 X11.1623 Y48.7529 
G01 X11.0229 Y48.8923 
G00 Z3.0000  
G00 X11.0229 Y51.4323 
G01 Z-0.0800 F254   
G01 X10.9135 Y51.5961 F508   
G01 X10.8380 Y51.7782 
G01 X10.7996 Y51.9715 
G01 X10.7996 Y52.1685 
G01 X10.8380 Y52.3618 
G01 X10.9135 Y52.5439 
G01 X11.0229 Y52.7077 
G01 X11.1623 Y52.8471 
G01 X11.3261 Y52.9565 
G01 X11.5082 Y53.0320 
G01 X11.7015 Y53.0704 
G01 X13.6985 Y53.0704 
G01 X13.8918 Y53.0320 
G01 X14.0739 Y52.9565 
G01 X14.2377 Y52.8471 
G01 X14.3771 Y52.7077 
G01 X14.4865 Y52.5439 
G01 X14.5620 Y52.3618 
G01 X14.6004 Y52.1685 
G01 X14.6004 Y51.9715 
G01 X14.5620 Y51.7782 
G01 X14.4865 Y51.5961 
G01 X14.3771 Y51.4323 
G01 X14.2377 Y51.2929 
G01 X14.0739 Y51.1835 
G01 X13.8918 Y51.1080 
G01 X13.6985 Y51.0696 
G01 X11.7015 Y51.0696 
G01 X11.5082 Y51.1080 
G01 X11.3261 Y51.1835 
G01 X11.1623 Y51.2929 
G01 X11.0229 Y51.4323 
G00 Z3.0000  
G00 X12.0005 Y55.3060 
G01 Z-0.0800 F254   
G01 X11.9020 Y55.4535 F508   
G01 X11.8341 Y55.6173 
G01 X11.7995 Y55.7913 
G01 X11.7995 Y55.9687 
G01 X11.8341 Y56.1427 
G01 X11.9020 Y56.3065 
G01 X12.0005 Y56.4540 
G01 X12.1260 Y56.5795 
G01 X12.2735 Y56.6780 
G01 X12.4373 Y56.7459 
G01 X12.6113 Y56.7805 
G01 X12.7887 Y56.7805 
G01 X12.9627 Y56.7459 
G01 X13.1265 Y56.6780 
G01 X13.2740 Y56.5795 
G01 X13.3995 Y56.4540 
G01 X13.4980 Y56.3065 
G01 X13.5659 Y56.1427 
G01 X13.6005 Y55.9687 
G01 X13.6005 Y55.7913 
G01 X13.5659 Y55.6173 
G01 X13.4980 Y55.4535 
G01 X13.3995 Y55.3060 
G01 X13.2740 Y55.1805 
G01 X13.1265 Y55.0820 
G01 X12.9627 Y55.0141 
G01 X12.7887 Y54.9795 
G01 X12.6113 Y54.9795 
G01 X12.4373 Y55.0141 
G01 X12.2735 Y55.0820 
G01 X12.1260 Y55.1805 
G01 X12.0005 Y55.3060 
G00 Z3.0000  
G00 X12.3270 Y57.5195 
G01 Z-0.0800 F254   
G01 X11.7995 Y58.0470 F508   
G01 X11.7995 Y58.7930 
G01 X12.3270 Y59.3205 
G01 X13.0730 Y59.3205 
G01 X13.6005 Y58.7930 
G01 X13.6005 Y58.0470 
G01 X13.0730 Y57.5195 
G01 X12.3270 Y57.5195 
G00 Z3.0000  
G00 X14.9249 Y56.6408 
G01 Z-0.0800 F254   
G01 X15.5551 Y56.6408 F508   
G01 X16.0008 Y56.1951 
G01 X16.0008 Y55.5649 
G01 X15.5551 Y55.1192 
G01 X14.9249 Y55.1192 
G01 X14.4792 Y55.5649 
G01 X14.4792 Y56.1951 
G01 X14.9249 Y56.6408 
G00 Z3.0000  
G00 X17.4649 Y56.6408 
G01 Z-0.0800 F254   
G01 X18.0951 Y56.6408 F508   
G01 X18.5408 Y56.1951 
G01 X18.5408 Y55.5649 
G01 X18.0951 Y55.1192 
G01 X17.4649 Y55.1192 
G01 X17.0192 Y55.5649 
G01 X17.0192 Y56.1951 
G01 X17.4649 Y56.6408 
G00 Z3.0000  
G00 X22.0992 Y56.8301 
G01 Z-0.0800 F254   
G01 X22.5449 Y57.2758 F508   
G01 X23.1751 Y57.2758 
G01 X23.6208 Y56.8301 
G01 X23.6208 Y56.6154 
G01 X24.6646 Y56.6154 
G01 X24.6646 Y57.8787 
G01 X24.4451 Y57.6592 
G01 X23.8149 Y57.6592 
G01 X23.3692 Y58.1049 
G01 X23.3692 Y58.7351 
G01 X23.8149 Y59.1808 
G01 X24.4451 Y59.1808 
G01 X24.6646 Y58.9613 
G01 X24.6646 Y59.7624 
G01 X24.6929 Y59.9045 
G01 X24.7483 Y60.0383 
G01 X24.8288 Y60.1588 
G01 X24.9312 Y60.2612 
G01 X25.0517 Y60.3417 
G01 X25.1855 Y60.3971 
G01 X25.3276 Y60.4254 
G01 X25.4724 Y60.4254 
G01 X25.6145 Y60.3971 
G01 X25.7483 Y60.3417 
G01 X25.8688 Y60.2612 
G01 X25.9712 Y60.1588 
G01 X26.0517 Y60.0383 
G01 X26.0702 Y59.9936 
G01 X37.8058 Y59.9936 
G01 X37.8484 Y60.0113 
G01 X38.0151 Y60.0444 
G01 X38.1849 Y60.0444 
G01 X38.3516 Y60.0113 
G01 X38.3942 Y59.9936 
G01 X40.3458 Y59.9936 
G01 X40.3884 Y60.0113 
G01 X40.5551 Y60.0444 
G01 X40.7249 Y60.0444 
G01 X40.8916 Y60.0113 
G01 X40.9342 Y59.9936 
G01 X45.0498 Y59.9936 
G01 X45.0683 Y60.0383 
G01 X45.1488 Y60.1588 
G01 X45.2512 Y60.2612 
G01 X45.3717 Y60.3417 
G01 X45.5055 Y60.3971 
G01 X45.6476 Y60.4254 
G01 X45.7924 Y60.4254 
G01 X45.9345 Y60.3971 
G01 X46.0683 Y60.3417 
G01 X46.1888 Y60.2612 
G01 X46.2912 Y60.1588 
G01 X46.3717 Y60.0383 
G01 X46.4271 Y59.9045 
G01 X46.4554 Y59.7624 
G01 X46.4554 Y21.0554 
G01 X57.6846 Y21.0554 
G01 X57.6846 Y24.6646 
G01 X56.4688 Y24.6646 
G01 X56.3246 Y24.5682 
G01 X56.1538 Y24.4975 
G01 X55.9724 Y24.4614 
G01 X55.7876 Y24.4614 
G01 X55.6062 Y24.4975 
G01 X55.4354 Y24.5682 
G01 X55.2817 Y24.6709 
G01 X55.1509 Y24.8017 
G01 X55.0482 Y24.9554 
G01 X54.9775 Y25.1262 
G01 X54.9414 Y25.3076 
G01 X54.9414 Y25.4924 
G01 X54.9775 Y25.6738 
G01 X55.0482 Y25.8446 
G01 X55.1509 Y25.9983 
G01 X55.2817 Y26.1291 
G01 X55.4354 Y26.2318 
G01 X55.6062 Y26.3025 
G01 X55.7876 Y26.3386 
G01 X55.9724 Y26.3386 
G01 X56.1538 Y26.3025 
G01 X56.3246 Y26.2318 
G01 X56.4688 Y26.1354 
G01 X58.4924 Y26.1354 
G01 X58.6345 Y26.1071 
G01 X58.7683 Y26.0517 
G01 X58.8888 Y25.9712 
G01 X58.9912 Y25.8688 
G01 X59.0717 Y25.7483 
G01 X59.1271 Y25.6145 
G01 X59.1554 Y25.4724 
G01 X59.1554 Y20.2476 
G01 X59.1271 Y20.1055 
G01 X59.0717 Y19.9717 
G01 X58.9912 Y19.8512 
G01 X58.8888 Y19.7488 
G01 X58.7683 Y19.6683 
G01 X58.6345 Y19.6129 
G01 X58.4924 Y19.5846 
G01 X45.6476 Y19.5846 
G01 X45.5055 Y19.6129 
G01 X45.3717 Y19.6683 
G01 X45.2512 Y19.7488 
G01 X45.1488 Y19.8512 
G01 X45.0683 Y19.9717 
G01 X45.0129 Y20.1055 
G01 X44.9846 Y20.2476 
G01 X44.9846 Y59.3864 
G01 X41.4786 Y59.3864 
G01 X41.5024 Y59.2669 
G01 X41.5024 Y57.5731 
G01 X41.4693 Y57.4064 
G01 X41.4042 Y57.2495 
G01 X41.3099 Y57.1082 
G01 X41.1897 Y56.9881 
G01 X41.0485 Y56.8937 
G01 X40.8916 Y56.8287 
G01 X40.7249 Y56.7956 
G01 X40.5551 Y56.7956 
G01 X40.3884 Y56.8287 
G01 X40.2315 Y56.8937 
G01 X40.0902 Y56.9881 
G01 X39.9701 Y57.1082 
G01 X39.8757 Y57.2495 
G01 X39.8107 Y57.4064 
G01 X39.7776 Y57.5731 
G01 X39.7776 Y59.2669 
G01 X39.8014 Y59.3864 
G01 X38.9386 Y59.3864 
G01 X38.9624 Y59.2669 
G01 X38.9624 Y57.5731 
G01 X38.9293 Y57.4064 
G01 X38.8642 Y57.2495 
G01 X38.7699 Y57.1082 
G01 X38.6497 Y56.9881 
G01 X38.5085 Y56.8937 
G01 X38.3516 Y56.8287 
G01 X38.1849 Y56.7956 
G01 X38.0151 Y56.7956 
G01 X37.8484 Y56.8287 
G01 X37.6915 Y56.8937 
G01 X37.5502 Y56.9881 
G01 X37.4301 Y57.1082 
G01 X37.3357 Y57.2495 
G01 X37.2707 Y57.4064 
G01 X37.2376 Y57.5731 
G01 X37.2376 Y59.2669 
G01 X37.2614 Y59.3864 
G01 X26.1354 Y59.3864 
G01 X26.1354 Y55.8076 
G01 X26.1071 Y55.6655 
G01 X26.0517 Y55.5317 
G01 X25.9712 Y55.4112 
G01 X25.8688 Y55.3088 
G01 X25.7483 Y55.2283 
G01 X25.6145 Y55.1729 
G01 X25.4724 Y55.1446 
G01 X22.7876 Y55.1446 
G01 X22.6455 Y55.1729 
G01 X22.5117 Y55.2283 
G01 X22.3912 Y55.3088 
G01 X22.2888 Y55.4112 
G01 X22.2083 Y55.5317 
G01 X22.1529 Y55.6655 
G01 X22.1246 Y55.8076 
G01 X22.1246 Y56.1745 
G01 X22.0992 Y56.1999 
G01 X22.0992 Y56.8301 
G00 Z3.0000  
G00 X21.9051 Y57.6592 
G01 Z-0.0800 F254   
G01 X21.2749 Y57.6592 F508   
G01 X20.8292 Y58.1049 
G01 X20.8292 Y58.7351 
G01 X21.2749 Y59.1808 
G01 X21.9051 Y59.1808 
G01 X22.3508 Y58.7351 
G01 X22.3508 Y58.1049 
G01 X21.9051 Y57.6592 
G00 Z3.0000  
G00 X20.7252 Y60.5548 
G01 Z-0.0800 F254   
G01 X20.7252 Y54.0107 F508   
G01 X21.0808 Y53.6551 
G01 X21.0808 Y53.0249 
G01 X20.6351 Y52.5792 
G01 X20.0049 Y52.5792 
G01 X19.5592 Y53.0249 
G01 X19.5592 Y53.6551 
G01 X19.9148 Y54.0107 
G01 X19.9148 Y61.0133 
G01 X19.9424 Y61.1164 
G01 X19.9958 Y61.2088 
G01 X20.0712 Y61.2842 
G01 X20.1636 Y61.3376 
G01 X20.2667 Y61.3652 
G01 X57.8063 Y61.3652 
G01 X57.8488 Y61.4288 
G01 X57.9512 Y61.5312 
G01 X58.0717 Y61.6117 
G01 X58.2055 Y61.6671 
G01 X58.3476 Y61.6954 
G01 X58.4924 Y61.6954 
G01 X58.6345 Y61.6671 
G01 X58.7683 Y61.6117 
G01 X58.8888 Y61.5312 
G01 X58.9912 Y61.4288 
G01 X59.0717 Y61.3083 
G01 X59.1271 Y61.1745 
G01 X59.1554 Y61.0324 
G01 X59.1554 Y43.1076 
G01 X59.1271 Y42.9655 
G01 X59.0717 Y42.8317 
G01 X58.9912 Y42.7112 
G01 X58.8888 Y42.6088 
G01 X58.7683 Y42.5283 
G01 X58.6345 Y42.4729 
G01 X58.4924 Y42.4446 
G01 X56.4688 Y42.4446 
G01 X56.3246 Y42.3482 
G01 X56.1538 Y42.2775 
G01 X55.9724 Y42.2414 
G01 X55.7876 Y42.2414 
G01 X55.6062 Y42.2775 
G01 X55.4354 Y42.3482 
G01 X55.2817 Y42.4509 
G01 X55.1509 Y42.5817 
G01 X55.0482 Y42.7354 
G01 X54.9775 Y42.9062 
G01 X54.9414 Y43.0876 
G01 X54.9414 Y43.2724 
G01 X54.9775 Y43.4538 
G01 X55.0482 Y43.6246 
G01 X55.1509 Y43.7783 
G01 X55.2817 Y43.9091 
G01 X55.4354 Y44.0118 
G01 X55.6062 Y44.0825 
G01 X55.7876 Y44.1186 
G01 X55.9724 Y44.1186 
G01 X56.1538 Y44.0825 
G01 X56.3246 Y44.0118 
G01 X56.4688 Y43.9154 
G01 X57.6846 Y43.9154 
G01 X57.6846 Y60.5548 
G01 X20.7252 Y60.5548 
G00 Z3.0000  
G00 X15.7897 Y62.0681 
G01 Z-0.0800 F254   
G01 X15.6485 Y61.9738 F508   
G01 X15.4916 Y61.9087 
G01 X15.3249 Y61.8756 
G01 X15.1551 Y61.8756 
G01 X14.9884 Y61.9087 
G01 X14.8315 Y61.9738 
G01 X14.6903 Y62.0681 
G01 X14.5701 Y62.1882 
G01 X14.4757 Y62.3295 
G01 X14.4107 Y62.4864 
G01 X14.3776 Y62.6531 
G01 X14.3776 Y64.3469 
G01 X14.4107 Y64.5136 
G01 X14.4757 Y64.6705 
G01 X14.5701 Y64.8117 
G01 X14.6903 Y64.9319 
G01 X14.8315 Y65.0262 
G01 X14.9884 Y65.0913 
G01 X15.1551 Y65.1244 
G01 X15.3249 Y65.1244 
G01 X15.4916 Y65.0913 
G01 X15.6485 Y65.0262 
G01 X15.7897 Y64.9319 
G01 X15.9099 Y64.8117 
G01 X16.0042 Y64.6705 
G01 X16.0693 Y64.5136 
G01 X16.1024 Y64.3469 
G01 X16.1024 Y62.6531 
G01 X16.0693 Y62.4864 
G01 X16.0042 Y62.3295 
G01 X15.9099 Y62.1882 
G01 X15.7897 Y62.0681 
G00 Z3.0000  
G00 X13.2497 Y62.0681 
G01 Z-0.0800 F254   
G01 X13.1085 Y61.9738 F508   
G01 X12.9516 Y61.9087 
G01 X12.7849 Y61.8756 
G01 X12.6151 Y61.8756 
G01 X12.4484 Y61.9087 
G01 X12.2915 Y61.9738 
G01 X12.1502 Y62.0681 
G01 X12.0301 Y62.1882 
G01 X11.9358 Y62.3295 
G01 X11.8707 Y62.4864 
G01 X11.8376 Y62.6531 
G01 X11.8376 Y64.3469 
G01 X11.8707 Y64.5136 
G01 X11.9358 Y64.6705 
G01 X12.0301 Y64.8117 
G01 X12.1502 Y64.9319 
G01 X12.2915 Y65.0262 
G01 X12.4484 Y65.0913 
G01 X12.6151 Y65.1244 
G01 X12.7849 Y65.1244 
G01 X12.9516 Y65.0913 
G01 X13.1085 Y65.0262 
G01 X13.2497 Y64.9319 
G01 X13.3699 Y64.8117 
G01 X13.4642 Y64.6705 
G01 X13.5293 Y64.5136 
G01 X13.5624 Y64.3469 
G01 X13.5624 Y62.6531 
G01 X13.5293 Y62.4864 
G01 X13.4642 Y62.3295 
G01 X13.3699 Y62.1882 
G01 X13.2497 Y62.0681 
G00 Z3.0000  
G00 X13.6962 Y67.9901 
G01 Z-0.0800 F254   
G01 X13.5949 Y68.1417 F508   
G01 X13.5252 Y68.3101 
G01 X13.4896 Y68.4889 
G01 X13.4896 Y68.6711 
G01 X13.5252 Y68.8499 
G01 X13.5949 Y69.0183 
G01 X13.6962 Y69.1699 
G01 X13.8251 Y69.2988 
G01 X13.9767 Y69.4001 
G01 X14.1451 Y69.4698 
G01 X14.3239 Y69.5054 
G01 X16.1561 Y69.5054 
G01 X16.3349 Y69.4698 
G01 X16.5033 Y69.4001 
G01 X16.6549 Y69.2988 
G01 X16.7838 Y69.1699 
G01 X16.8851 Y69.0183 
G01 X16.9548 Y68.8499 
G01 X16.9904 Y68.6711 
G01 X16.9904 Y68.4889 
G01 X16.9548 Y68.3101 
G01 X16.8851 Y68.1417 
G01 X16.7838 Y67.9901 
G01 X16.6549 Y67.8612 
G01 X16.5033 Y67.7599 
G01 X16.3349 Y67.6902 
G01 X16.1561 Y67.6546 
G01 X14.3239 Y67.6546 
G01 X14.1451 Y67.6902 
G01 X13.9767 Y67.7599 
G01 X13.8251 Y67.8612 
G01 X13.6962 Y67.9901 
G00 Z3.0000  
G00 X13.6962 Y70.5301 
G01 Z-0.0800 F254   
G01 X13.5949 Y70.6817 F508   
G01 X13.5252 Y70.8501 
G01 X13.4896 Y71.0289 
G01 X13.4896 Y71.2111 
G01 X13.5252 Y71.3899 
G01 X13.5949 Y71.5583 
G01 X13.6962 Y71.7099 
G01 X13.8251 Y71.8388 
G01 X13.9767 Y71.9401 
G01 X14.1451 Y72.0098 
G01 X14.3239 Y72.0454 
G01 X16.1561 Y72.0454 
G01 X16.3349 Y72.0098 
G01 X16.5033 Y71.9401 
G01 X16.6549 Y71.8388 
G01 X16.7838 Y71.7099 
G01 X16.8851 Y71.5583 
G01 X16.9548 Y71.3899 
G01 X16.9904 Y71.2111 
G01 X16.9904 Y71.0289 
G01 X16.9548 Y70.8501 
G01 X16.8851 Y70.6817 
G01 X16.7838 Y70.5301 
G01 X16.6549 Y70.4012 
G01 X16.5033 Y70.2999 
G01 X16.3349 Y70.2302 
G01 X16.1561 Y70.1946 
G01 X14.3239 Y70.1946 
G01 X14.1451 Y70.2302 
G01 X13.9767 Y70.2999 
G01 X13.8251 Y70.4012 
G01 X13.6962 Y70.5301 
G00 Z3.0000  
G00 X13.6962 Y73.0701 
G01 Z-0.0800 F254   
G01 X13.5949 Y73.2217 F508   
G01 X13.5252 Y73.3901 
G01 X13.4896 Y73.5689 
G01 X13.4896 Y73.7511 
G01 X13.5252 Y73.9299 
G01 X13.5949 Y74.0983 
G01 X13.6962 Y74.2499 
G01 X13.8251 Y74.3788 
G01 X13.9767 Y74.4801 
G01 X14.1451 Y74.5498 
G01 X14.3239 Y74.5854 
G01 X16.1561 Y74.5854 
G01 X16.3349 Y74.5498 
G01 X16.5033 Y74.4801 
G01 X16.6549 Y74.3788 
G01 X16.7838 Y74.2499 
G01 X16.8851 Y74.0983 
G01 X16.9548 Y73.9299 
G01 X16.9904 Y73.7511 
G01 X16.9904 Y73.5689 
G01 X16.9548 Y73.3901 
G01 X16.8851 Y73.2217 
G01 X16.7838 Y73.0701 
G01 X16.6549 Y72.9412 
G01 X16.5033 Y72.8399 
G01 X16.3349 Y72.7702 
G01 X16.1561 Y72.7346 
G01 X14.3239 Y72.7346 
G01 X14.1451 Y72.7702 
G01 X13.9767 Y72.8399 
G01 X13.8251 Y72.9412 
G01 X13.6962 Y73.0701 
G00 Z3.0000  
G00 X24.5376 Y72.8131 
G01 Z-0.0800 F254   
G01 X24.5376 Y74.5069 F508   
G01 X24.5707 Y74.6736 
G01 X24.6358 Y74.8305 
G01 X24.7301 Y74.9717 
G01 X24.8502 Y75.0919 
G01 X24.9915 Y75.1862 
G01 X25.1484 Y75.2513 
G01 X25.3151 Y75.2844 
G01 X25.4849 Y75.2844 
G01 X25.6516 Y75.2513 
G01 X25.8085 Y75.1862 
G01 X25.9497 Y75.0919 
G01 X26.0699 Y74.9717 
G01 X26.1642 Y74.8305 
G01 X26.2293 Y74.6736 
G01 X26.2624 Y74.5069 
G01 X26.2624 Y72.8131 
G01 X26.2293 Y72.6464 
G01 X26.1642 Y72.4895 
G01 X26.0699 Y72.3482 
G01 X25.9497 Y72.2281 
G01 X25.8085 Y72.1338 
G01 X25.6516 Y72.0687 
G01 X25.4849 Y72.0356 
G01 X25.3151 Y72.0356 
G01 X25.1484 Y72.0687 
G01 X24.9915 Y72.1338 
G01 X24.8502 Y72.2281 
G01 X24.7301 Y72.3482 
G01 X24.6358 Y72.4895 
G01 X24.5707 Y72.6464 
G01 X24.5376 Y72.8131 
G00 Z3.0000  
G00 X27.0776 Y72.8131 
G01 Z-0.0800 F254   
G01 X27.0776 Y74.5069 F508   
G01 X27.1107 Y74.6736 
G01 X27.1758 Y74.8305 
G01 X27.2701 Y74.9717 
G01 X27.3903 Y75.0919 
G01 X27.5315 Y75.1862 
G01 X27.6884 Y75.2513 
G01 X27.8551 Y75.2844 
G01 X28.0249 Y75.2844 
G01 X28.1916 Y75.2513 
G01 X28.3485 Y75.1862 
G01 X28.4897 Y75.0919 
G01 X28.6099 Y74.9717 
G01 X28.7042 Y74.8305 
G01 X28.7693 Y74.6736 
G01 X28.8024 Y74.5069 
G01 X28.8024 Y72.8131 
G01 X28.7693 Y72.6464 
G01 X28.7042 Y72.4895 
G01 X28.6099 Y72.3482 
G01 X28.4897 Y72.2281 
G01 X28.3485 Y72.1338 
G01 X28.1916 Y72.0687 
G01 X28.0249 Y72.0356 
G01 X27.8551 Y72.0356 
G01 X27.6884 Y72.0687 
G01 X27.5315 Y72.1338 
G01 X27.3903 Y72.2281 
G01 X27.2701 Y72.3482 
G01 X27.1758 Y72.4895 
G01 X27.1107 Y72.6464 
G01 X27.0776 Y72.8131 
G00 Z3.0000  
G00 X29.6176 Y72.8131 
G01 Z-0.0800 F254   
G01 X29.6176 Y74.5069 F508   
G01 X29.6507 Y74.6736 
G01 X29.7157 Y74.8305 
G01 X29.8101 Y74.9717 
G01 X29.9303 Y75.0919 
G01 X30.0715 Y75.1862 
G01 X30.2284 Y75.2513 
G01 X30.3951 Y75.2844 
G01 X30.5649 Y75.2844 
G01 X30.7316 Y75.2513 
G01 X30.8885 Y75.1862 
G01 X31.0297 Y75.0919 
G01 X31.1499 Y74.9717 
G01 X31.2442 Y74.8305 
G01 X31.3093 Y74.6736 
G01 X31.3424 Y74.5069 
G01 X31.3424 Y72.8131 
G01 X31.3093 Y72.6464 
G01 X31.2442 Y72.4895 
G01 X31.1499 Y72.3482 
G01 X31.0297 Y72.2281 
G01 X30.8885 Y72.1338 
G01 X30.7316 Y72.0687 
G01 X30.5649 Y72.0356 
G01 X30.3951 Y72.0356 
G01 X30.2284 Y72.0687 
G01 X30.0715 Y72.1338 
G01 X29.9303 Y72.2281 
G01 X29.8101 Y72.3482 
G01 X29.7157 Y72.4895 
G01 X29.6507 Y72.6464 
G01 X29.6176 Y72.8131 
G00 Z3.0000  
G00 X29.9303 Y67.4719 
G01 Z-0.0800 F254   
G01 X30.0715 Y67.5662 F508   
G01 X30.2284 Y67.6313 
G01 X30.3951 Y67.6644 
G01 X30.5649 Y67.6644 
G01 X30.7316 Y67.6313 
G01 X30.8885 Y67.5662 
G01 X31.0297 Y67.4719 
G01 X31.1499 Y67.3517 
G01 X31.2442 Y67.2105 
G01 X31.3093 Y67.0536 
G01 X31.3424 Y66.8869 
G01 X31.3424 Y65.1931 
G01 X31.3093 Y65.0264 
G01 X31.2442 Y64.8695 
G01 X31.1778 Y64.7700 
G01 X31.2442 Y64.6705 
G01 X31.3093 Y64.5136 
G01 X31.3424 Y64.3469 
G01 X31.3424 Y62.6531 
G01 X31.3093 Y62.4864 
G01 X31.2442 Y62.3295 
G01 X31.1499 Y62.1882 
G01 X31.0297 Y62.0681 
G01 X30.8885 Y61.9738 
G01 X30.7316 Y61.9087 
G01 X30.5649 Y61.8756 
G01 X30.3951 Y61.8756 
G01 X30.2284 Y61.9087 
G01 X30.0715 Y61.9738 
G01 X29.9303 Y62.0681 
G01 X29.8101 Y62.1882 
G01 X29.7157 Y62.3295 
G01 X29.6507 Y62.4864 
G01 X29.6176 Y62.6531 
G01 X29.6176 Y64.3469 
G01 X29.6507 Y64.5136 
G01 X29.7157 Y64.6705 
G01 X29.7822 Y64.7700 
G01 X29.7157 Y64.8695 
G01 X29.6507 Y65.0264 
G01 X29.6176 Y65.1931 
G01 X29.6176 Y66.8869 
G01 X29.6507 Y67.0536 
G01 X29.7157 Y67.2105 
G01 X29.8101 Y67.3517 
G01 X29.9303 Y67.4719 
G00 Z3.0000  
G00 X28.6099 Y67.3517 
G01 Z-0.0800 F254   
G01 X28.7042 Y67.2105 F508   
G01 X28.7693 Y67.0536 
G01 X28.8024 Y66.8869 
G01 X28.8024 Y65.1931 
G01 X28.7693 Y65.0264 
G01 X28.7042 Y64.8695 
G01 X28.6378 Y64.7700 
G01 X28.7042 Y64.6705 
G01 X28.7693 Y64.5136 
G01 X28.8024 Y64.3469 
G01 X28.8024 Y62.6531 
G01 X28.7693 Y62.4864 
G01 X28.7042 Y62.3295 
G01 X28.6099 Y62.1882 
G01 X28.4897 Y62.0681 
G01 X28.3485 Y61.9738 
G01 X28.1916 Y61.9087 
G01 X28.0249 Y61.8756 
G01 X27.8551 Y61.8756 
G01 X27.6884 Y61.9087 
G01 X27.5315 Y61.9738 
G01 X27.3903 Y62.0681 
G01 X27.2701 Y62.1882 
G01 X27.1758 Y62.3295 
G01 X27.1107 Y62.4864 
G01 X27.0776 Y62.6531 
G01 X27.0776 Y64.3469 
G01 X27.1107 Y64.5136 
G01 X27.1758 Y64.6705 
G01 X27.2422 Y64.7700 
G01 X27.1758 Y64.8695 
G01 X27.1107 Y65.0264 
G01 X27.0776 Y65.1931 
G01 X27.0776 Y66.8869 
G01 X27.1107 Y67.0536 
G01 X27.1758 Y67.2105 
G01 X27.2701 Y67.3517 
G01 X27.3903 Y67.4719 
G01 X27.5315 Y67.5662 
G01 X27.6884 Y67.6313 
G01 X27.8551 Y67.6644 
G01 X28.0249 Y67.6644 
G01 X28.1916 Y67.6313 
G01 X28.3485 Y67.5662 
G01 X28.4897 Y67.4719 
G01 X28.6099 Y67.3517 
G00 Z3.0000  
G00 X32.3501 Y67.3517 
G01 Z-0.0800 F254   
G01 X32.4703 Y67.4719 F508   
G01 X32.6115 Y67.5662 
G01 X32.7684 Y67.6313 
G01 X32.9351 Y67.6644 
G01 X33.1049 Y67.6644 
G01 X33.2716 Y67.6313 
G01 X33.4285 Y67.5662 
G01 X33.5697 Y67.4719 
G01 X33.6899 Y67.3517 
G01 X33.7842 Y67.2105 
G01 X33.8493 Y67.0536 
G01 X33.8824 Y66.8869 
G01 X33.8824 Y65.1931 
G01 X33.8493 Y65.0264 
G01 X33.7842 Y64.8695 
G01 X33.7178 Y64.7700 
G01 X33.7842 Y64.6705 
G01 X33.8493 Y64.5136 
G01 X33.8824 Y64.3469 
G01 X33.8824 Y62.6531 
G01 X33.8493 Y62.4864 
G01 X33.7842 Y62.3295 
G01 X33.6899 Y62.1882 
G01 X33.5697 Y62.0681 
G01 X33.4285 Y61.9738 
G01 X33.2716 Y61.9087 
G01 X33.1049 Y61.8756 
G01 X32.9351 Y61.8756 
G01 X32.7684 Y61.9087 
G01 X32.6115 Y61.9738 
G01 X32.4703 Y62.0681 
G01 X32.3501 Y62.1882 
G01 X32.2557 Y62.3295 
G01 X32.1907 Y62.4864 
G01 X32.1576 Y62.6531 
G01 X32.1576 Y64.3469 
G01 X32.1907 Y64.5136 
G01 X32.2557 Y64.6705 
G01 X32.3222 Y64.7700 
G01 X32.2557 Y64.8695 
G01 X32.1907 Y65.0264 
G01 X32.1576 Y65.1931 
G01 X32.1576 Y66.8869 
G01 X32.1907 Y67.0536 
G01 X32.2557 Y67.2105 
G01 X32.3501 Y67.3517 
G00 Z3.0000  
G00 X32.1731 Y56.7424 
G01 Z-0.0800 F254   
G01 X33.8669 Y56.7424 F508   
G01 X34.0336 Y56.7093 
G01 X34.1905 Y56.6442 
G01 X34.2900 Y56.5778 
G01 X34.3895 Y56.6442 
G01 X34.5464 Y56.7093 
G01 X34.7131 Y56.7424 
G01 X36.4069 Y56.7424 
G01 X36.5736 Y56.7093 
G01 X36.7305 Y56.6442 
G01 X36.8717 Y56.5499 
G01 X36.9919 Y56.4297 
G01 X37.0862 Y56.2885 
G01 X37.1513 Y56.1316 
G01 X37.1844 Y55.9649 
G01 X37.1844 Y55.7951 
G01 X37.1513 Y55.6284 
G01 X37.0862 Y55.4715 
G01 X36.9919 Y55.3302 
G01 X36.8717 Y55.2101 
G01 X36.7305 Y55.1157 
G01 X36.5736 Y55.0507 
G01 X36.4069 Y55.0176 
G01 X34.7131 Y55.0176 
G01 X34.5464 Y55.0507 
G01 X34.3895 Y55.1157 
G01 X34.2900 Y55.1822 
G01 X34.1905 Y55.1157 
G01 X34.0336 Y55.0507 
G01 X33.8669 Y55.0176 
G01 X32.1731 Y55.0176 
G01 X32.0064 Y55.0507 
G01 X31.8495 Y55.1157 
G01 X31.7500 Y55.1822 
G01 X31.6505 Y55.1157 
G01 X31.4936 Y55.0507 
G01 X31.3269 Y55.0176 
G01 X29.6331 Y55.0176 
G01 X29.4664 Y55.0507 
G01 X29.3095 Y55.1157 
G01 X29.2100 Y55.1822 
G01 X29.1105 Y55.1157 
G01 X28.9536 Y55.0507 
G01 X28.7869 Y55.0176 
G01 X27.0931 Y55.0176 
G01 X26.9264 Y55.0507 
G01 X26.7695 Y55.1157 
G01 X26.6283 Y55.2101 
G01 X26.5081 Y55.3302 
G01 X26.4138 Y55.4715 
G01 X26.3487 Y55.6284 
G01 X26.3156 Y55.7951 
G01 X26.3156 Y55.9649 
G01 X26.3487 Y56.1316 
G01 X26.4138 Y56.2885 
G01 X26.5081 Y56.4297 
G01 X26.6283 Y56.5499 
G01 X26.7695 Y56.6442 
G01 X26.9264 Y56.7093 
G01 X27.0931 Y56.7424 
G01 X28.7869 Y56.7424 
G01 X28.9536 Y56.7093 
G01 X29.1105 Y56.6442 
G01 X29.2100 Y56.5778 
G01 X29.3095 Y56.6442 
G01 X29.4664 Y56.7093 
G01 X29.6331 Y56.7424 
G01 X31.3269 Y56.7424 
G01 X31.4936 Y56.7093 
G01 X31.6505 Y56.6442 
G01 X31.7500 Y56.5778 
G01 X31.8495 Y56.6442 
G01 X32.0064 Y56.7093 
G01 X32.1731 Y56.7424 
G00 Z3.0000  
G00 X32.1731 Y54.2024 
G01 Z-0.0800 F254   
G01 X33.8669 Y54.2024 F508   
G01 X34.0336 Y54.1693 
G01 X34.1905 Y54.1042 
G01 X34.2900 Y54.0378 
G01 X34.3895 Y54.1042 
G01 X34.5464 Y54.1693 
G01 X34.7131 Y54.2024 
G01 X36.4069 Y54.2024 
G01 X36.5736 Y54.1693 
G01 X36.7305 Y54.1042 
G01 X36.8717 Y54.0099 
G01 X36.9919 Y53.8897 
G01 X37.0862 Y53.7485 
G01 X37.1513 Y53.5916 
G01 X37.1844 Y53.4249 
G01 X37.1844 Y53.2551 
G01 X37.1513 Y53.0884 
G01 X37.0862 Y52.9315 
G01 X36.9919 Y52.7903 
G01 X36.8717 Y52.6701 
G01 X36.7305 Y52.5757 
G01 X36.5736 Y52.5107 
G01 X36.4069 Y52.4776 
G01 X34.7131 Y52.4776 
G01 X34.5464 Y52.5107 
G01 X34.3895 Y52.5757 
G01 X34.2900 Y52.6422 
G01 X34.1905 Y52.5757 
G01 X34.0336 Y52.5107 
G01 X33.8669 Y52.4776 
G01 X32.1731 Y52.4776 
G01 X32.0064 Y52.5107 
G01 X31.8495 Y52.5757 
G01 X31.7500 Y52.6422 
G01 X31.6505 Y52.5757 
G01 X31.4936 Y52.5107 
G01 X31.3269 Y52.4776 
G01 X29.6331 Y52.4776 
G01 X29.4664 Y52.5107 
G01 X29.3095 Y52.5757 
G01 X29.2100 Y52.6422 
G01 X29.1105 Y52.5757 
G01 X28.9536 Y52.5107 
G01 X28.7869 Y52.4776 
G01 X27.0931 Y52.4776 
G01 X26.9264 Y52.5107 
G01 X26.7695 Y52.5757 
G01 X26.6283 Y52.6701 
G01 X26.5081 Y52.7903 
G01 X26.4138 Y52.9315 
G01 X26.3487 Y53.0884 
G01 X26.3156 Y53.2551 
G01 X26.3156 Y53.4249 
G01 X26.3487 Y53.5916 
G01 X26.4138 Y53.7485 
G01 X26.5081 Y53.8897 
G01 X26.6283 Y54.0099 
G01 X26.7695 Y54.1042 
G01 X26.9264 Y54.1693 
G01 X27.0931 Y54.2024 
G01 X28.7869 Y54.2024 
G01 X28.9536 Y54.1693 
G01 X29.1105 Y54.1042 
G01 X29.2100 Y54.0378 
G01 X29.3095 Y54.1042 
G01 X29.4664 Y54.1693 
G01 X29.6331 Y54.2024 
G01 X31.3269 Y54.2024 
G01 X31.4936 Y54.1693 
G01 X31.6505 Y54.1042 
G01 X31.7500 Y54.0378 
G01 X31.8495 Y54.1042 
G01 X32.0064 Y54.1693 
G01 X32.1731 Y54.2024 
G00 Z3.0000  
G00 X23.6208 Y53.6551 
G01 Z-0.0800 F254   
G01 X23.6208 Y53.0249 F508   
G01 X23.1751 Y52.5792 
G01 X22.5449 Y52.5792 
G01 X22.0992 Y53.0249 
G01 X22.0992 Y53.6551 
G01 X22.5449 Y54.1008 
G01 X23.1751 Y54.1008 
G01 X23.6208 Y53.6551 
G00 Z3.0000  
G00 X19.4571 Y51.4377 
G01 Z-0.0800 F254   
G01 X19.5665 Y51.2739 F508   
G01 X19.6420 Y51.0918 
G01 X19.6804 Y50.8985 
G01 X19.6804 Y50.7015 
G01 X19.6420 Y50.5082 
G01 X19.5665 Y50.3261 
G01 X19.4571 Y50.1623 
G01 X19.3177 Y50.0229 
G01 X19.1539 Y49.9135 
G01 X18.9718 Y49.8380 
G01 X18.7785 Y49.7996 
G01 X16.7815 Y49.7996 
G01 X16.5882 Y49.8380 
G01 X16.4061 Y49.9135 
G01 X16.2423 Y50.0229 
G01 X16.1029 Y50.1623 
G01 X15.9935 Y50.3261 
G01 X15.9180 Y50.5082 
G01 X15.8796 Y50.7015 
G01 X15.8796 Y50.8985 
G01 X15.9180 Y51.0918 
G01 X15.9935 Y51.2739 
G01 X16.1029 Y51.4377 
G01 X16.2423 Y51.5771 
G01 X16.4061 Y51.6865 
G01 X16.5882 Y51.7620 
G01 X16.7815 Y51.8004 
G01 X18.7785 Y51.8004 
G01 X18.9718 Y51.7620 
G01 X19.1539 Y51.6865 
G01 X19.3177 Y51.5771 
G01 X19.4571 Y51.4377 
G00 Z3.0000  
G00 X19.4571 Y48.8977 
G01 Z-0.0800 F254   
G01 X19.5665 Y48.7339 F508   
G01 X19.6420 Y48.5518 
G01 X19.6804 Y48.3585 
G01 X19.6804 Y48.1615 
G01 X19.6420 Y47.9682 
G01 X19.5665 Y47.7861 
G01 X19.4571 Y47.6223 
G01 X19.3177 Y47.4829 
G01 X19.1539 Y47.3735 
G01 X18.9718 Y47.2980 
G01 X18.7785 Y47.2596 
G01 X16.7815 Y47.2596 
G01 X16.5882 Y47.2980 
G01 X16.4061 Y47.3735 
G01 X16.2423 Y47.4829 
G01 X16.1029 Y47.6223 
G01 X15.9935 Y47.7861 
G01 X15.9180 Y47.9682 
G01 X15.8796 Y48.1615 
G01 X15.8796 Y48.3585 
G01 X15.9180 Y48.5518 
G01 X15.9935 Y48.7339 
G01 X16.1029 Y48.8977 
G01 X16.2423 Y49.0371 
G01 X16.4061 Y49.1465 
G01 X16.5882 Y49.2220 
G01 X16.7815 Y49.2604 
G01 X18.7785 Y49.2604 
G01 X18.9718 Y49.2220 
G01 X19.1539 Y49.1465 
G01 X19.3177 Y49.0371 
G01 X19.4571 Y48.8977 
G00 Z3.0000  
G00 X19.4571 Y46.3577 
G01 Z-0.0800 F254   
G01 X19.5665 Y46.1939 F508   
G01 X19.6420 Y46.0118 
G01 X19.6804 Y45.8185 
G01 X19.6804 Y45.6215 
G01 X19.6420 Y45.4282 
G01 X19.5665 Y45.2461 
G01 X19.4571 Y45.0823 
G01 X19.3177 Y44.9429 
G01 X19.1539 Y44.8335 
G01 X18.9718 Y44.7580 
G01 X18.7785 Y44.7196 
G01 X16.7815 Y44.7196 
G01 X16.5882 Y44.7580 
G01 X16.4061 Y44.8335 
G01 X16.2423 Y44.9429 
G01 X16.1029 Y45.0823 
G01 X15.9935 Y45.2461 
G01 X15.9180 Y45.4282 
G01 X15.8796 Y45.6215 
G01 X15.8796 Y45.8185 
G01 X15.9180 Y46.0118 
G01 X15.9935 Y46.1939 
G01 X16.1029 Y46.3577 
G01 X16.2423 Y46.4971 
G01 X16.4061 Y46.6065 
G01 X16.5882 Y46.6820 
G01 X16.7815 Y46.7204 
G01 X18.7785 Y46.7204 
G01 X18.9718 Y46.6820 
G01 X19.1539 Y46.6065 
G01 X19.3177 Y46.4971 
G01 X19.4571 Y46.3577 
G00 Z3.0000  
G00 X19.4571 Y43.8177 
G01 Z-0.0800 F254   
G01 X19.5665 Y43.6539 F508   
G01 X19.6420 Y43.4718 
G01 X19.6804 Y43.2785 
G01 X19.6804 Y43.0815 
G01 X19.6420 Y42.8882 
G01 X19.5665 Y42.7061 
G01 X19.4571 Y42.5423 
G01 X19.3177 Y42.4029 
G01 X19.1539 Y42.2935 
G01 X18.9718 Y42.2180 
G01 X18.7785 Y42.1796 
G01 X16.7815 Y42.1796 
G01 X16.5882 Y42.2180 
G01 X16.4061 Y42.2935 
G01 X16.2423 Y42.4029 
G01 X16.1029 Y42.5423 
G01 X15.9935 Y42.7061 
G01 X15.9180 Y42.8882 
G01 X15.8796 Y43.0815 
G01 X15.8796 Y43.2785 
G01 X15.9180 Y43.4718 
G01 X15.9935 Y43.6539 
G01 X16.1029 Y43.8177 
G01 X16.2423 Y43.9571 
G01 X16.4061 Y44.0665 
G01 X16.5882 Y44.1420 
G01 X16.7815 Y44.1804 
G01 X18.7785 Y44.1804 
G01 X18.9718 Y44.1420 
G01 X19.1539 Y44.0665 
G01 X19.3177 Y43.9571 
G01 X19.4571 Y43.8177 
G00 Z3.0000  
G00 X19.4571 Y41.2777 
G01 Z-0.0800 F254   
G01 X19.5665 Y41.1139 F508   
G01 X19.6420 Y40.9318 
G01 X19.6804 Y40.7385 
G01 X19.6804 Y40.5415 
G01 X19.6420 Y40.3482 
G01 X19.5665 Y40.1661 
G01 X19.4571 Y40.0023 
G01 X19.3177 Y39.8629 
G01 X19.1539 Y39.7535 
G01 X18.9718 Y39.6780 
G01 X18.7785 Y39.6396 
G01 X16.7815 Y39.6396 
G01 X16.5882 Y39.6780 
G01 X16.4061 Y39.7535 
G01 X16.2423 Y39.8629 
G01 X16.1029 Y40.0023 
G01 X15.9935 Y40.1661 
G01 X15.9180 Y40.3482 
G01 X15.8796 Y40.5415 
G01 X15.8796 Y40.7385 
G01 X15.9180 Y40.9318 
G01 X15.9935 Y41.1139 
G01 X16.1029 Y41.2777 
G01 X16.2423 Y41.4171 
G01 X16.4061 Y41.5265 
G01 X16.5882 Y41.6020 
G01 X16.7815 Y41.6404 
G01 X18.7785 Y41.6404 
G01 X18.9718 Y41.6020 
G01 X19.1539 Y41.5265 
G01 X19.3177 Y41.4171 
G01 X19.4571 Y41.2777 
G00 Z3.0000  
G00 X19.4571 Y38.7377 
G01 Z-0.0800 F254   
G01 X19.5665 Y38.5739 F508   
G01 X19.6420 Y38.3918 
G01 X19.6804 Y38.1985 
G01 X19.6804 Y38.0015 
G01 X19.6420 Y37.8082 
G01 X19.5665 Y37.6261 
G01 X19.4571 Y37.4623 
G01 X19.3177 Y37.3229 
G01 X19.1539 Y37.2135 
G01 X18.9718 Y37.1380 
G01 X18.7785 Y37.0996 
G01 X16.7815 Y37.0996 
G01 X16.5882 Y37.1380 
G01 X16.4061 Y37.2135 
G01 X16.2423 Y37.3229 
G01 X16.1029 Y37.4623 
G01 X15.9935 Y37.6261 
G01 X15.9180 Y37.8082 
G01 X15.8796 Y38.0015 
G01 X15.8796 Y38.1985 
G01 X15.9180 Y38.3918 
G01 X15.9935 Y38.5739 
G01 X16.1029 Y38.7377 
G01 X16.2423 Y38.8771 
G01 X16.4061 Y38.9865 
G01 X16.5882 Y39.0620 
G01 X16.7815 Y39.1004 
G01 X18.7785 Y39.1004 
G01 X18.9718 Y39.0620 
G01 X19.1539 Y38.9865 
G01 X19.3177 Y38.8771 
G01 X19.4571 Y38.7377 
G00 Z3.0000  
G00 X19.4571 Y36.1977 
G01 Z-0.0800 F254   
G01 X19.5665 Y36.0339 F508   
G01 X19.6420 Y35.8518 
G01 X19.6804 Y35.6585 
G01 X19.6804 Y35.4615 
G01 X19.6420 Y35.2682 
G01 X19.5665 Y35.0861 
G01 X19.4571 Y34.9223 
G01 X19.3177 Y34.7829 
G01 X19.1539 Y34.6735 
G01 X18.9718 Y34.5980 
G01 X18.7785 Y34.5596 
G01 X16.7815 Y34.5596 
G01 X16.5882 Y34.5980 
G01 X16.4061 Y34.6735 
G01 X16.2423 Y34.7829 
G01 X16.1029 Y34.9223 
G01 X15.9935 Y35.0861 
G01 X15.9180 Y35.2682 
G01 X15.8796 Y35.4615 
G01 X15.8796 Y35.6585 
G01 X15.9180 Y35.8518 
G01 X15.9935 Y36.0339 
G01 X16.1029 Y36.1977 
G01 X16.2423 Y36.3371 
G01 X16.4061 Y36.4465 
G01 X16.5882 Y36.5220 
G01 X16.7815 Y36.5604 
G01 X18.7785 Y36.5604 
G01 X18.9718 Y36.5220 
G01 X19.1539 Y36.4465 
G01 X19.3177 Y36.3371 
G01 X19.4571 Y36.1977 
G00 Z3.0000  
G00 X47.5309 Y36.1583 
G01 Z-0.0800 F254   
G01 X47.6617 Y36.2891 F508   
G01 X47.8154 Y36.3918 
G01 X47.9862 Y36.4625 
G01 X48.1676 Y36.4986 
G01 X48.3524 Y36.4986 
G01 X48.5338 Y36.4625 
G01 X48.7046 Y36.3918 
G01 X48.8583 Y36.2891 
G01 X48.9891 Y36.1583 
G01 X49.0918 Y36.0046 
G01 X49.1625 Y35.8338 
G01 X49.1986 Y35.6524 
G01 X49.1986 Y35.4676 
G01 X49.1625 Y35.2862 
G01 X49.0918 Y35.1154 
G01 X48.9891 Y34.9617 
G01 X48.8583 Y34.8309 
G01 X48.7046 Y34.7282 
G01 X48.5338 Y34.6575 
G01 X48.3524 Y34.6214 
G01 X48.1676 Y34.6214 
G01 X47.9862 Y34.6575 
G01 X47.8154 Y34.7282 
G01 X47.6617 Y34.8309 
G01 X47.5309 Y34.9617 
G01 X47.4282 Y35.1154 
G01 X47.3575 Y35.2862 
G01 X47.3214 Y35.4676 
G01 X47.3214 Y35.6524 
G01 X47.3575 Y35.8338 
G01 X47.4282 Y36.0046 
G01 X47.5309 Y36.1583 
G00 Z3.0000  
G00 X47.5309 Y37.5017 
G01 Z-0.0800 F254   
G01 X47.4282 Y37.6554 F508   
G01 X47.3575 Y37.8262 
G01 X47.3214 Y38.0076 
G01 X47.3214 Y38.1924 
G01 X47.3575 Y38.3738 
G01 X47.4282 Y38.5446 
G01 X47.5309 Y38.6983 
G01 X47.6617 Y38.8291 
G01 X47.8154 Y38.9318 
G01 X47.9862 Y39.0025 
G01 X48.1676 Y39.0386 
G01 X48.3524 Y39.0386 
G01 X48.5338 Y39.0025 
G01 X48.5821 Y38.9825 
G01 X55.0941 Y41.1532 
G01 X55.1509 Y41.2383 
G01 X55.2817 Y41.3691 
G01 X55.4354 Y41.4718 
G01 X55.6062 Y41.5425 
G01 X55.7876 Y41.5786 
G01 X55.9724 Y41.5786 
G01 X56.1538 Y41.5425 
G01 X56.3246 Y41.4718 
G01 X56.4783 Y41.3691 
G01 X56.6091 Y41.2383 
G01 X56.7118 Y41.0846 
G01 X56.7825 Y40.9138 
G01 X56.8186 Y40.7324 
G01 X56.8186 Y40.5476 
G01 X56.7825 Y40.3662 
G01 X56.7118 Y40.1954 
G01 X56.6091 Y40.0417 
G01 X56.4783 Y39.9109 
G01 X56.3246 Y39.8082 
G01 X56.1538 Y39.7375 
G01 X55.9724 Y39.7014 
G01 X55.7876 Y39.7014 
G01 X55.6062 Y39.7375 
G01 X55.5579 Y39.7575 
G01 X49.0459 Y37.5868 
G01 X48.9891 Y37.5017 
G01 X48.8583 Y37.3709 
G01 X48.7046 Y37.2682 
G01 X48.5338 Y37.1975 
G01 X48.3524 Y37.1614 
G01 X48.1676 Y37.1614 
G01 X47.9862 Y37.1975 
G01 X47.8154 Y37.2682 
G01 X47.6617 Y37.3709 
G01 X47.5309 Y37.5017 
G00 Z3.0000  
G00 X47.5309 Y40.0417 
G01 Z-0.0800 F254   
G01 X47.4282 Y40.1954 F508   
G01 X47.3575 Y40.3662 
G01 X47.3214 Y40.5476 
G01 X47.3214 Y40.7324 
G01 X47.3575 Y40.9138 
G01 X47.4282 Y41.0846 
G01 X47.5309 Y41.2383 
G01 X47.6617 Y41.3691 
G01 X47.8154 Y41.4718 
G01 X47.9862 Y41.5425 
G01 X48.1676 Y41.5786 
G01 X48.3524 Y41.5786 
G01 X48.5338 Y41.5425 
G01 X48.7046 Y41.4718 
G01 X48.8583 Y41.3691 
G01 X48.9891 Y41.2383 
G01 X49.0918 Y41.0846 
G01 X49.1625 Y40.9138 
G01 X49.1986 Y40.7324 
G01 X49.1986 Y40.5476 
G01 X49.1625 Y40.3662 
G01 X49.0918 Y40.1954 
G01 X48.9891 Y40.0417 
G01 X48.8583 Y39.9109 
G01 X48.7046 Y39.8082 
G01 X48.5338 Y39.7375 
G01 X48.3524 Y39.7014 
G01 X48.1676 Y39.7014 
G01 X47.9862 Y39.7375 
G01 X47.8154 Y39.8082 
G01 X47.6617 Y39.9109 
G01 X47.5309 Y40.0417 
G00 Z3.0000  
G00 X47.5309 Y42.5817 
G01 Z-0.0800 F254   
G01 X47.4282 Y42.7354 F508   
G01 X47.3575 Y42.9062 
G01 X47.3214 Y43.0876 
G01 X47.3214 Y43.2724 
G01 X47.3575 Y43.4538 
G01 X47.4282 Y43.6246 
G01 X47.5309 Y43.7783 
G01 X47.6617 Y43.9091 
G01 X47.8154 Y44.0118 
G01 X47.9862 Y44.0825 
G01 X48.1676 Y44.1186 
G01 X48.3524 Y44.1186 
G01 X48.5338 Y44.0825 
G01 X48.7046 Y44.0118 
G01 X48.8583 Y43.9091 
G01 X48.9891 Y43.7783 
G01 X49.0918 Y43.6246 
G01 X49.1625 Y43.4538 
G01 X49.1986 Y43.2724 
G01 X49.1986 Y43.0876 
G01 X49.1625 Y42.9062 
G01 X49.0918 Y42.7354 
G01 X48.9891 Y42.5817 
G01 X48.8583 Y42.4509 
G01 X48.7046 Y42.3482 
G01 X48.5338 Y42.2775 
G01 X48.3524 Y42.2414 
G01 X48.1676 Y42.2414 
G01 X47.9862 Y42.2775 
G01 X47.8154 Y42.3482 
G01 X47.6617 Y42.4509 
G01 X47.5309 Y42.5817 
G00 Z3.0000  
G00 X47.5309 Y45.1217 
G01 Z-0.0800 F254   
G01 X47.4282 Y45.2754 F508   
G01 X47.3575 Y45.4462 
G01 X47.3214 Y45.6276 
G01 X47.3214 Y45.8124 
G01 X47.3575 Y45.9938 
G01 X47.4282 Y46.1646 
G01 X47.5309 Y46.3183 
G01 X47.6617 Y46.4491 
G01 X47.8154 Y46.5518 
G01 X47.9862 Y46.6225 
G01 X48.1676 Y46.6586 
G01 X48.3524 Y46.6586 
G01 X48.5338 Y46.6225 
G01 X48.7046 Y46.5518 
G01 X48.8583 Y46.4491 
G01 X48.9891 Y46.3183 
G01 X49.0918 Y46.1646 
G01 X49.1625 Y45.9938 
G01 X49.1986 Y45.8124 
G01 X49.1986 Y45.6276 
G01 X49.1625 Y45.4462 
G01 X49.0918 Y45.2754 
G01 X48.9891 Y45.1217 
G01 X48.8583 Y44.9909 
G01 X48.7046 Y44.8882 
G01 X48.5338 Y44.8175 
G01 X48.3524 Y44.7814 
G01 X48.1676 Y44.7814 
G01 X47.9862 Y44.8175 
G01 X47.8154 Y44.8882 
G01 X47.6617 Y44.9909 
G01 X47.5309 Y45.1217 
G00 Z3.0000  
G00 X47.5309 Y47.6617 
G01 Z-0.0800 F254   
G01 X47.4282 Y47.8154 F508   
G01 X47.3575 Y47.9862 
G01 X47.3214 Y48.1676 
G01 X47.3214 Y48.3524 
G01 X47.3575 Y48.5338 
G01 X47.4282 Y48.7046 
G01 X47.5309 Y48.8583 
G01 X47.6617 Y48.9891 
G01 X47.8154 Y49.0918 
G01 X47.9862 Y49.1625 
G01 X48.1676 Y49.1986 
G01 X48.3524 Y49.1986 
G01 X48.5338 Y49.1625 
G01 X48.7046 Y49.0918 
G01 X48.8583 Y48.9891 
G01 X48.9891 Y48.8583 
G01 X49.0918 Y48.7046 
G01 X49.1625 Y48.5338 
G01 X49.1986 Y48.3524 
G01 X49.1986 Y48.1676 
G01 X49.1625 Y47.9862 
G01 X49.0918 Y47.8154 
G01 X48.9891 Y47.6617 
G01 X48.8583 Y47.5309 
G01 X48.7046 Y47.4282 
G01 X48.5338 Y47.3575 
G01 X48.3524 Y47.3214 
G01 X48.1676 Y47.3214 
G01 X47.9862 Y47.3575 
G01 X47.8154 Y47.4282 
G01 X47.6617 Y47.5309 
G01 X47.5309 Y47.6617 
G00 Z3.0000  
G00 X47.5309 Y50.2017 
G01 Z-0.0800 F254   
G01 X47.4282 Y50.3554 F508   
G01 X47.3575 Y50.5262 
G01 X47.3214 Y50.7076 
G01 X47.3214 Y50.8924 
G01 X47.3575 Y51.0738 
G01 X47.4282 Y51.2446 
G01 X47.5309 Y51.3983 
G01 X47.6617 Y51.5291 
G01 X47.8154 Y51.6318 
G01 X47.9862 Y51.7025 
G01 X48.1676 Y51.7386 
G01 X48.3524 Y51.7386 
G01 X48.5338 Y51.7025 
G01 X48.7046 Y51.6318 
G01 X48.8583 Y51.5291 
G01 X48.9891 Y51.3983 
G01 X49.0918 Y51.2446 
G01 X49.1625 Y51.0738 
G01 X49.1986 Y50.8924 
G01 X49.1986 Y50.7076 
G01 X49.1625 Y50.5262 
G01 X49.0918 Y50.3554 
G01 X48.9891 Y50.2017 
G01 X48.8583 Y50.0709 
G01 X48.7046 Y49.9682 
G01 X48.5338 Y49.8975 
G01 X48.3524 Y49.8614 
G01 X48.1676 Y49.8614 
G01 X47.9862 Y49.8975 
G01 X47.8154 Y49.9682 
G01 X47.6617 Y50.0709 
G01 X47.5309 Y50.2017 
G00 Z3.0000  
G00 X47.5309 Y52.7417 
G01 Z-0.0800 F254   
G01 X47.4282 Y52.8954 F508   
G01 X47.3575 Y53.0662 
G01 X47.3214 Y53.2476 
G01 X47.3214 Y53.4324 
G01 X47.3575 Y53.6138 
G01 X47.4282 Y53.7846 
G01 X47.5309 Y53.9383 
G01 X47.6617 Y54.0691 
G01 X47.8154 Y54.1718 
G01 X47.9862 Y54.2425 
G01 X48.1676 Y54.2786 
G01 X48.3524 Y54.2786 
G01 X48.5338 Y54.2425 
G01 X48.7046 Y54.1718 
G01 X48.8583 Y54.0691 
G01 X48.9891 Y53.9383 
G01 X49.0918 Y53.7846 
G01 X49.1625 Y53.6138 
G01 X49.1986 Y53.4324 
G01 X49.1986 Y53.2476 
G01 X49.1625 Y53.0662 
G01 X49.0918 Y52.8954 
G01 X48.9891 Y52.7417 
G01 X48.8583 Y52.6109 
G01 X48.7046 Y52.5082 
G01 X48.5338 Y52.4375 
G01 X48.3524 Y52.4014 
G01 X48.1676 Y52.4014 
G01 X47.9862 Y52.4375 
G01 X47.8154 Y52.5082 
G01 X47.6617 Y52.6109 
G01 X47.5309 Y52.7417 
G00 Z3.0000  
G00 X47.4018 Y54.9414 
G01 Z-0.0800 F254   
G01 X47.3649 Y54.9567 F508   
G01 X47.3367 Y54.9849 
G01 X47.3214 Y55.0218 
G01 X47.3214 Y56.7382 
G01 X47.3367 Y56.7751 
G01 X47.3649 Y56.8033 
G01 X47.4018 Y56.8186 
G01 X49.1182 Y56.8186 
G01 X49.1551 Y56.8033 
G01 X49.1833 Y56.7751 
G01 X49.1986 Y56.7382 
G01 X49.1986 Y55.0218 
G01 X49.1833 Y54.9849 
G01 X49.1551 Y54.9567 
G01 X49.1182 Y54.9414 
G01 X47.4018 Y54.9414 
G00 Z3.0000  
G00 X55.1509 Y55.2817 
G01 Z-0.0800 F254   
G01 X55.0482 Y55.4354 F508   
G01 X54.9775 Y55.6062 
G01 X54.9414 Y55.7876 
G01 X54.9414 Y55.9724 
G01 X54.9775 Y56.1538 
G01 X55.0482 Y56.3246 
G01 X55.1509 Y56.4783 
G01 X55.2817 Y56.6091 
G01 X55.4354 Y56.7118 
G01 X55.6062 Y56.7825 
G01 X55.7876 Y56.8186 
G01 X55.9724 Y56.8186 
G01 X56.1538 Y56.7825 
G01 X56.3246 Y56.7118 
G01 X56.4783 Y56.6091 
G01 X56.6091 Y56.4783 
G01 X56.7118 Y56.3246 
G01 X56.7825 Y56.1538 
G01 X56.8186 Y55.9724 
G01 X56.8186 Y55.7876 
G01 X56.7825 Y55.6062 
G01 X56.7118 Y55.4354 
G01 X56.6091 Y55.2817 
G01 X56.4783 Y55.1509 
G01 X56.3246 Y55.0482 
G01 X56.1538 Y54.9775 
G01 X55.9724 Y54.9414 
G01 X55.7876 Y54.9414 
G01 X55.6062 Y54.9775 
G01 X55.4354 Y55.0482 
G01 X55.2817 Y55.1509 
G01 X55.1509 Y55.2817 
G00 Z3.0000  
G00 X55.2817 Y54.0691 
G01 Z-0.0800 F254   
G01 X55.4354 Y54.1718 F508   
G01 X55.6062 Y54.2425 
G01 X55.7876 Y54.2786 
G01 X55.9724 Y54.2786 
G01 X56.1538 Y54.2425 
G01 X56.3246 Y54.1718 
G01 X56.4783 Y54.0691 
G01 X56.6091 Y53.9383 
G01 X56.7118 Y53.7846 
G01 X56.7825 Y53.6138 
G01 X56.8186 Y53.4324 
G01 X56.8186 Y53.2476 
G01 X56.7825 Y53.0662 
G01 X56.7118 Y52.8954 
G01 X56.6091 Y52.7417 
G01 X56.4783 Y52.6109 
G01 X56.3246 Y52.5082 
G01 X56.1538 Y52.4375 
G01 X55.9724 Y52.4014 
G01 X55.7876 Y52.4014 
G01 X55.6062 Y52.4375 
G01 X55.4354 Y52.5082 
G01 X55.2817 Y52.6109 
G01 X55.1509 Y52.7417 
G01 X55.0482 Y52.8954 
G01 X54.9775 Y53.0662 
G01 X54.9414 Y53.2476 
G01 X54.9414 Y53.4324 
G01 X54.9775 Y53.6138 
G01 X55.0482 Y53.7846 
G01 X55.1509 Y53.9383 
G01 X55.2817 Y54.0691 
G00 Z3.0000  
G00 X55.2817 Y51.5291 
G01 Z-0.0800 F254   
G01 X55.4354 Y51.6318 F508   
G01 X55.6062 Y51.7025 
G01 X55.7876 Y51.7386 
G01 X55.9724 Y51.7386 
G01 X56.1538 Y51.7025 
G01 X56.3246 Y51.6318 
G01 X56.4783 Y51.5291 
G01 X56.6091 Y51.3983 
G01 X56.7118 Y51.2446 
G01 X56.7825 Y51.0738 
G01 X56.8186 Y50.8924 
G01 X56.8186 Y50.7076 
G01 X56.7825 Y50.5262 
G01 X56.7118 Y50.3554 
G01 X56.6091 Y50.2017 
G01 X56.4783 Y50.0709 
G01 X56.3246 Y49.9682 
G01 X56.1538 Y49.8975 
G01 X55.9724 Y49.8614 
G01 X55.7876 Y49.8614 
G01 X55.6062 Y49.8975 
G01 X55.4354 Y49.9682 
G01 X55.2817 Y50.0709 
G01 X55.1509 Y50.2017 
G01 X55.0482 Y50.3554 
G01 X54.9775 Y50.5262 
G01 X54.9414 Y50.7076 
G01 X54.9414 Y50.8924 
G01 X54.9775 Y51.0738 
G01 X55.0482 Y51.2446 
G01 X55.1509 Y51.3983 
G01 X55.2817 Y51.5291 
G00 Z3.0000  
G00 X55.2817 Y48.9891 
G01 Z-0.0800 F254   
G01 X55.4354 Y49.0918 F508   
G01 X55.6062 Y49.1625 
G01 X55.7876 Y49.1986 
G01 X55.9724 Y49.1986 
G01 X56.1538 Y49.1625 
G01 X56.3246 Y49.0918 
G01 X56.4783 Y48.9891 
G01 X56.6091 Y48.8583 
G01 X56.7118 Y48.7046 
G01 X56.7825 Y48.5338 
G01 X56.8186 Y48.3524 
G01 X56.8186 Y48.1676 
G01 X56.7825 Y47.9862 
G01 X56.7118 Y47.8154 
G01 X56.6091 Y47.6617 
G01 X56.4783 Y47.5309 
G01 X56.3246 Y47.4282 
G01 X56.1538 Y47.3575 
G01 X55.9724 Y47.3214 
G01 X55.7876 Y47.3214 
G01 X55.6062 Y47.3575 
G01 X55.4354 Y47.4282 
G01 X55.2817 Y47.5309 
G01 X55.1509 Y47.6617 
G01 X55.0482 Y47.8154 
G01 X54.9775 Y47.9862 
G01 X54.9414 Y48.1676 
G01 X54.9414 Y48.3524 
G01 X54.9775 Y48.5338 
G01 X55.0482 Y48.7046 
G01 X55.1509 Y48.8583 
G01 X55.2817 Y48.9891 
G00 Z3.0000  
G00 X55.2817 Y46.4491 
G01 Z-0.0800 F254   
G01 X55.4354 Y46.5518 F508   
G01 X55.6062 Y46.6225 
G01 X55.7876 Y46.6586 
G01 X55.9724 Y46.6586 
G01 X56.1538 Y46.6225 
G01 X56.3246 Y46.5518 
G01 X56.4783 Y46.4491 
G01 X56.6091 Y46.3183 
G01 X56.7118 Y46.1646 
G01 X56.7825 Y45.9938 
G01 X56.8186 Y45.8124 
G01 X56.8186 Y45.6276 
G01 X56.7825 Y45.4462 
G01 X56.7118 Y45.2754 
G01 X56.6091 Y45.1217 
G01 X56.4783 Y44.9909 
G01 X56.3246 Y44.8882 
G01 X56.1538 Y44.8175 
G01 X55.9724 Y44.7814 
G01 X55.7876 Y44.7814 
G01 X55.6062 Y44.8175 
G01 X55.4354 Y44.8882 
G01 X55.2817 Y44.9909 
G01 X55.1509 Y45.1217 
G01 X55.0482 Y45.2754 
G01 X54.9775 Y45.4462 
G01 X54.9414 Y45.6276 
G01 X54.9414 Y45.8124 
G01 X54.9775 Y45.9938 
G01 X55.0482 Y46.1646 
G01 X55.1509 Y46.3183 
G01 X55.2817 Y46.4491 
G00 Z3.0000  
G00 X59.6482 Y46.3899 
G01 Z-0.0800 F254   
G01 X59.7895 Y46.4842 F508   
G01 X59.9464 Y46.5493 
G01 X60.1131 Y46.5824 
G01 X61.8069 Y46.5824 
G01 X61.9736 Y46.5493 
G01 X62.1305 Y46.4842 
G01 X62.2717 Y46.3899 
G01 X62.3919 Y46.2697 
G01 X62.4862 Y46.1285 
G01 X62.5513 Y45.9716 
G01 X62.5844 Y45.8049 
G01 X62.5844 Y45.6351 
G01 X62.5513 Y45.4684 
G01 X62.4862 Y45.3115 
G01 X62.3919 Y45.1703 
G01 X62.2717 Y45.0501 
G01 X62.1305 Y44.9558 
G01 X61.9736 Y44.8907 
G01 X61.8069 Y44.8576 
G01 X60.1131 Y44.8576 
G01 X59.9464 Y44.8907 
G01 X59.7895 Y44.9558 
G01 X59.6482 Y45.0501 
G01 X59.5281 Y45.1703 
G01 X59.4338 Y45.3115 
G01 X59.3687 Y45.4684 
G01 X59.3356 Y45.6351 
G01 X59.3356 Y45.8049 
G01 X59.3687 Y45.9716 
G01 X59.4338 Y46.1285 
G01 X59.5281 Y46.2697 
G01 X59.6482 Y46.3899 
G00 Z3.0000  
G00 X59.6482 Y47.5901 
G01 Z-0.0800 F254   
G01 X59.5281 Y47.7103 F508   
G01 X59.4338 Y47.8515 
G01 X59.3687 Y48.0084 
G01 X59.3356 Y48.1751 
G01 X59.3356 Y48.3449 
G01 X59.3687 Y48.5116 
G01 X59.4338 Y48.6685 
G01 X59.5281 Y48.8097 
G01 X59.6482 Y48.9299 
G01 X59.7895 Y49.0242 
G01 X59.9464 Y49.0893 
G01 X60.1131 Y49.1224 
G01 X61.8069 Y49.1224 
G01 X61.9736 Y49.0893 
G01 X62.1305 Y49.0242 
G01 X62.2717 Y48.9299 
G01 X62.3919 Y48.8097 
G01 X62.4862 Y48.6685 
G01 X62.5513 Y48.5116 
G01 X62.5844 Y48.3449 
G01 X62.5844 Y48.1751 
G01 X62.5513 Y48.0084 
G01 X62.4862 Y47.8515 
G01 X62.3919 Y47.7103 
G01 X62.2717 Y47.5901 
G01 X62.1305 Y47.4958 
G01 X61.9736 Y47.4307 
G01 X61.8069 Y47.3976 
G01 X60.1131 Y47.3976 
G01 X59.9464 Y47.4307 
G01 X59.7895 Y47.4958 
G01 X59.6482 Y47.5901 
G00 Z3.0000  
G00 X59.6482 Y50.1301 
G01 Z-0.0800 F254   
G01 X59.5281 Y50.2503 F508   
G01 X59.4338 Y50.3915 
G01 X59.3687 Y50.5484 
G01 X59.3356 Y50.7151 
G01 X59.3356 Y50.8849 
G01 X59.3687 Y51.0516 
G01 X59.4338 Y51.2085 
G01 X59.5281 Y51.3497 
G01 X59.6482 Y51.4699 
G01 X59.7895 Y51.5642 
G01 X59.9464 Y51.6293 
G01 X60.1131 Y51.6624 
G01 X61.8069 Y51.6624 
G01 X61.9736 Y51.6293 
G01 X62.1305 Y51.5642 
G01 X62.2717 Y51.4699 
G01 X62.3919 Y51.3497 
G01 X62.4862 Y51.2085 
G01 X62.5513 Y51.0516 
G01 X62.5844 Y50.8849 
G01 X62.5844 Y50.7151 
G01 X62.5513 Y50.5484 
G01 X62.4862 Y50.3915 
G01 X62.3919 Y50.2503 
G01 X62.2717 Y50.1301 
G01 X62.1305 Y50.0358 
G01 X61.9736 Y49.9707 
G01 X61.8069 Y49.9376 
G01 X60.1131 Y49.9376 
G01 X59.9464 Y49.9707 
G01 X59.7895 Y50.0358 
G01 X59.6482 Y50.1301 
G00 Z3.0000  
G00 X59.6482 Y52.6701 
G01 Z-0.0800 F254   
G01 X59.5281 Y52.7903 F508   
G01 X59.4338 Y52.9315 
G01 X59.3687 Y53.0884 
G01 X59.3356 Y53.2551 
G01 X59.3356 Y53.4249 
G01 X59.3687 Y53.5916 
G01 X59.4338 Y53.7485 
G01 X59.5281 Y53.8897 
G01 X59.6482 Y54.0099 
G01 X59.7895 Y54.1042 
G01 X59.9464 Y54.1693 
G01 X60.1131 Y54.2024 
G01 X61.8069 Y54.2024 
G01 X61.9736 Y54.1693 
G01 X62.1305 Y54.1042 
G01 X62.2717 Y54.0099 
G01 X62.3919 Y53.8897 
G01 X62.4862 Y53.7485 
G01 X62.5513 Y53.5916 
G01 X62.5844 Y53.4249 
G01 X62.5844 Y53.2551 
G01 X62.5513 Y53.0884 
G01 X62.4862 Y52.9315 
G01 X62.3919 Y52.7903 
G01 X62.2717 Y52.6701 
G01 X62.1305 Y52.5757 
G01 X61.9736 Y52.5107 
G01 X61.8069 Y52.4776 
G01 X60.1131 Y52.4776 
G01 X59.9464 Y52.5107 
G01 X59.7895 Y52.5757 
G01 X59.6482 Y52.6701 
G00 Z3.0000  
G00 X59.6482 Y55.2101 
G01 Z-0.0800 F254   
G01 X59.5281 Y55.3302 F508   
G01 X59.4338 Y55.4715 
G01 X59.3687 Y55.6284 
G01 X59.3356 Y55.7951 
G01 X59.3356 Y55.9649 
G01 X59.3687 Y56.1316 
G01 X59.4338 Y56.2885 
G01 X59.5281 Y56.4297 
G01 X59.6482 Y56.5499 
G01 X59.7895 Y56.6442 
G01 X59.9464 Y56.7093 
G01 X60.1131 Y56.7424 
G01 X61.8069 Y56.7424 
G01 X61.9736 Y56.7093 
G01 X62.1305 Y56.6442 
G01 X62.2717 Y56.5499 
G01 X62.3919 Y56.4297 
G01 X62.4862 Y56.2885 
G01 X62.5513 Y56.1316 
G01 X62.5844 Y55.9649 
G01 X62.5844 Y55.7951 
G01 X62.5513 Y55.6284 
G01 X62.4862 Y55.4715 
G01 X62.3919 Y55.3302 
G01 X62.2717 Y55.2101 
G01 X62.1305 Y55.1157 
G01 X61.9736 Y55.0507 
G01 X61.8069 Y55.0176 
G01 X60.1131 Y55.0176 
G01 X59.9464 Y55.0507 
G01 X59.7895 Y55.1157 
G01 X59.6482 Y55.2101 
G00 Z3.0000  
G00 X59.6482 Y57.7501 
G01 Z-0.0800 F254   
G01 X59.5281 Y57.8702 F508   
G01 X59.4338 Y58.0115 
G01 X59.3687 Y58.1684 
G01 X59.3356 Y58.3351 
G01 X59.3356 Y58.5049 
G01 X59.3687 Y58.6716 
G01 X59.4338 Y58.8285 
G01 X59.5281 Y58.9697 
G01 X59.6482 Y59.0899 
G01 X59.7895 Y59.1842 
G01 X59.9464 Y59.2493 
G01 X60.1131 Y59.2824 
G01 X61.8069 Y59.2824 
G01 X61.9736 Y59.2493 
G01 X62.1305 Y59.1842 
G01 X62.2717 Y59.0899 
G01 X62.3919 Y58.9697 
G01 X62.4862 Y58.8285 
G01 X62.5513 Y58.6716 
G01 X62.5844 Y58.5049 
G01 X62.5844 Y58.3351 
G01 X62.5513 Y58.1684 
G01 X62.4862 Y58.0115 
G01 X62.3919 Y57.8702 
G01 X62.2717 Y57.7501 
G01 X62.1305 Y57.6557 
G01 X61.9736 Y57.5907 
G01 X61.8069 Y57.5576 
G01 X60.1131 Y57.5576 
G01 X59.9464 Y57.5907 
G01 X59.7895 Y57.6557 
G01 X59.6482 Y57.7501 
G00 Z3.0000  
G00 X59.6482 Y60.2901 
G01 Z-0.0800 F254   
G01 X59.5281 Y60.4102 F508   
G01 X59.4338 Y60.5515 
G01 X59.3687 Y60.7084 
G01 X59.3356 Y60.8751 
G01 X59.3356 Y61.0449 
G01 X59.3687 Y61.2116 
G01 X59.4338 Y61.3685 
G01 X59.5281 Y61.5097 
G01 X59.6482 Y61.6299 
G01 X59.7895 Y61.7242 
G01 X59.9464 Y61.7893 
G01 X60.1131 Y61.8224 
G01 X61.8069 Y61.8224 
G01 X61.9736 Y61.7893 
G01 X62.1305 Y61.7242 
G01 X62.2717 Y61.6299 
G01 X62.3919 Y61.5097 
G01 X62.4862 Y61.3685 
G01 X62.5513 Y61.2116 
G01 X62.5844 Y61.0449 
G01 X62.5844 Y60.8751 
G01 X62.5513 Y60.7084 
G01 X62.4862 Y60.5515 
G01 X62.3919 Y60.4102 
G01 X62.2717 Y60.2901 
G01 X62.1305 Y60.1957 
G01 X61.9736 Y60.1307 
G01 X61.8069 Y60.0976 
G01 X60.1131 Y60.0976 
G01 X59.9464 Y60.1307 
G01 X59.7895 Y60.1957 
G01 X59.6482 Y60.2901 
G00 Z3.0000  
G00 X59.6482 Y43.8499 
G01 Z-0.0800 F254   
G01 X59.7895 Y43.9442 F508   
G01 X59.9464 Y44.0093 
G01 X60.1131 Y44.0424 
G01 X61.8069 Y44.0424 
G01 X61.9736 Y44.0093 
G01 X62.1305 Y43.9442 
G01 X62.2717 Y43.8499 
G01 X62.3919 Y43.7297 
G01 X62.4862 Y43.5885 
G01 X62.5513 Y43.4316 
G01 X62.5844 Y43.2649 
G01 X62.5844 Y43.0951 
G01 X62.5513 Y42.9284 
G01 X62.4862 Y42.7715 
G01 X62.3919 Y42.6302 
G01 X62.2717 Y42.5101 
G01 X62.1305 Y42.4158 
G01 X61.9736 Y42.3507 
G01 X61.8069 Y42.3176 
G01 X60.1131 Y42.3176 
G01 X59.9464 Y42.3507 
G01 X59.7895 Y42.4158 
G01 X59.6482 Y42.5101 
G01 X59.5281 Y42.6302 
G01 X59.4338 Y42.7715 
G01 X59.3687 Y42.9284 
G01 X59.3356 Y43.0951 
G01 X59.3356 Y43.2649 
G01 X59.3687 Y43.4316 
G01 X59.4338 Y43.5885 
G01 X59.5281 Y43.7297 
G01 X59.6482 Y43.8499 
G00 Z3.0000  
G00 X59.5905 Y38.8642 
G01 Z-0.0800 F254   
G01 X59.7317 Y38.7699 F508   
G01 X59.8519 Y38.6497 
G01 X59.9462 Y38.5085 
G01 X60.0113 Y38.3516 
G01 X60.0444 Y38.1849 
G01 X60.0444 Y38.0151 
G01 X60.0113 Y37.8484 
G01 X59.9462 Y37.6915 
G01 X59.8519 Y37.5502 
G01 X59.7317 Y37.4301 
G01 X59.5905 Y37.3357 
G01 X59.4336 Y37.2707 
G01 X59.2669 Y37.2376 
G01 X57.5731 Y37.2376 
G01 X57.4064 Y37.2707 
G01 X57.2495 Y37.3357 
G01 X57.1082 Y37.4301 
G01 X56.9881 Y37.5502 
G01 X56.8937 Y37.6915 
G01 X56.8287 Y37.8484 
G01 X56.8078 Y37.9535 
G01 X56.7825 Y37.8262 
G01 X56.7118 Y37.6554 
G01 X56.6091 Y37.5017 
G01 X56.4783 Y37.3709 
G01 X56.3246 Y37.2682 
G01 X56.1538 Y37.1975 
G01 X55.9724 Y37.1614 
G01 X55.7876 Y37.1614 
G01 X55.6062 Y37.1975 
G01 X55.4354 Y37.2682 
G01 X55.2817 Y37.3709 
G01 X55.1509 Y37.5017 
G01 X55.0482 Y37.6554 
G01 X54.9775 Y37.8262 
G01 X54.9414 Y38.0076 
G01 X54.9414 Y38.1924 
G01 X54.9775 Y38.3738 
G01 X55.0482 Y38.5446 
G01 X55.1509 Y38.6983 
G01 X55.2817 Y38.8291 
G01 X55.4354 Y38.9318 
G01 X55.6062 Y39.0025 
G01 X55.7876 Y39.0386 
G01 X55.9724 Y39.0386 
G01 X56.1538 Y39.0025 
G01 X56.3246 Y38.9318 
G01 X56.4783 Y38.8291 
G01 X56.6091 Y38.6983 
G01 X56.7118 Y38.5446 
G01 X56.7825 Y38.3738 
G01 X56.8078 Y38.2465 
G01 X56.8287 Y38.3516 
G01 X56.8937 Y38.5085 
G01 X56.9881 Y38.6497 
G01 X57.1082 Y38.7699 
G01 X57.2495 Y38.8642 
G01 X57.4064 Y38.9293 
G01 X57.5731 Y38.9624 
G01 X59.2669 Y38.9624 
G01 X59.4336 Y38.9293 
G01 X59.5905 Y38.8642 
G00 Z3.0000  
G00 X59.5905 Y36.3242 
G01 Z-0.0800 F254   
G01 X59.7317 Y36.2299 F508   
G01 X59.8519 Y36.1097 
G01 X59.9462 Y35.9685 
G01 X60.0113 Y35.8116 
G01 X60.0444 Y35.6449 
G01 X60.0444 Y35.4751 
G01 X60.0113 Y35.3084 
G01 X59.9462 Y35.1515 
G01 X59.8519 Y35.0102 
G01 X59.7317 Y34.8901 
G01 X59.5905 Y34.7957 
G01 X59.4336 Y34.7307 
G01 X59.2669 Y34.6976 
G01 X57.5731 Y34.6976 
G01 X57.4064 Y34.7307 
G01 X57.2495 Y34.7957 
G01 X57.1082 Y34.8901 
G01 X56.9881 Y35.0102 
G01 X56.8937 Y35.1515 
G01 X56.8287 Y35.3084 
G01 X56.8078 Y35.4135 
G01 X56.7825 Y35.2862 
G01 X56.7118 Y35.1154 
G01 X56.6091 Y34.9617 
G01 X56.4783 Y34.8309 
G01 X56.3246 Y34.7282 
G01 X56.1538 Y34.6575 
G01 X55.9724 Y34.6214 
G01 X55.7876 Y34.6214 
G01 X55.6062 Y34.6575 
G01 X55.4354 Y34.7282 
G01 X55.2817 Y34.8309 
G01 X55.1509 Y34.9617 
G01 X55.0482 Y35.1154 
G01 X54.9775 Y35.2862 
G01 X54.9414 Y35.4676 
G01 X54.9414 Y35.6524 
G01 X54.9775 Y35.8338 
G01 X55.0482 Y36.0046 
G01 X55.1509 Y36.1583 
G01 X55.2817 Y36.2891 
G01 X55.4354 Y36.3918 
G01 X55.6062 Y36.4625 
G01 X55.7876 Y36.4986 
G01 X55.9724 Y36.4986 
G01 X56.1538 Y36.4625 
G01 X56.3246 Y36.3918 
G01 X56.4783 Y36.2891 
G01 X56.6091 Y36.1583 
G01 X56.7118 Y36.0046 
G01 X56.7825 Y35.8338 
G01 X56.8078 Y35.7065 
G01 X56.8287 Y35.8116 
G01 X56.8937 Y35.9685 
G01 X56.9881 Y36.1097 
G01 X57.1082 Y36.2299 
G01 X57.2495 Y36.3242 
G01 X57.4064 Y36.3893 
G01 X57.5731 Y36.4224 
G01 X59.2669 Y36.4224 
G01 X59.4336 Y36.3893 
G01 X59.5905 Y36.3242 
G00 Z3.0000  
G00 X62.7392 Y37.7849 
G01 Z-0.0800 F254   
G01 X62.7392 Y38.4151 F508   
G01 X63.1849 Y38.8608 
G01 X63.8151 Y38.8608 
G01 X64.2608 Y38.4151 
G01 X64.2608 Y37.7849 
G01 X63.8151 Y37.3392 
G01 X63.1849 Y37.3392 
G01 X62.7392 Y37.7849 
G00 Z3.0000  
G00 X62.7392 Y40.3249 
G01 Z-0.0800 F254   
G01 X62.7392 Y40.9551 F508   
G01 X63.1849 Y41.4008 
G01 X63.8151 Y41.4008 
G01 X64.2608 Y40.9551 
G01 X64.2608 Y40.3249 
G01 X63.8151 Y39.8792 
G01 X63.1849 Y39.8792 
G01 X62.7392 Y40.3249 
G00 Z3.0000  
G00 X56.6091 Y33.6183 
G01 Z-0.0800 F254   
G01 X56.7118 Y33.4646 F508   
G01 X56.7825 Y33.2938 
G01 X56.8186 Y33.1124 
G01 X56.8186 Y32.9276 
G01 X56.7825 Y32.7462 
G01 X56.7118 Y32.5754 
G01 X56.6091 Y32.4217 
G01 X56.4783 Y32.2909 
G01 X56.3246 Y32.1882 
G01 X56.1538 Y32.1175 
G01 X55.9724 Y32.0814 
G01 X55.7876 Y32.0814 
G01 X55.6062 Y32.1175 
G01 X55.4354 Y32.1882 
G01 X55.2817 Y32.2909 
G01 X55.1509 Y32.4217 
G01 X55.0482 Y32.5754 
G01 X54.9775 Y32.7462 
G01 X54.9414 Y32.9276 
G01 X54.9414 Y33.1124 
G01 X54.9775 Y33.2938 
G01 X55.0482 Y33.4646 
G01 X55.1509 Y33.6183 
G01 X55.2817 Y33.7491 
G01 X55.4354 Y33.8518 
G01 X55.6062 Y33.9225 
G01 X55.7876 Y33.9586 
G01 X55.9724 Y33.9586 
G01 X56.1538 Y33.9225 
G01 X56.3246 Y33.8518 
G01 X56.4783 Y33.7491 
G01 X56.6091 Y33.6183 
G00 Z3.0000  
G00 X56.4688 Y31.2154 
G01 Z-0.0800 F254   
G01 X76.1456 Y31.2154 F508   
G01 X76.1634 Y31.2180 
G01 X76.2179 Y31.2154 
G01 X76.2724 Y31.2154 
G01 X76.2901 Y31.2119 
G01 X76.3081 Y31.2110 
G01 X76.3610 Y31.1978 
G01 X76.4145 Y31.1871 
G01 X76.4312 Y31.1802 
G01 X76.4486 Y31.1759 
G01 X76.4979 Y31.1526 
G01 X76.5483 Y31.1317 
G01 X76.5633 Y31.1217 
G01 X76.5796 Y31.1140 
G01 X76.6235 Y31.0815 
G01 X76.6688 Y31.0512 
G01 X76.6815 Y31.0385 
G01 X76.6960 Y31.0278 
G01 X76.7326 Y30.9874 
G01 X76.7712 Y30.9488 
G01 X76.7812 Y30.9338 
G01 X76.7933 Y30.9205 
G01 X76.8214 Y30.8737 
G01 X76.8517 Y30.8283 
G01 X76.8586 Y30.8117 
G01 X82.9105 Y20.7252 
G01 X83.3716 Y20.7252 
G01 X83.4352 Y20.7888 
G01 X83.5341 Y20.8549 
G01 X83.6439 Y20.9004 
G01 X83.7605 Y20.9236 
G01 X83.8795 Y20.9236 
G01 X83.9961 Y20.9004 
G01 X84.1059 Y20.8549 
G01 X84.2048 Y20.7888 
G01 X84.2888 Y20.7048 
G01 X84.3549 Y20.6059 
G01 X84.4004 Y20.4961 
G01 X84.4236 Y20.3794 
G01 X84.4236 Y20.2605 
G01 X84.4004 Y20.1439 
G01 X84.3549 Y20.0341 
G01 X84.2888 Y19.9352 
G01 X84.2048 Y19.8512 
G01 X84.1059 Y19.7851 
G01 X83.9961 Y19.7396 
G01 X83.8795 Y19.7164 
G01 X83.7605 Y19.7164 
G01 X83.6439 Y19.7396 
G01 X83.5341 Y19.7851 
G01 X83.4352 Y19.8512 
G01 X84.2211 Y18.5408 
G01 X84.5553 Y18.5408 
G01 X84.7023 Y18.5116 
G01 X84.8408 Y18.4542 
G01 X84.9654 Y18.3710 
G01 X85.0713 Y18.2650 
G01 X85.1546 Y18.1404 
G01 X85.2120 Y18.0019 
G01 X85.2412 Y17.8549 
G01 X85.2412 Y17.7051 
G01 X85.2120 Y17.5581 
G01 X85.1546 Y17.4196 
G01 X85.0713 Y17.2950 
G01 X84.9654 Y17.1890 
G01 X84.8408 Y17.1058 
G01 X84.7023 Y17.0484 
G01 X84.5553 Y17.0192 
G01 X83.0847 Y17.0192 
G01 X82.9377 Y17.0484 
G01 X82.7992 Y17.1058 
G01 X82.6746 Y17.1890 
G01 X82.5686 Y17.2950 
G01 X82.4854 Y17.4196 
G01 X82.4280 Y17.5581 
G01 X82.3988 Y17.7051 
G01 X82.3988 Y17.8549 
G01 X82.4280 Y18.0019 
G01 X82.4854 Y18.1404 
G01 X82.5686 Y18.2650 
G01 X82.6329 Y18.3292 
G01 X81.6852 Y19.9087 
G01 X81.6852 Y10.5652 
G01 X82.5153 Y10.5652 
G01 X82.5686 Y10.6450 
G01 X82.6746 Y10.7509 
G01 X82.7992 Y10.8342 
G01 X82.9377 Y10.8916 
G01 X83.0847 Y10.9208 
G01 X84.5553 Y10.9208 
G01 X84.7023 Y10.8916 
G01 X84.8408 Y10.8342 
G01 X84.9654 Y10.7509 
G01 X85.0713 Y10.6450 
G01 X85.1546 Y10.5204 
G01 X85.2120 Y10.3819 
G01 X85.2412 Y10.2349 
G01 X85.2412 Y10.0851 
G01 X85.2120 Y9.9381  
G01 X85.1546 Y9.7996  
G01 X85.0713 Y9.6750  
G01 X84.9654 Y9.5690  
G01 X84.8408 Y9.4858  
G01 X84.7023 Y9.4284  
G01 X84.5553 Y9.3992  
G01 X83.0847 Y9.3992  
G01 X82.9377 Y9.4284  
G01 X82.7992 Y9.4858  
G01 X82.6746 Y9.5690  
G01 X82.5686 Y9.6750  
G01 X82.5153 Y9.7548  
G01 X81.2267 Y9.7548  
G01 X81.1236 Y9.7824  
G01 X81.0312 Y9.8358  
G01 X80.9558 Y9.9112  
G01 X80.9024 Y10.0036 
G01 X80.8748 Y10.1067 
G01 X80.8748 Y20.3733 
G01 X80.9024 Y20.4764 
G01 X80.9558 Y20.5688 
G01 X81.0312 Y20.6442 
G01 X81.1236 Y20.6976 
G01 X81.1996 Y20.7179 
G01 X75.7836 Y29.7446 
G01 X56.4688 Y29.7446 
G01 X56.3246 Y29.6482 
G01 X56.1538 Y29.5775 
G01 X55.9724 Y29.5414 
G01 X55.7876 Y29.5414 
G01 X55.6062 Y29.5775 
G01 X55.4354 Y29.6482 
G01 X55.2817 Y29.7509 
G01 X55.1509 Y29.8817 
G01 X55.0482 Y30.0354 
G01 X54.9775 Y30.2062 
G01 X54.9414 Y30.3876 
G01 X54.9414 Y30.5724 
G01 X54.9775 Y30.7538 
G01 X55.0482 Y30.9246 
G01 X55.1509 Y31.0783 
G01 X55.2817 Y31.2091 
G01 X55.4354 Y31.3118 
G01 X55.6062 Y31.3825 
G01 X55.7876 Y31.4186 
G01 X55.9724 Y31.4186 
G01 X56.1538 Y31.3825 
G01 X56.3246 Y31.3118 
G01 X56.4688 Y31.2154 
G00 Z3.0000  
G00 X56.4783 Y28.6691 
G01 Z-0.0800 F254   
G01 X56.6091 Y28.5383 F508   
G01 X56.7118 Y28.3846 
G01 X56.7825 Y28.2138 
G01 X56.8186 Y28.0324 
G01 X56.8186 Y27.8476 
G01 X56.7825 Y27.6662 
G01 X56.7118 Y27.4954 
G01 X56.6091 Y27.3417 
G01 X56.4783 Y27.2109 
G01 X56.3246 Y27.1082 
G01 X56.1538 Y27.0375 
G01 X55.9724 Y27.0014 
G01 X55.7876 Y27.0014 
G01 X55.6062 Y27.0375 
G01 X55.4354 Y27.1082 
G01 X55.2817 Y27.2109 
G01 X55.1509 Y27.3417 
G01 X55.0482 Y27.4954 
G01 X54.9775 Y27.6662 
G01 X54.9414 Y27.8476 
G01 X54.9414 Y28.0324 
G01 X54.9775 Y28.2138 
G01 X55.0482 Y28.3846 
G01 X55.1509 Y28.5383 
G01 X55.2817 Y28.6691 
G01 X55.4354 Y28.7718 
G01 X55.6062 Y28.8425 
G01 X55.7876 Y28.8786 
G01 X55.9724 Y28.8786 
G01 X56.1538 Y28.8425 
G01 X56.3246 Y28.7718 
G01 X56.4783 Y28.6691 
G00 Z3.0000  
G00 X56.4783 Y23.5891 
G01 Z-0.0800 F254   
G01 X56.6091 Y23.4583 F508   
G01 X56.7118 Y23.3046 
G01 X56.7825 Y23.1338 
G01 X56.8186 Y22.9524 
G01 X56.8186 Y22.7676 
G01 X56.7825 Y22.5862 
G01 X56.7118 Y22.4154 
G01 X56.6091 Y22.2617 
G01 X56.4783 Y22.1309 
G01 X56.3246 Y22.0282 
G01 X56.1538 Y21.9575 
G01 X55.9724 Y21.9214 
G01 X55.7876 Y21.9214 
G01 X55.6062 Y21.9575 
G01 X55.4354 Y22.0282 
G01 X55.2817 Y22.1309 
G01 X55.1509 Y22.2617 
G01 X55.0482 Y22.4154 
G01 X54.9775 Y22.5862 
G01 X54.9414 Y22.7676 
G01 X54.9414 Y22.9524 
G01 X54.9775 Y23.1338 
G01 X55.0482 Y23.3046 
G01 X55.1509 Y23.4583 
G01 X55.2817 Y23.5891 
G01 X55.4354 Y23.6918 
G01 X55.6062 Y23.7625 
G01 X55.7876 Y23.7986 
G01 X55.9724 Y23.7986 
G01 X56.1538 Y23.7625 
G01 X56.3246 Y23.6918 
G01 X56.4783 Y23.5891 
G00 Z3.0000  
G00 X57.2746 Y18.3710 
G01 Z-0.0800 F254   
G01 X57.3992 Y18.4542 F508   
G01 X57.5377 Y18.5116 
G01 X57.6847 Y18.5408 
G01 X59.1553 Y18.5408 
G01 X59.3023 Y18.5116 
G01 X59.4408 Y18.4542 
G01 X59.5654 Y18.3710 
G01 X59.6713 Y18.2650 
G01 X59.7546 Y18.1404 
G01 X59.8120 Y18.0019 
G01 X59.8412 Y17.8549 
G01 X59.8412 Y17.7051 
G01 X59.8120 Y17.5581 
G01 X59.7546 Y17.4196 
G01 X59.6713 Y17.2950 
G01 X59.5654 Y17.1890 
G01 X59.4408 Y17.1058 
G01 X59.3023 Y17.0484 
G01 X59.1553 Y17.0192 
G01 X57.6847 Y17.0192 
G01 X57.5377 Y17.0484 
G01 X57.3992 Y17.1058 
G01 X57.2746 Y17.1890 
G01 X57.1686 Y17.2950 
G01 X57.0854 Y17.4196 
G01 X57.0280 Y17.5581 
G01 X56.9988 Y17.7051 
G01 X56.9988 Y17.8549 
G01 X57.0280 Y18.0019 
G01 X57.0854 Y18.1404 
G01 X57.1686 Y18.2650 
G01 X57.2746 Y18.3710 
G00 Z3.0000  
G00 X57.2746 Y15.8309 
G01 Z-0.0800 F254   
G01 X57.3992 Y15.9142 F508   
G01 X57.5377 Y15.9716 
G01 X57.6847 Y16.0008 
G01 X59.1553 Y16.0008 
G01 X59.3023 Y15.9716 
G01 X59.4408 Y15.9142 
G01 X59.5654 Y15.8309 
G01 X59.6713 Y15.7250 
G01 X59.7546 Y15.6004 
G01 X59.8120 Y15.4619 
G01 X59.8412 Y15.3149 
G01 X59.8412 Y15.1651 
G01 X59.8120 Y15.0181 
G01 X59.7546 Y14.8796 
G01 X59.6713 Y14.7550 
G01 X59.5654 Y14.6490 
G01 X59.4408 Y14.5658 
G01 X59.3023 Y14.5084 
G01 X59.1553 Y14.4792 
G01 X57.6847 Y14.4792 
G01 X57.5377 Y14.5084 
G01 X57.3992 Y14.5658 
G01 X57.2746 Y14.6490 
G01 X57.1686 Y14.7550 
G01 X57.0854 Y14.8796 
G01 X57.0280 Y15.0181 
G01 X56.9988 Y15.1651 
G01 X56.9988 Y15.3149 
G01 X57.0280 Y15.4619 
G01 X57.0854 Y15.6004 
G01 X57.1686 Y15.7250 
G01 X57.2746 Y15.8309 
G00 Z3.0000  
G00 X57.2746 Y13.2910 
G01 Z-0.0800 F254   
G01 X57.3992 Y13.3742 F508   
G01 X57.5377 Y13.4316 
G01 X57.6847 Y13.4608 
G01 X59.1553 Y13.4608 
G01 X59.3023 Y13.4316 
G01 X59.4408 Y13.3742 
G01 X59.5654 Y13.2910 
G01 X59.6713 Y13.1850 
G01 X59.7546 Y13.0604 
G01 X59.8120 Y12.9219 
G01 X59.8412 Y12.7749 
G01 X59.8412 Y12.6251 
G01 X59.8120 Y12.4781 
G01 X59.7546 Y12.3396 
G01 X59.6713 Y12.2150 
G01 X59.5654 Y12.1090 
G01 X59.4408 Y12.0258 
G01 X59.3023 Y11.9684 
G01 X59.1553 Y11.9392 
G01 X57.6847 Y11.9392 
G01 X57.5377 Y11.9684 
G01 X57.3992 Y12.0258 
G01 X57.2746 Y12.1090 
G01 X57.1686 Y12.2150 
G01 X57.0854 Y12.3396 
G01 X57.0280 Y12.4781 
G01 X56.9988 Y12.6251 
G01 X56.9988 Y12.7749 
G01 X57.0280 Y12.9219 
G01 X57.0854 Y13.0604 
G01 X57.1686 Y13.1850 
G01 X57.2746 Y13.2910 
G00 Z3.0000  
G00 X57.2746 Y10.7509 
G01 Z-0.0800 F254   
G01 X57.3992 Y10.8342 F508   
G01 X57.5377 Y10.8916 
G01 X57.6847 Y10.9208 
G01 X59.1553 Y10.9208 
G01 X59.3023 Y10.8916 
G01 X59.4408 Y10.8342 
G01 X59.5654 Y10.7509 
G01 X59.6713 Y10.6450 
G01 X59.7546 Y10.5204 
G01 X59.8120 Y10.3819 
G01 X59.8412 Y10.2349 
G01 X59.8412 Y10.0851 
G01 X59.8120 Y9.9381  
G01 X59.7546 Y9.7996  
G01 X59.6713 Y9.6750  
G01 X59.5654 Y9.5690  
G01 X59.4408 Y9.4858  
G01 X59.3023 Y9.4284  
G01 X59.1553 Y9.3992  
G01 X57.6847 Y9.3992  
G01 X57.5377 Y9.4284  
G01 X57.3992 Y9.4858  
G01 X57.2746 Y9.5690  
G01 X57.1686 Y9.6750  
G01 X57.0854 Y9.7996  
G01 X57.0280 Y9.9381  
G01 X56.9988 Y10.0851 
G01 X56.9988 Y10.2349 
G01 X57.0280 Y10.3819 
G01 X57.0854 Y10.5204 
G01 X57.1686 Y10.6450 
G01 X57.2746 Y10.7509 
G00 Z3.0000  
G00 X57.2746 Y8.2110  
G01 Z-0.0800 F254   
G01 X57.3992 Y8.2942  F508   
G01 X57.5377 Y8.3516  
G01 X57.6847 Y8.3808  
G01 X59.1553 Y8.3808  
G01 X59.3023 Y8.3516  
G01 X59.4408 Y8.2942  
G01 X59.5654 Y8.2110  
G01 X59.6713 Y8.1050  
G01 X59.7546 Y7.9804  
G01 X59.8120 Y7.8419  
G01 X59.8412 Y7.6949  
G01 X59.8412 Y7.5451  
G01 X59.8120 Y7.3981  
G01 X59.7546 Y7.2596  
G01 X59.6713 Y7.1350  
G01 X59.5654 Y7.0290  
G01 X59.4408 Y6.9458  
G01 X59.3023 Y6.8884  
G01 X59.1553 Y6.8592  
G01 X57.6847 Y6.8592  
G01 X57.5377 Y6.8884  
G01 X57.3992 Y6.9458  
G01 X57.2746 Y7.0290  
G01 X57.1686 Y7.1350  
G01 X57.0854 Y7.2596  
G01 X57.0280 Y7.3981  
G01 X56.9988 Y7.5451  
G01 X56.9988 Y7.6949  
G01 X57.0280 Y7.8419  
G01 X57.0854 Y7.9804  
G01 X57.1686 Y8.1050  
G01 X57.2746 Y8.2110  
G00 Z3.0000  
G00 X57.2746 Y5.6710  
G01 Z-0.0800 F254   
G01 X57.3992 Y5.7542  F508   
G01 X57.5377 Y5.8116  
G01 X57.6847 Y5.8408  
G01 X59.1553 Y5.8408  
G01 X59.3023 Y5.8116  
G01 X59.4408 Y5.7542  
G01 X59.5654 Y5.6710  
G01 X59.6713 Y5.5650  
G01 X59.7546 Y5.4404  
G01 X59.8120 Y5.3019  
G01 X59.8412 Y5.1549  
G01 X59.8412 Y5.0051  
G01 X59.8120 Y4.8581  
G01 X59.7546 Y4.7196  
G01 X59.6713 Y4.5950  
G01 X59.5654 Y4.4890  
G01 X59.4408 Y4.4058  
G01 X59.3023 Y4.3484  
G01 X59.1553 Y4.3192  
G01 X57.6847 Y4.3192  
G01 X57.5377 Y4.3484  
G01 X57.3992 Y4.4058  
G01 X57.2746 Y4.4890  
G01 X57.1686 Y4.5950  
G01 X57.0854 Y4.7196  
G01 X57.0280 Y4.8581  
G01 X56.9988 Y5.0051  
G01 X56.9988 Y5.1549  
G01 X57.0280 Y5.3019  
G01 X57.0854 Y5.4404  
G01 X57.1686 Y5.5650  
G01 X57.2746 Y5.6710  
G00 Z3.0000  
G00 X51.3601 Y17.1917 
G01 Z-0.0800 F254   
G01 X51.3232 Y17.1764 F508   
G01 X50.2768 Y17.1764 
G01 X50.2399 Y17.1917 
G01 X50.2117 Y17.2199 
G01 X50.1964 Y17.2568 
G01 X50.1964 Y18.3032 
G01 X50.2117 Y18.3401 
G01 X50.2399 Y18.3683 
G01 X50.2768 Y18.3836 
G01 X51.3232 Y18.3836 
G01 X51.3601 Y18.3683 
G01 X51.3883 Y18.3401 
G01 X51.4036 Y18.3032 
G01 X51.4036 Y17.2568 
G01 X51.3883 Y17.2199 
G01 X51.3601 Y17.1917 
G00 Z3.0000  
G00 X48.8583 Y22.1309 
G01 Z-0.0800 F254   
G01 X48.7046 Y22.0282 F508   
G01 X48.5338 Y21.9575 
G01 X48.3524 Y21.9214 
G01 X48.1676 Y21.9214 
G01 X47.9862 Y21.9575 
G01 X47.8154 Y22.0282 
G01 X47.6617 Y22.1309 
G01 X47.5309 Y22.2617 
G01 X47.4282 Y22.4154 
G01 X47.3575 Y22.5862 
G01 X47.3214 Y22.7676 
G01 X47.3214 Y22.9524 
G01 X47.3575 Y23.1338 
G01 X47.4282 Y23.3046 
G01 X47.5309 Y23.4583 
G01 X47.6617 Y23.5891 
G01 X47.8154 Y23.6918 
G01 X47.9862 Y23.7625 
G01 X48.1676 Y23.7986 
G01 X48.3524 Y23.7986 
G01 X48.5338 Y23.7625 
G01 X48.7046 Y23.6918 
G01 X48.8583 Y23.5891 
G01 X48.9891 Y23.4583 
G01 X49.0918 Y23.3046 
G01 X49.1625 Y23.1338 
G01 X49.1986 Y22.9524 
G01 X49.1986 Y22.7676 
G01 X49.1625 Y22.5862 
G01 X49.0918 Y22.4154 
G01 X48.9891 Y22.2617 
G01 X48.8583 Y22.1309 
G00 Z3.0000  
G00 X48.8583 Y24.6709 
G01 Z-0.0800 F254   
G01 X48.7046 Y24.5682 F508   
G01 X48.5338 Y24.4975 
G01 X48.3524 Y24.4614 
G01 X48.1676 Y24.4614 
G01 X47.9862 Y24.4975 
G01 X47.8154 Y24.5682 
G01 X47.6617 Y24.6709 
G01 X47.5309 Y24.8017 
G01 X47.4282 Y24.9554 
G01 X47.3575 Y25.1262 
G01 X47.3214 Y25.3076 
G01 X47.3214 Y25.4924 
G01 X47.3575 Y25.6738 
G01 X47.4282 Y25.8446 
G01 X47.5309 Y25.9983 
G01 X47.6617 Y26.1291 
G01 X47.8154 Y26.2318 
G01 X47.9862 Y26.3025 
G01 X48.1676 Y26.3386 
G01 X48.3524 Y26.3386 
G01 X48.5338 Y26.3025 
G01 X48.7046 Y26.2318 
G01 X48.8583 Y26.1291 
G01 X48.9891 Y25.9983 
G01 X49.0918 Y25.8446 
G01 X49.1625 Y25.6738 
G01 X49.1986 Y25.4924 
G01 X49.1986 Y25.3076 
G01 X49.1625 Y25.1262 
G01 X49.0918 Y24.9554 
G01 X48.9891 Y24.8017 
G01 X48.8583 Y24.6709 
G00 Z3.0000  
G00 X48.8583 Y27.2109 
G01 Z-0.0800 F254   
G01 X48.7046 Y27.1082 F508   
G01 X48.5338 Y27.0375 
G01 X48.3524 Y27.0014 
G01 X48.1676 Y27.0014 
G01 X47.9862 Y27.0375 
G01 X47.8154 Y27.1082 
G01 X47.6617 Y27.2109 
G01 X47.5309 Y27.3417 
G01 X47.4282 Y27.4954 
G01 X47.3575 Y27.6662 
G01 X47.3214 Y27.8476 
G01 X47.3214 Y28.0324 
G01 X47.3575 Y28.2138 
G01 X47.4282 Y28.3846 
G01 X47.5309 Y28.5383 
G01 X47.6617 Y28.6691 
G01 X47.8154 Y28.7718 
G01 X47.9862 Y28.8425 
G01 X48.1676 Y28.8786 
G01 X48.3524 Y28.8786 
G01 X48.5338 Y28.8425 
G01 X48.7046 Y28.7718 
G01 X48.8583 Y28.6691 
G01 X48.9891 Y28.5383 
G01 X49.0918 Y28.3846 
G01 X49.1625 Y28.2138 
G01 X49.1986 Y28.0324 
G01 X49.1986 Y27.8476 
G01 X49.1625 Y27.6662 
G01 X49.0918 Y27.4954 
G01 X48.9891 Y27.3417 
G01 X48.8583 Y27.2109 
G00 Z3.0000  
G00 X48.8583 Y29.7509 
G01 Z-0.0800 F254   
G01 X48.7046 Y29.6482 F508   
G01 X48.5338 Y29.5775 
G01 X48.3524 Y29.5414 
G01 X48.1676 Y29.5414 
G01 X47.9862 Y29.5775 
G01 X47.8154 Y29.6482 
G01 X47.6617 Y29.7509 
G01 X47.5309 Y29.8817 
G01 X47.4282 Y30.0354 
G01 X47.3575 Y30.2062 
G01 X47.3214 Y30.3876 
G01 X47.3214 Y30.5724 
G01 X47.3575 Y30.7538 
G01 X47.4282 Y30.9246 
G01 X47.5309 Y31.0783 
G01 X47.6617 Y31.2091 
G01 X47.8154 Y31.3118 
G01 X47.9862 Y31.3825 
G01 X48.1676 Y31.4186 
G01 X48.3524 Y31.4186 
G01 X48.5338 Y31.3825 
G01 X48.7046 Y31.3118 
G01 X48.8583 Y31.2091 
G01 X48.9891 Y31.0783 
G01 X49.0918 Y30.9246 
G01 X49.1625 Y30.7538 
G01 X49.1986 Y30.5724 
G01 X49.1986 Y30.3876 
