(.../EAGLE 8.0/pcbgcode/pcb-gcode.ulp)
(Copyright 2005 - 2012 by John Johnson)
(See readme.txt for licensing terms.)
(This file generated from the board:)
(.../Documents/eagle/CR01/base v4.brd)
(Current profile is .../EAGLE 8.0/pcbgcode/profiles/mach.pp  )
(This file generated 16.3.2017 12:14)
(Settings from pcb-machine.h)
(spindle on time = 3.0000)
(  Tool Size)
(0.1500  )
(spindle speed = 30000.0000)
(tool change at 0.0000  0.0000  25.4000 )
(feed rate xy = F508   )
(feed rate z  = F254   )
(Z Axis Settings)
(  High     Up        Down     Drill)
(12.0000 	3.0000  	-0.0800 	-1.6000 )
(Settings from pcb-defaults.h)
(isolate min = 0.0254)
(isolate max = 0.5080)
(isolate step = 0.1000)
(Generated top outlines, top drill, bottom outlines, )
(Unit of measure: mm)
(Metric Mode)
G21
(Absolute Coordinates)
G90
S30000
G00 Z12.0000 
G00 X0.0000  Y0.0000  
M03
G04 P3.000000
G00 Z3.0000  
G00 X-5.7972 Y4.3693  
G01 Z-0.0800 F254   
G01 X-5.9187 Y4.2478  F508   
G01 X-6.0576 Y4.1469  
G01 X-6.2106 Y4.0689  
G01 X-6.3739 Y4.0159  
G01 X-6.5435 Y3.9890  
G01 X-8.6965 Y3.9890  
G01 X-8.8661 Y4.0159  
G01 X-9.0294 Y4.0689  
G01 X-9.1824 Y4.1469  
G01 X-9.3213 Y4.2478  
G01 X-9.4428 Y4.3693  
G01 X-9.5437 Y4.5082  
G01 X-9.6217 Y4.6612  
G01 X-9.6747 Y4.8245  
G01 X-9.7016 Y4.9941  
G01 X-9.7016 Y5.1659  
G01 X-9.6747 Y5.3355  
G01 X-9.6217 Y5.4988  
G01 X-9.5437 Y5.6518  
G01 X-9.4428 Y5.7907  
G01 X-9.3213 Y5.9122  
G01 X-9.1824 Y6.0131  
G01 X-9.0294 Y6.0911  
G01 X-8.8661 Y6.1441  
G01 X-8.6965 Y6.1710  
G01 X-6.5435 Y6.1710  
G01 X-6.3739 Y6.1441  
G01 X-6.2106 Y6.0911  
G01 X-6.0576 Y6.0131  
G01 X-5.9187 Y5.9122  
G01 X-5.7972 Y5.7907  
G01 X-5.6963 Y5.6518  
G01 X-5.6183 Y5.4988  
G01 X-5.5653 Y5.3355  
G01 X-5.5384 Y5.1659  
G01 X-5.5384 Y4.9941  
G01 X-5.5653 Y4.8245  
G01 X-5.6183 Y4.6612  
G01 X-5.6963 Y4.5082  
G01 X-5.7972 Y4.3693  
G00 Z3.0000  
G00 X-5.7972 Y9.4493  
G01 Z-0.0800 F254   
G01 X-5.9187 Y9.3278  F508   
G01 X-6.0576 Y9.2269  
G01 X-6.2106 Y9.1489  
G01 X-6.3739 Y9.0959  
G01 X-6.5435 Y9.0690  
G01 X-8.6965 Y9.0690  
G01 X-8.8661 Y9.0959  
G01 X-9.0294 Y9.1489  
G01 X-9.1824 Y9.2269  
G01 X-9.3213 Y9.3278  
G01 X-9.4428 Y9.4493  
G01 X-9.5437 Y9.5882  
G01 X-9.6217 Y9.7412  
G01 X-9.6747 Y9.9045  
G01 X-9.7016 Y10.0741 
G01 X-9.7016 Y10.2459 
G01 X-9.6747 Y10.4155 
G01 X-9.6217 Y10.5788 
G01 X-9.5437 Y10.7318 
G01 X-9.4428 Y10.8707 
G01 X-9.3213 Y10.9922 
G01 X-9.1824 Y11.0931 
G01 X-9.0294 Y11.1711 
G01 X-8.8661 Y11.2241 
G01 X-8.6965 Y11.2510 
G01 X-6.5435 Y11.2510 
G01 X-6.3739 Y11.2241 
G01 X-6.2106 Y11.1711 
G01 X-6.0576 Y11.0931 
G01 X-5.9187 Y10.9922 
G01 X-5.7972 Y10.8707 
G01 X-5.6963 Y10.7318 
G01 X-5.6183 Y10.5788 
G01 X-5.5653 Y10.4155 
G01 X-5.5384 Y10.2459 
G01 X-5.5384 Y10.0741 
G01 X-5.5653 Y9.9045  
G01 X-5.6183 Y9.7412  
G01 X-5.6963 Y9.5882  
G01 X-5.7972 Y9.4493  
G00 Z3.0000  
G00 X-7.0488 Y14.7712 
G01 Z-0.0800 F254   
G01 X-7.1512 Y14.6688 F508   
G01 X-7.2717 Y14.5883 
G01 X-7.4055 Y14.5329 
G01 X-7.5476 Y14.5046 
G01 X-38.1724 Y14.5046 
G01 X-38.3145 Y14.5329 
G01 X-38.4483 Y14.5883 
G01 X-38.5688 Y14.6688 
G01 X-38.6712 Y14.7712 
G01 X-38.7517 Y14.8917 
G01 X-38.8071 Y15.0255 
G01 X-38.8354 Y15.1676 
G01 X-38.8354 Y19.4962 
G01 X-38.8530 Y19.5846 
G01 X-39.8870 Y19.5846 
G01 X-39.9146 Y19.4459 
G01 X-39.9715 Y19.3087 
G01 X-40.0540 Y19.1851 
G01 X-40.1591 Y19.0800 
G01 X-40.2827 Y18.9975 
G01 X-40.4199 Y18.9406 
G01 X-40.5657 Y18.9116 
G01 X-40.7143 Y18.9116 
G01 X-40.8601 Y18.9406 
G01 X-40.9973 Y18.9975 
G01 X-41.1209 Y19.0800 
G01 X-41.2260 Y19.1851 
G01 X-41.3085 Y19.3087 
G01 X-41.3654 Y19.4459 
G01 X-41.3944 Y19.5917 
G01 X-41.3944 Y21.0483 
G01 X-41.3654 Y21.1941 
G01 X-41.3085 Y21.3313 
G01 X-41.2260 Y21.4549 
G01 X-41.1209 Y21.5600 
G01 X-40.9973 Y21.6425 
G01 X-40.8601 Y21.6994 
G01 X-40.7143 Y21.7284 
G01 X-40.5657 Y21.7284 
G01 X-40.4199 Y21.6994 
G01 X-40.2827 Y21.6425 
G01 X-40.1591 Y21.5600 
G01 X-40.0540 Y21.4549 
G01 X-39.9715 Y21.3313 
G01 X-39.9146 Y21.1941 
G01 X-39.8870 Y21.0554 
G01 X-38.8530 Y21.0554 
G01 X-38.8254 Y21.1941 
G01 X-38.7685 Y21.3313 
G01 X-38.6860 Y21.4549 
G01 X-38.5809 Y21.5600 
G01 X-38.4573 Y21.6425 
G01 X-38.3201 Y21.6994 
G01 X-38.1743 Y21.7284 
G01 X-38.0257 Y21.7284 
G01 X-37.8799 Y21.6994 
G01 X-37.7427 Y21.6425 
G01 X-37.6191 Y21.5600 
G01 X-37.5140 Y21.4549 
G01 X-37.4315 Y21.3313 
G01 X-37.3746 Y21.1941 
G01 X-37.3456 Y21.0483 
G01 X-37.3456 Y19.5917 
G01 X-37.3646 Y19.4962 
G01 X-37.3646 Y15.9754 
G01 X-13.4354 Y15.9754 
G01 X-13.4354 Y17.2958 
G01 X-13.5624 Y17.4228 
G01 X-13.5624 Y18.1372 
G01 X-13.0572 Y18.6424 
G01 X-12.3428 Y18.6424 
G01 X-11.8376 Y18.1372 
G01 X-11.8376 Y17.4228 
G01 X-11.9646 Y17.2958 
G01 X-11.9646 Y15.9754 
G01 X-8.3554 Y15.9754 
G01 X-8.3554 Y41.1746 
G01 X-11.1206 Y41.1746 
G01 X-11.1623 Y41.1329 
G01 X-11.3261 Y41.0235 
G01 X-11.5082 Y40.9480 
G01 X-11.7015 Y40.9096 
G01 X-11.9646 Y40.9096 
G01 X-11.9646 Y40.3704 
G01 X-11.7015 Y40.3704 
G01 X-11.5082 Y40.3320 
G01 X-11.3261 Y40.2565 
G01 X-11.1623 Y40.1471 
G01 X-11.0229 Y40.0077 
G01 X-10.9135 Y39.8439 
G01 X-10.8380 Y39.6618 
G01 X-10.7996 Y39.4685 
G01 X-10.7996 Y39.2715 
G01 X-10.8380 Y39.0782 
G01 X-10.9135 Y38.8961 
G01 X-11.0229 Y38.7323 
G01 X-11.1623 Y38.5929 
G01 X-11.3261 Y38.4835 
G01 X-11.5082 Y38.4080 
G01 X-11.7015 Y38.3696 
G01 X-13.6985 Y38.3696 
G01 X-13.8918 Y38.4080 
G01 X-14.0739 Y38.4835 
G01 X-14.2377 Y38.5929 
G01 X-14.3771 Y38.7323 
G01 X-14.4865 Y38.8961 
G01 X-14.5620 Y39.0782 
G01 X-14.6004 Y39.2715 
G01 X-14.6004 Y39.4685 
G01 X-14.5620 Y39.6618 
G01 X-14.4865 Y39.8439 
G01 X-14.3771 Y40.0077 
G01 X-14.2377 Y40.1471 
G01 X-14.0739 Y40.2565 
G01 X-13.8918 Y40.3320 
G01 X-13.6985 Y40.3704 
G01 X-13.4354 Y40.3704 
G01 X-13.4354 Y40.9096 
G01 X-13.6985 Y40.9096 
G01 X-13.8918 Y40.9480 
G01 X-14.0739 Y41.0235 
G01 X-14.2377 Y41.1329 
G01 X-14.3771 Y41.2723 
G01 X-14.4865 Y41.4361 
G01 X-14.5620 Y41.6182 
G01 X-14.6004 Y41.8115 
G01 X-14.6004 Y42.0085 
G01 X-14.5620 Y42.2018 
G01 X-14.4865 Y42.3839 
G01 X-14.3771 Y42.5477 
G01 X-14.2377 Y42.6871 
G01 X-14.0739 Y42.7965 
G01 X-13.8918 Y42.8720 
G01 X-13.6985 Y42.9104 
G01 X-11.7015 Y42.9104 
G01 X-11.5082 Y42.8720 
G01 X-11.3261 Y42.7965 
G01 X-11.1623 Y42.6871 
G01 X-11.1206 Y42.6454 
G01 X-8.3554 Y42.6454 
G01 X-8.3554 Y75.4646 
G01 X-29.7446 Y75.4646 
G01 X-29.7446 Y74.8737 
G01 X-29.7157 Y74.8305 
G01 X-29.6507 Y74.6736 
G01 X-29.6176 Y74.5069 
G01 X-29.6176 Y72.8131 
G01 X-29.6507 Y72.6464 
G01 X-29.7157 Y72.4895 
G01 X-29.7446 Y72.4463 
G01 X-29.7446 Y67.2537 
G01 X-29.7157 Y67.2105 
G01 X-29.6507 Y67.0536 
G01 X-29.6176 Y66.8869 
G01 X-29.6176 Y65.1931 
G01 X-29.6507 Y65.0264 
G01 X-29.7157 Y64.8695 
G01 X-29.7446 Y64.8263 
G01 X-29.7446 Y64.7137 
G01 X-29.7157 Y64.6705 
G01 X-29.6507 Y64.5136 
G01 X-29.6176 Y64.3469 
G01 X-29.6176 Y62.6531 
G01 X-29.6507 Y62.4864 
G01 X-29.7157 Y62.3295 
G01 X-29.8101 Y62.1882 
G01 X-29.9303 Y62.0681 
G01 X-30.0715 Y61.9738 
G01 X-30.2284 Y61.9087 
G01 X-30.3951 Y61.8756 
G01 X-30.5649 Y61.8756 
G01 X-30.7316 Y61.9087 
G01 X-30.8885 Y61.9738 
G01 X-31.0297 Y62.0681 
G01 X-31.1499 Y62.1882 
G01 X-31.2442 Y62.3295 
G01 X-31.3093 Y62.4864 
G01 X-31.3424 Y62.6531 
G01 X-31.3424 Y64.3469 
G01 X-31.3093 Y64.5136 
G01 X-31.2442 Y64.6705 
G01 X-31.2154 Y64.7137 
G01 X-31.2154 Y64.8263 
G01 X-31.2442 Y64.8695 
G01 X-31.3093 Y65.0264 
G01 X-31.3424 Y65.1931 
G01 X-31.3424 Y66.8869 
G01 X-31.3093 Y67.0536 
G01 X-31.2442 Y67.2105 
G01 X-31.2154 Y67.2537 
G01 X-31.2154 Y67.8446 
G01 X-47.5246 Y67.8446 
G01 X-47.5246 Y58.3476 
G01 X-47.5529 Y58.2055 
G01 X-47.6083 Y58.0717 
G01 X-47.6888 Y57.9512 
G01 X-47.7912 Y57.8488 
G01 X-47.9117 Y57.7683 
G01 X-48.0455 Y57.7129 
G01 X-48.1876 Y57.6846 
G01 X-50.0646 Y57.6846 
G01 X-50.0646 Y41.3754 
G01 X-48.8488 Y41.3754 
G01 X-48.7046 Y41.4718 
G01 X-48.5338 Y41.5425 
G01 X-48.3524 Y41.5786 
G01 X-48.1676 Y41.5786 
G01 X-47.9862 Y41.5425 
G01 X-47.8154 Y41.4718 
G01 X-47.6617 Y41.3691 
G01 X-47.5309 Y41.2383 
G01 X-47.4282 Y41.0846 
G01 X-47.3575 Y40.9138 
G01 X-47.3214 Y40.7324 
G01 X-47.3214 Y40.5476 
G01 X-47.3575 Y40.3662 
G01 X-47.4282 Y40.1954 
G01 X-47.5309 Y40.0417 
G01 X-47.6617 Y39.9109 
G01 X-47.8154 Y39.8082 
G01 X-47.9862 Y39.7375 
G01 X-48.1676 Y39.7014 
G01 X-48.3524 Y39.7014 
G01 X-48.5338 Y39.7375 
G01 X-48.7046 Y39.8082 
G01 X-48.8488 Y39.9046 
G01 X-52.6046 Y39.9046 
G01 X-52.6046 Y35.4876 
G01 X-52.6329 Y35.3455 
G01 X-52.6883 Y35.2117 
G01 X-52.7688 Y35.0912 
G01 X-52.8712 Y34.9888 
G01 X-52.9917 Y34.9083 
G01 X-53.1255 Y34.8529 
G01 X-53.2676 Y34.8246 
G01 X-55.2912 Y34.8246 
G01 X-55.4354 Y34.7282 
G01 X-55.6062 Y34.6575 
G01 X-55.7876 Y34.6214 
G01 X-55.9724 Y34.6214 
G01 X-56.1538 Y34.6575 
G01 X-56.3246 Y34.7282 
G01 X-56.4688 Y34.8246 
G01 X-57.2063 Y34.8246 
G01 X-57.2495 Y34.7957 
G01 X-57.4064 Y34.7307 
G01 X-57.5731 Y34.6976 
G01 X-59.2669 Y34.6976 
G01 X-59.4336 Y34.7307 
G01 X-59.5905 Y34.7957 
G01 X-59.6337 Y34.8246 
G01 X-78.8124 Y34.8246 
G01 X-78.9545 Y34.8529 
G01 X-79.0883 Y34.9083 
G01 X-79.2088 Y34.9888 
G01 X-79.3112 Y35.0912 
G01 X-79.3917 Y35.2117 
G01 X-79.4471 Y35.3455 
G01 X-79.4754 Y35.4876 
G01 X-79.4754 Y39.4263 
G01 X-79.5042 Y39.4695 
G01 X-79.5693 Y39.6264 
G01 X-79.6024 Y39.7931 
G01 X-79.6024 Y41.4869 
G01 X-79.5693 Y41.6536 
G01 X-79.5042 Y41.8105 
G01 X-79.4099 Y41.9517 
G01 X-79.2897 Y42.0719 
G01 X-79.1485 Y42.1662 
G01 X-78.9916 Y42.2313 
G01 X-78.8249 Y42.2644 
G01 X-78.6551 Y42.2644 
G01 X-78.4884 Y42.2313 
G01 X-78.3315 Y42.1662 
G01 X-78.1903 Y42.0719 
G01 X-78.0701 Y41.9517 
G01 X-77.9758 Y41.8105 
G01 X-77.9107 Y41.6536 
G01 X-77.8776 Y41.4869 
G01 X-77.8776 Y39.7931 
G01 X-77.9107 Y39.6264 
G01 X-77.9758 Y39.4695 
G01 X-78.0046 Y39.4263 
G01 X-78.0046 Y36.2954 
G01 X-59.6337 Y36.2954 
G01 X-59.5905 Y36.3242 
G01 X-59.4336 Y36.3893 
G01 X-59.2669 Y36.4224 
G01 X-57.5731 Y36.4224 
G01 X-57.4064 Y36.3893 
G01 X-57.2495 Y36.3242 
G01 X-57.2063 Y36.2954 
G01 X-56.4688 Y36.2954 
G01 X-56.3246 Y36.3918 
G01 X-56.1538 Y36.4625 
G01 X-55.9724 Y36.4986 
G01 X-55.7876 Y36.4986 
G01 X-55.6062 Y36.4625 
G01 X-55.4354 Y36.3918 
G01 X-55.2912 Y36.2954 
G01 X-54.0754 Y36.2954 
G01 X-54.0754 Y40.7124 
G01 X-54.0471 Y40.8545 
G01 X-53.9917 Y40.9883 
G01 X-53.9112 Y41.1088 
G01 X-53.8088 Y41.2112 
G01 X-53.6883 Y41.2917 
G01 X-53.5545 Y41.3471 
G01 X-53.4124 Y41.3754 
G01 X-51.5354 Y41.3754 
G01 X-51.5354 Y58.4924 
G01 X-51.5071 Y58.6345 
G01 X-51.4517 Y58.7683 
G01 X-51.3712 Y58.8888 
G01 X-51.2688 Y58.9912 
G01 X-51.1483 Y59.0717 
G01 X-51.0145 Y59.1271 
G01 X-50.8724 Y59.1554 
G01 X-48.9954 Y59.1554 
G01 X-48.9954 Y68.6524 
G01 X-48.9671 Y68.7945 
G01 X-48.9117 Y68.9283 
G01 X-48.8312 Y69.0488 
G01 X-48.7288 Y69.1512 
G01 X-48.6083 Y69.2317 
G01 X-48.4745 Y69.2871 
G01 X-48.3324 Y69.3154 
G01 X-31.2154 Y69.3154 
G01 X-31.2154 Y72.4463 
G01 X-31.2442 Y72.4895 
G01 X-31.3093 Y72.6464 
G01 X-31.3424 Y72.8131 
G01 X-31.3424 Y74.5069 
G01 X-31.3093 Y74.6736 
G01 X-31.2442 Y74.8305 
G01 X-31.2154 Y74.8737 
G01 X-31.2154 Y76.2724 
G01 X-31.1871 Y76.4145 
G01 X-31.1317 Y76.5483 
G01 X-31.0512 Y76.6688 
G01 X-30.9488 Y76.7712 
G01 X-30.8283 Y76.8517 
G01 X-30.6945 Y76.9071 
G01 X-30.5524 Y76.9354 
G01 X-7.5476 Y76.9354 
G01 X-7.4055 Y76.9071 
G01 X-7.2717 Y76.8517 
G01 X-7.1512 Y76.7712 
G01 X-7.0488 Y76.6688 
G01 X-6.9683 Y76.5483 
G01 X-6.9129 Y76.4145 
G01 X-6.8846 Y76.2724 
G01 X-6.8846 Y15.1676 
G01 X-6.9129 Y15.0255 
G01 X-6.9683 Y14.8917 
G01 X-7.0488 Y14.7712 
G00 Z3.0000  
G00 X-14.3776 Y17.4228 
G01 Z-0.0800 F254   
G01 X-14.8828 Y16.9176 F508   
G01 X-15.5972 Y16.9176 
G01 X-16.1024 Y17.4228 
G01 X-16.1024 Y18.1372 
G01 X-15.5972 Y18.6424 
G01 X-14.8828 Y18.6424 
G01 X-14.3776 Y18.1372 
G01 X-14.3776 Y17.4228 
G00 Z3.0000  
G00 X-14.3776 Y19.9628 
G01 Z-0.0800 F254   
G01 X-14.8828 Y19.4576 F508   
G01 X-15.5972 Y19.4576 
G01 X-15.7242 Y19.5846 
G01 X-19.5846 Y19.5846 
G01 X-19.5846 Y17.7076 
G01 X-19.6129 Y17.5655 
G01 X-19.6683 Y17.4317 
G01 X-19.7488 Y17.3112 
G01 X-19.8512 Y17.2088 
G01 X-19.9717 Y17.1283 
G01 X-20.1055 Y17.0729 
G01 X-20.2476 Y17.0446 
G01 X-33.0924 Y17.0446 
G01 X-33.2345 Y17.0729 
G01 X-33.3683 Y17.1283 
G01 X-33.4888 Y17.2088 
G01 X-33.5912 Y17.3112 
G01 X-33.6717 Y17.4317 
G01 X-33.7271 Y17.5655 
G01 X-33.7554 Y17.7076 
G01 X-33.7554 Y19.4962 
G01 X-33.7744 Y19.5917 
G01 X-33.7744 Y21.0483 
G01 X-33.7454 Y21.1941 
G01 X-33.6885 Y21.3313 
G01 X-33.6060 Y21.4549 
G01 X-33.5009 Y21.5600 
G01 X-33.3773 Y21.6425 
G01 X-33.2400 Y21.6994 
G01 X-33.0943 Y21.7284 
G01 X-32.9457 Y21.7284 
G01 X-32.7999 Y21.6994 
G01 X-32.6627 Y21.6425 
G01 X-32.5391 Y21.5600 
G01 X-32.4340 Y21.4549 
G01 X-32.3515 Y21.3313 
G01 X-32.2946 Y21.1941 
G01 X-32.2656 Y21.0483 
G01 X-32.2656 Y19.5917 
G01 X-32.2846 Y19.4962 
G01 X-32.2846 Y18.5154 
G01 X-21.0554 Y18.5154 
G01 X-21.0554 Y20.3924 
G01 X-21.0271 Y20.5345 
G01 X-20.9717 Y20.6683 
G01 X-20.8912 Y20.7888 
G01 X-20.7888 Y20.8912 
G01 X-20.6683 Y20.9717 
G01 X-20.5345 Y21.0271 
G01 X-20.3924 Y21.0554 
G01 X-15.7242 Y21.0554 
G01 X-15.5972 Y21.1824 
G01 X-14.8828 Y21.1824 
G01 X-14.3776 Y20.6772 
G01 X-14.3776 Y19.9628 
G00 Z3.0000  
G00 X-13.5624 Y19.9628 
G01 Z-0.0800 F254   
G01 X-13.5624 Y20.6772 F508   
G01 X-13.0572 Y21.1824 
G01 X-12.3428 Y21.1824 
G01 X-11.8376 Y20.6772 
G01 X-11.8376 Y19.9628 
G01 X-12.3428 Y19.4576 
G01 X-13.0572 Y19.4576 
G01 X-13.5624 Y19.9628 
G00 Z3.0000  
G00 X-13.2497 Y22.1901 
G01 Z-0.0800 F254   
G01 X-13.3699 Y22.3102 F508   
G01 X-13.4642 Y22.4515 
G01 X-13.5293 Y22.6084 
G01 X-13.5624 Y22.7751 
G01 X-13.5624 Y22.9449 
G01 X-13.5293 Y23.1116 
G01 X-13.4642 Y23.2685 
G01 X-13.4354 Y23.3117 
G01 X-13.4354 Y24.6646 
G01 X-22.1246 Y24.6646 
G01 X-22.1246 Y21.1438 
G01 X-22.1056 Y21.0483 
G01 X-22.1056 Y19.5917 
G01 X-22.1346 Y19.4459 
G01 X-22.1915 Y19.3087 
G01 X-22.2740 Y19.1851 
G01 X-22.3791 Y19.0800 
G01 X-22.5027 Y18.9975 
G01 X-22.6399 Y18.9406 
G01 X-22.7857 Y18.9116 
G01 X-22.9343 Y18.9116 
G01 X-23.0800 Y18.9406 
G01 X-23.2173 Y18.9975 
G01 X-23.3409 Y19.0800 
G01 X-23.4460 Y19.1851 
G01 X-23.5285 Y19.3087 
G01 X-23.5854 Y19.4459 
G01 X-23.6144 Y19.5917 
G01 X-23.6144 Y21.0483 
G01 X-23.5954 Y21.1438 
G01 X-23.5954 Y24.6646 
G01 X-34.8246 Y24.6646 
G01 X-34.8246 Y21.1438 
G01 X-34.8056 Y21.0483 
G01 X-34.8056 Y19.5917 
G01 X-34.8346 Y19.4459 
G01 X-34.8915 Y19.3087 
G01 X-34.9740 Y19.1851 
G01 X-35.0791 Y19.0800 
G01 X-35.2027 Y18.9975 
G01 X-35.3399 Y18.9406 
G01 X-35.4857 Y18.9116 
G01 X-35.6343 Y18.9116 
G01 X-35.7801 Y18.9406 
G01 X-35.9173 Y18.9975 
G01 X-36.0409 Y19.0800 
G01 X-36.1460 Y19.1851 
G01 X-36.2285 Y19.3087 
G01 X-36.2854 Y19.4459 
G01 X-36.3144 Y19.5917 
G01 X-36.3144 Y21.0483 
G01 X-36.2954 Y21.1438 
G01 X-36.2954 Y24.6646 
G01 X-42.4446 Y24.6646 
G01 X-42.4446 Y20.2476 
G01 X-42.4729 Y20.1055 
G01 X-42.5283 Y19.9717 
G01 X-42.6088 Y19.8512 
G01 X-42.7112 Y19.7488 
G01 X-42.8317 Y19.6683 
G01 X-42.9655 Y19.6129 
G01 X-43.1076 Y19.5846 
G01 X-50.0646 Y19.5846 
G01 X-50.0646 Y5.8154  
G01 X-41.8537 Y5.8154  
G01 X-41.8105 Y5.8442  
G01 X-41.6536 Y5.9093  
G01 X-41.4869 Y5.9424  
G01 X-39.7931 Y5.9424  
G01 X-39.6264 Y5.9093  
G01 X-39.4695 Y5.8442  
G01 X-39.4263 Y5.8154  
G01 X-39.3137 Y5.8154  
G01 X-39.2705 Y5.8442  
G01 X-39.1136 Y5.9093  
G01 X-38.9469 Y5.9424  
G01 X-37.2531 Y5.9424  
G01 X-37.0864 Y5.9093  
G01 X-36.9295 Y5.8442  
G01 X-36.8863 Y5.8154  
G01 X-36.7737 Y5.8154  
G01 X-36.7305 Y5.8442  
G01 X-36.5736 Y5.9093  
G01 X-36.4069 Y5.9424  
G01 X-34.7131 Y5.9424  
G01 X-34.5464 Y5.9093  
G01 X-34.3895 Y5.8442  
G01 X-34.3463 Y5.8154  
G01 X-34.2337 Y5.8154  
G01 X-34.1905 Y5.8442  
G01 X-34.0336 Y5.9093  
G01 X-33.8669 Y5.9424  
G01 X-32.1731 Y5.9424  
G01 X-32.0064 Y5.9093  
G01 X-31.8495 Y5.8442  
G01 X-31.8063 Y5.8154  
G01 X-31.6937 Y5.8154  
G01 X-31.6505 Y5.8442  
G01 X-31.4936 Y5.9093  
G01 X-31.3269 Y5.9424  
G01 X-29.6331 Y5.9424  
G01 X-29.4664 Y5.9093  
G01 X-29.3095 Y5.8442  
G01 X-29.2663 Y5.8154  
G01 X-29.1537 Y5.8154  
G01 X-29.1105 Y5.8442  
G01 X-28.9536 Y5.9093  
G01 X-28.7869 Y5.9424  
G01 X-27.0931 Y5.9424  
G01 X-26.9264 Y5.9093  
G01 X-26.7695 Y5.8442  
G01 X-26.6700 Y5.7778  
G01 X-26.5705 Y5.8442  
G01 X-26.4136 Y5.9093  
G01 X-26.2469 Y5.9424  
G01 X-24.5531 Y5.9424  
G01 X-24.3864 Y5.9093  
G01 X-24.2295 Y5.8442  
G01 X-24.1863 Y5.8154  
G01 X-24.0737 Y5.8154  
G01 X-24.0305 Y5.8442  
G01 X-23.8736 Y5.9093  
G01 X-23.7069 Y5.9424  
G01 X-22.0131 Y5.9424  
G01 X-21.8464 Y5.9093  
G01 X-21.6895 Y5.8442  
G01 X-21.5482 Y5.7499  
G01 X-21.4281 Y5.6297  
G01 X-21.3337 Y5.4885  
G01 X-21.2687 Y5.3316  
G01 X-21.2356 Y5.1649  
G01 X-21.2356 Y4.9951  
G01 X-21.2687 Y4.8284  
G01 X-21.3337 Y4.6715  
G01 X-21.4281 Y4.5302  
G01 X-21.5482 Y4.4101  
G01 X-21.6895 Y4.3158  
G01 X-21.8464 Y4.2507  
G01 X-22.0131 Y4.2176  
G01 X-23.7069 Y4.2176  
G01 X-23.8736 Y4.2507  
G01 X-24.0305 Y4.3158  
G01 X-24.0737 Y4.3446  
G01 X-24.1863 Y4.3446  
G01 X-24.2295 Y4.3158  
G01 X-24.3864 Y4.2507  
G01 X-24.5531 Y4.2176  
G01 X-26.2469 Y4.2176  
G01 X-26.4136 Y4.2507  
G01 X-26.5705 Y4.3158  
G01 X-26.6700 Y4.3822  
G01 X-26.7695 Y4.3158  
G01 X-26.9264 Y4.2507  
G01 X-27.0931 Y4.2176  
G01 X-28.7869 Y4.2176  
G01 X-28.9536 Y4.2507  
G01 X-29.1105 Y4.3158  
G01 X-29.1537 Y4.3446  
G01 X-29.2663 Y4.3446  
G01 X-29.3095 Y4.3158  
G01 X-29.4664 Y4.2507  
G01 X-29.6331 Y4.2176  
G01 X-31.3269 Y4.2176  
G01 X-31.4936 Y4.2507  
G01 X-31.6505 Y4.3158  
G01 X-31.6937 Y4.3446  
G01 X-31.8063 Y4.3446  
G01 X-31.8495 Y4.3158  
G01 X-32.0064 Y4.2507  
G01 X-32.1731 Y4.2176  
G01 X-33.8669 Y4.2176  
G01 X-34.0336 Y4.2507  
G01 X-34.1905 Y4.3158  
G01 X-34.2337 Y4.3446  
G01 X-34.3463 Y4.3446  
G01 X-34.3895 Y4.3158  
G01 X-34.5464 Y4.2507  
G01 X-34.7131 Y4.2176  
G01 X-36.4069 Y4.2176  
G01 X-36.5736 Y4.2507  
G01 X-36.7305 Y4.3158  
G01 X-36.7737 Y4.3446  
G01 X-36.8863 Y4.3446  
G01 X-36.9295 Y4.3158  
G01 X-37.0864 Y4.2507  
G01 X-37.2531 Y4.2176  
G01 X-38.9469 Y4.2176  
G01 X-39.1136 Y4.2507  
G01 X-39.2705 Y4.3158  
G01 X-39.3137 Y4.3446  
G01 X-39.4263 Y4.3446  
G01 X-39.4695 Y4.3158  
G01 X-39.6264 Y4.2507  
G01 X-39.7931 Y4.2176  
G01 X-41.4869 Y4.2176  
G01 X-41.6536 Y4.2507  
G01 X-41.8105 Y4.3158  
G01 X-41.8537 Y4.3446  
G01 X-57.5570 Y4.3446  
G01 X-57.6847 Y4.3192  
G01 X-59.1553 Y4.3192  
G01 X-59.2830 Y4.3446  
G01 X-82.9570 Y4.3446  
G01 X-83.0847 Y4.3192  
G01 X-84.5553 Y4.3192  
G01 X-84.7023 Y4.3484  
G01 X-84.8408 Y4.4058  
G01 X-84.9654 Y4.4890  
G01 X-85.0713 Y4.5950  
G01 X-85.1546 Y4.7196  
G01 X-85.2120 Y4.8581  
G01 X-85.2412 Y5.0051  
G01 X-85.2412 Y5.1549  
G01 X-85.2120 Y5.3019  
G01 X-85.1546 Y5.4404  
G01 X-85.0713 Y5.5650  
G01 X-84.9654 Y5.6710  
G01 X-84.8408 Y5.7542  
G01 X-84.7023 Y5.8116  
G01 X-84.5553 Y5.8408  
G01 X-83.0847 Y5.8408  
G01 X-82.9570 Y5.8154  
G01 X-79.4754 Y5.8154  
G01 X-79.4754 Y6.8846  
G01 X-82.9570 Y6.8846  
G01 X-83.0847 Y6.8592  
G01 X-84.5553 Y6.8592  
G01 X-84.7023 Y6.8884  
G01 X-84.8408 Y6.9458  
G01 X-84.9654 Y7.0290  
G01 X-85.0713 Y7.1350  
G01 X-85.1546 Y7.2596  
G01 X-85.2120 Y7.3981  
G01 X-85.2412 Y7.5451  
G01 X-85.2412 Y7.6949  
G01 X-85.2120 Y7.8419  
G01 X-85.1546 Y7.9804  
G01 X-85.0713 Y8.1050  
G01 X-84.9654 Y8.2110  
G01 X-84.8408 Y8.2942  
G01 X-84.7023 Y8.3516  
G01 X-84.5553 Y8.3808  
G01 X-83.0847 Y8.3808  
G01 X-82.9570 Y8.3554  
G01 X-79.4754 Y8.3554  
G01 X-79.4754 Y15.3124 
G01 X-79.4471 Y15.4545 
G01 X-79.3917 Y15.5883 
G01 X-79.3112 Y15.7088 
G01 X-79.2088 Y15.8112 
G01 X-79.0883 Y15.8917 
G01 X-78.9545 Y15.9471 
G01 X-78.8124 Y15.9754 
G01 X-78.6676 Y15.9754 
G01 X-78.5255 Y15.9471 
G01 X-78.3917 Y15.8917 
G01 X-78.2712 Y15.8112 
G01 X-78.1688 Y15.7088 
G01 X-78.0883 Y15.5883 
G01 X-78.0329 Y15.4545 
G01 X-78.0046 Y15.3124 
G01 X-78.0046 Y5.8154  
G01 X-59.2830 Y5.8154  
G01 X-59.1553 Y5.8408  
G01 X-57.6847 Y5.8408  
G01 X-57.5570 Y5.8154  
G01 X-51.5354 Y5.8154  
G01 X-51.5354 Y38.1724 
G01 X-51.5071 Y38.3145 
G01 X-51.4517 Y38.4483 
G01 X-51.3712 Y38.5688 
G01 X-51.2688 Y38.6712 
G01 X-51.1483 Y38.7517 
G01 X-51.0145 Y38.8071 
G01 X-50.8724 Y38.8354 
G01 X-48.8488 Y38.8354 
G01 X-48.7046 Y38.9318 
G01 X-48.5338 Y39.0025 
G01 X-48.3524 Y39.0386 
G01 X-48.1676 Y39.0386 
G01 X-47.9862 Y39.0025 
G01 X-47.8154 Y38.9318 
G01 X-47.6712 Y38.8354 
G01 X-38.8354 Y38.8354 
G01 X-38.8354 Y57.2063 
G01 X-38.8642 Y57.2495 
G01 X-38.9293 Y57.4064 
G01 X-38.9624 Y57.5731 
G01 X-38.9624 Y59.2669 
G01 X-38.9293 Y59.4336 
G01 X-38.8642 Y59.5905 
G01 X-38.8354 Y59.6337 
G01 X-38.8354 Y61.0324 
G01 X-38.8071 Y61.1745 
G01 X-38.7517 Y61.3083 
G01 X-38.6712 Y61.4288 
G01 X-38.5688 Y61.5312 
G01 X-38.4483 Y61.6117 
G01 X-38.3145 Y61.6671 
G01 X-38.1724 Y61.6954 
G01 X-28.6754 Y61.6954 
G01 X-28.6754 Y62.2863 
G01 X-28.7042 Y62.3295 
G01 X-28.7693 Y62.4864 
G01 X-28.8024 Y62.6531 
G01 X-28.8024 Y64.3469 
G01 X-28.7693 Y64.5136 
G01 X-28.7042 Y64.6705 
G01 X-28.6754 Y64.7137 
G01 X-28.6754 Y64.8263 
G01 X-28.7042 Y64.8695 
G01 X-28.7693 Y65.0264 
G01 X-28.8024 Y65.1931 
G01 X-28.8024 Y66.8869 
G01 X-28.7693 Y67.0536 
G01 X-28.7042 Y67.2105 
G01 X-28.6754 Y67.2537 
G01 X-28.6754 Y72.4463 
G01 X-28.7042 Y72.4895 
G01 X-28.7693 Y72.6464 
G01 X-28.8024 Y72.8131 
G01 X-28.8024 Y74.5069 
G01 X-28.7693 Y74.6736 
G01 X-28.7042 Y74.8305 
G01 X-28.6099 Y74.9717 
G01 X-28.4897 Y75.0919 
G01 X-28.3485 Y75.1862 
G01 X-28.1916 Y75.2513 
G01 X-28.0249 Y75.2844 
G01 X-27.8551 Y75.2844 
G01 X-27.6884 Y75.2513 
G01 X-27.5315 Y75.1862 
G01 X-27.3903 Y75.0919 
G01 X-27.2701 Y74.9717 
G01 X-27.1758 Y74.8305 
G01 X-27.1107 Y74.6736 
G01 X-27.0776 Y74.5069 
G01 X-27.0776 Y72.8131 
G01 X-27.1107 Y72.6464 
G01 X-27.1758 Y72.4895 
G01 X-27.2046 Y72.4463 
G01 X-27.2046 Y71.8554 
G01 X-17.7076 Y71.8554 
G01 X-17.5655 Y71.8271 
G01 X-17.4317 Y71.7717 
G01 X-17.3112 Y71.6912 
G01 X-17.2088 Y71.5888 
G01 X-17.1283 Y71.4683 
G01 X-17.0729 Y71.3345 
G01 X-17.0446 Y71.1924 
G01 X-17.0446 Y61.6954 
G01 X-13.4354 Y61.6954 
G01 X-13.4354 Y62.2863 
G01 X-13.4642 Y62.3295 
G01 X-13.5293 Y62.4864 
G01 X-13.5624 Y62.6531 
G01 X-13.5624 Y64.3469 
G01 X-13.5293 Y64.5136 
G01 X-13.4642 Y64.6705 
G01 X-13.3699 Y64.8117 
G01 X-13.2497 Y64.9319 
G01 X-13.1085 Y65.0262 
G01 X-12.9516 Y65.0913 
G01 X-12.7849 Y65.1244 
G01 X-12.6151 Y65.1244 
G01 X-12.4484 Y65.0913 
G01 X-12.2915 Y65.0262 
G01 X-12.1502 Y64.9319 
G01 X-12.0301 Y64.8117 
G01 X-11.9358 Y64.6705 
G01 X-11.8707 Y64.5136 
G01 X-11.8376 Y64.3469 
G01 X-11.8376 Y62.6531 
G01 X-11.8707 Y62.4864 
G01 X-11.9358 Y62.3295 
G01 X-11.9646 Y62.2863 
G01 X-11.9646 Y58.9581 
G01 X-11.7995 Y58.7930 
G01 X-11.7995 Y58.0470 
G01 X-12.3270 Y57.5195 
G01 X-13.0730 Y57.5195 
G01 X-13.6005 Y58.0470 
G01 X-13.6005 Y58.7930 
G01 X-13.4354 Y58.9581 
G01 X-13.4354 Y60.2246 
G01 X-37.3646 Y60.2246 
G01 X-37.3646 Y59.6337 
G01 X-37.3357 Y59.5905 
G01 X-37.2707 Y59.4336 
G01 X-37.2376 Y59.2669 
G01 X-37.2376 Y57.5731 
G01 X-37.2707 Y57.4064 
G01 X-37.3357 Y57.2495 
G01 X-37.3646 Y57.2063 
G01 X-37.3646 Y54.0754 
G01 X-36.7737 Y54.0754 
G01 X-36.7305 Y54.1042 
G01 X-36.5736 Y54.1693 
G01 X-36.4069 Y54.2024 
G01 X-34.7131 Y54.2024 
G01 X-34.5464 Y54.1693 
G01 X-34.3895 Y54.1042 
G01 X-34.3463 Y54.0754 
G01 X-34.2337 Y54.0754 
G01 X-34.1905 Y54.1042 
G01 X-34.0336 Y54.1693 
G01 X-33.8669 Y54.2024 
G01 X-32.1731 Y54.2024 
G01 X-32.0064 Y54.1693 
G01 X-31.8495 Y54.1042 
G01 X-31.8063 Y54.0754 
G01 X-31.6937 Y54.0754 
G01 X-31.6505 Y54.1042 
G01 X-31.4936 Y54.1693 
G01 X-31.3269 Y54.2024 
G01 X-29.6331 Y54.2024 
G01 X-29.4664 Y54.1693 
G01 X-29.3095 Y54.1042 
G01 X-29.2663 Y54.0754 
G01 X-29.1537 Y54.0754 
G01 X-29.1105 Y54.1042 
G01 X-28.9536 Y54.1693 
G01 X-28.7869 Y54.2024 
G01 X-27.0931 Y54.2024 
G01 X-26.9264 Y54.1693 
G01 X-26.7695 Y54.1042 
G01 X-26.7263 Y54.0754 
G01 X-23.2005 Y54.0754 
G01 X-23.1751 Y54.1008 
G01 X-22.5449 Y54.1008 
G01 X-22.0992 Y53.6551 
G01 X-22.0992 Y53.0249 
G01 X-22.5449 Y52.5792 
G01 X-23.1751 Y52.5792 
G01 X-23.2005 Y52.6046 
G01 X-26.7263 Y52.6046 
G01 X-26.7695 Y52.5757 
G01 X-26.9264 Y52.5107 
G01 X-27.0931 Y52.4776 
G01 X-28.7869 Y52.4776 
G01 X-28.9536 Y52.5107 
G01 X-29.1105 Y52.5757 
G01 X-29.1537 Y52.6046 
G01 X-29.2663 Y52.6046 
G01 X-29.3095 Y52.5757 
G01 X-29.4664 Y52.5107 
G01 X-29.6331 Y52.4776 
G01 X-31.3269 Y52.4776 
G01 X-31.4936 Y52.5107 
G01 X-31.6505 Y52.5757 
G01 X-31.6937 Y52.6046 
G01 X-31.8063 Y52.6046 
G01 X-31.8495 Y52.5757 
G01 X-32.0064 Y52.5107 
G01 X-32.1731 Y52.4776 
G01 X-33.8669 Y52.4776 
G01 X-34.0336 Y52.5107 
G01 X-34.1905 Y52.5757 
G01 X-34.2337 Y52.6046 
G01 X-34.3463 Y52.6046 
G01 X-34.3895 Y52.5757 
G01 X-34.5464 Y52.5107 
G01 X-34.7131 Y52.4776 
G01 X-36.4069 Y52.4776 
G01 X-36.5736 Y52.5107 
G01 X-36.7305 Y52.5757 
G01 X-36.7737 Y52.6046 
G01 X-37.3646 Y52.6046 
G01 X-37.3646 Y38.0276 
G01 X-37.3929 Y37.8855 
G01 X-37.4483 Y37.7517 
G01 X-37.5288 Y37.6312 
G01 X-37.6312 Y37.5288 
G01 X-37.7517 Y37.4483 
G01 X-37.8855 Y37.3929 
G01 X-38.0276 Y37.3646 
G01 X-47.6712 Y37.3646 
G01 X-47.8154 Y37.2682 
G01 X-47.9862 Y37.1975 
G01 X-48.1676 Y37.1614 
G01 X-48.3524 Y37.1614 
G01 X-48.5338 Y37.1975 
G01 X-48.7046 Y37.2682 
G01 X-48.8488 Y37.3646 
G01 X-50.0646 Y37.3646 
G01 X-50.0646 Y21.0554 
G01 X-43.9154 Y21.0554 
G01 X-43.9154 Y25.4724 
G01 X-43.8871 Y25.6145 
G01 X-43.8317 Y25.7483 
G01 X-43.7512 Y25.8688 
G01 X-43.6488 Y25.9712 
G01 X-43.5283 Y26.0517 
G01 X-43.3945 Y26.1071 
G01 X-43.2524 Y26.1354 
G01 X-12.6276 Y26.1354 
G01 X-12.4855 Y26.1071 
G01 X-12.3517 Y26.0517 
G01 X-12.2312 Y25.9712 
G01 X-12.1288 Y25.8688 
G01 X-12.0483 Y25.7483 
G01 X-11.9929 Y25.6145 
G01 X-11.9646 Y25.4724 
G01 X-11.9646 Y23.3117 
G01 X-11.9358 Y23.2685 
G01 X-11.8707 Y23.1116 
G01 X-11.8376 Y22.9449 
G01 X-11.8376 Y22.7751 
G01 X-11.8707 Y22.6084 
G01 X-11.9358 Y22.4515 
G01 X-12.0301 Y22.3102 
G01 X-12.1502 Y22.1901 
G01 X-12.2915 Y22.0957 
G01 X-12.4484 Y22.0307 
G01 X-12.6151 Y21.9976 
G01 X-12.7849 Y21.9976 
G01 X-12.9516 Y22.0307 
G01 X-13.1085 Y22.0957 
G01 X-13.2497 Y22.1901 
G00 Z3.0000  
G00 X-14.3776 Y22.5028 
G01 Z-0.0800 F254   
G01 X-14.8828 Y21.9976 F508   
G01 X-15.5972 Y21.9976 
G01 X-16.1024 Y22.5028 
G01 X-16.1024 Y23.2172 
G01 X-15.5972 Y23.7224 
G01 X-14.8828 Y23.7224 
G01 X-14.3776 Y23.2172 
G01 X-14.3776 Y22.5028 
G00 Z3.0000  
G00 X-13.2497 Y26.5081 
G01 Z-0.0800 F254   
G01 X-13.3699 Y26.6283 F508   
G01 X-13.4642 Y26.7695 
G01 X-13.5293 Y26.9264 
G01 X-13.5624 Y27.0931 
G01 X-13.5624 Y27.2046 
G01 X-17.8524 Y27.2046 
G01 X-17.9945 Y27.2329 
G01 X-18.1283 Y27.2883 
G01 X-18.2488 Y27.3688 
G01 X-18.3512 Y27.4712 
G01 X-18.4317 Y27.5917 
G01 X-18.4871 Y27.7255 
G01 X-18.5154 Y27.8676 
G01 X-18.5154 Y34.5596 
G01 X-18.7785 Y34.5596 
G01 X-18.9718 Y34.5980 
G01 X-19.1539 Y34.6735 
G01 X-19.3177 Y34.7829 
G01 X-19.4571 Y34.9223 
G01 X-19.5665 Y35.0861 
G01 X-19.5846 Y35.1297 
G01 X-19.5846 Y27.8676 
G01 X-19.6129 Y27.7255 
G01 X-19.6683 Y27.5917 
G01 X-19.7488 Y27.4712 
G01 X-19.8512 Y27.3688 
G01 X-19.9717 Y27.2883 
G01 X-20.1055 Y27.2329 
G01 X-20.2476 Y27.2046 
G01 X-47.6712 Y27.2046 
G01 X-47.8154 Y27.1082 
G01 X-47.9862 Y27.0375 
G01 X-48.1676 Y27.0014 
G01 X-48.3524 Y27.0014 
G01 X-48.5338 Y27.0375 
G01 X-48.7046 Y27.1082 
G01 X-48.8583 Y27.2109 
G01 X-48.9891 Y27.3417 
G01 X-49.0918 Y27.4954 
G01 X-49.1625 Y27.6662 
G01 X-49.1986 Y27.8476 
G01 X-49.1986 Y28.0324 
G01 X-49.1625 Y28.2138 
G01 X-49.0918 Y28.3846 
G01 X-48.9891 Y28.5383 
G01 X-48.8583 Y28.6691 
G01 X-48.7046 Y28.7718 
G01 X-48.5338 Y28.8425 
G01 X-48.3524 Y28.8786 
G01 X-48.1676 Y28.8786 
G01 X-47.9862 Y28.8425 
G01 X-47.8154 Y28.7718 
G01 X-47.6712 Y28.6754 
G01 X-21.0554 Y28.6754 
G01 X-21.0554 Y38.1724 
G01 X-21.0271 Y38.3145 
G01 X-20.9717 Y38.4483 
G01 X-20.8912 Y38.5688 
G01 X-20.7888 Y38.6712 
G01 X-20.6683 Y38.7517 
G01 X-20.5345 Y38.8071 
G01 X-20.3924 Y38.8354 
G01 X-19.3594 Y38.8354 
G01 X-19.3177 Y38.8771 
G01 X-19.1539 Y38.9865 
G01 X-18.9718 Y39.0620 
G01 X-18.7785 Y39.1004 
G01 X-16.7815 Y39.1004 
G01 X-16.5882 Y39.0620 
G01 X-16.4061 Y38.9865 
G01 X-16.2423 Y38.8771 
G01 X-16.1029 Y38.7377 
G01 X-15.9935 Y38.5739 
G01 X-15.9180 Y38.3918 
G01 X-15.8796 Y38.1985 
G01 X-15.8796 Y38.0015 
G01 X-15.9180 Y37.8082 
G01 X-15.9935 Y37.6261 
G01 X-16.1029 Y37.4623 
G01 X-16.2423 Y37.3229 
G01 X-16.4061 Y37.2135 
G01 X-16.5882 Y37.1380 
G01 X-16.7815 Y37.0996 
G01 X-18.7785 Y37.0996 
G01 X-18.9718 Y37.1380 
G01 X-19.1539 Y37.2135 
G01 X-19.3177 Y37.3229 
G01 X-19.3594 Y37.3646 
G01 X-19.5846 Y37.3646 
G01 X-19.5846 Y35.9903 
G01 X-19.5665 Y36.0339 
G01 X-19.4571 Y36.1977 
G01 X-19.3177 Y36.3371 
G01 X-19.1539 Y36.4465 
G01 X-18.9718 Y36.5220 
G01 X-18.7785 Y36.5604 
G01 X-16.7815 Y36.5604 
G01 X-16.5882 Y36.5220 
G01 X-16.4061 Y36.4465 
G01 X-16.2423 Y36.3371 
G01 X-16.1029 Y36.1977 
G01 X-15.9935 Y36.0339 
G01 X-15.9180 Y35.8518 
G01 X-15.8796 Y35.6585 
G01 X-15.8796 Y35.4615 
G01 X-15.9180 Y35.2682 
G01 X-15.9935 Y35.0861 
G01 X-16.1029 Y34.9223 
G01 X-16.2423 Y34.7829 
G01 X-16.4061 Y34.6735 
G01 X-16.5882 Y34.5980 
G01 X-16.7815 Y34.5596 
G01 X-17.0446 Y34.5596 
G01 X-17.0446 Y28.6754 
G01 X-13.5624 Y28.6754 
G01 X-13.5624 Y28.7869 
G01 X-13.5293 Y28.9536 
G01 X-13.4642 Y29.1105 
G01 X-13.3699 Y29.2517 
G01 X-13.2497 Y29.3719 
G01 X-13.1085 Y29.4662 
G01 X-12.9516 Y29.5313 
G01 X-12.7849 Y29.5644 
G01 X-12.6151 Y29.5644 
G01 X-12.4484 Y29.5313 
G01 X-12.2915 Y29.4662 
G01 X-12.1502 Y29.3719 
G01 X-12.0301 Y29.2517 
G01 X-11.9358 Y29.1105 
G01 X-11.8707 Y28.9536 
G01 X-11.8376 Y28.7869 
G01 X-11.8376 Y27.0931 
G01 X-11.8707 Y26.9264 
G01 X-11.9358 Y26.7695 
G01 X-12.0301 Y26.6283 
G01 X-12.1502 Y26.5081 
G01 X-12.2915 Y26.4138 
G01 X-12.4484 Y26.3487 
G01 X-12.6151 Y26.3156 
G01 X-12.7849 Y26.3156 
G01 X-12.9516 Y26.3487 
G01 X-13.1085 Y26.4138 
G01 X-13.2497 Y26.5081 
G00 Z3.0000  
G00 X-10.7097 Y26.5081 
G01 Z-0.0800 F254   
G01 X-10.8299 Y26.6283 F508   
G01 X-10.9242 Y26.7695 
G01 X-10.9893 Y26.9264 
G01 X-11.0224 Y27.0931 
G01 X-11.0224 Y28.7869 
G01 X-10.9893 Y28.9536 
G01 X-10.9242 Y29.1105 
G01 X-10.8954 Y29.1537 
G01 X-10.8954 Y33.8597 
G01 X-10.9135 Y33.8161 
G01 X-11.0229 Y33.6523 
G01 X-11.1623 Y33.5129 
G01 X-11.3261 Y33.4035 
G01 X-11.5082 Y33.3280 
G01 X-11.7015 Y33.2896 
G01 X-13.6985 Y33.2896 
G01 X-13.8918 Y33.3280 
G01 X-14.0739 Y33.4035 
G01 X-14.2377 Y33.5129 
G01 X-14.3771 Y33.6523 
G01 X-14.4865 Y33.8161 
G01 X-14.5620 Y33.9982 
G01 X-14.6004 Y34.1915 
G01 X-14.6004 Y34.3885 
G01 X-14.5620 Y34.5818 
G01 X-14.4865 Y34.7639 
G01 X-14.3771 Y34.9277 
G01 X-14.2377 Y35.0671 
G01 X-14.0739 Y35.1765 
G01 X-13.8918 Y35.2520 
G01 X-13.6985 Y35.2904 
G01 X-11.7015 Y35.2904 
G01 X-11.5082 Y35.2520 
G01 X-11.3261 Y35.1765 
G01 X-11.1623 Y35.0671 
G01 X-11.0229 Y34.9277 
G01 X-10.9135 Y34.7639 
G01 X-10.8954 Y34.7203 
G01 X-10.8954 Y36.0946 
G01 X-11.1206 Y36.0946 
G01 X-11.1623 Y36.0529 
G01 X-11.3261 Y35.9435 
G01 X-11.5082 Y35.8680 
G01 X-11.7015 Y35.8296 
G01 X-13.6985 Y35.8296 
G01 X-13.8918 Y35.8680 
G01 X-14.0739 Y35.9435 
G01 X-14.2377 Y36.0529 
G01 X-14.3771 Y36.1923 
G01 X-14.4865 Y36.3561 
G01 X-14.5620 Y36.5382 
G01 X-14.6004 Y36.7315 
G01 X-14.6004 Y36.9285 
G01 X-14.5620 Y37.1218 
G01 X-14.4865 Y37.3039 
G01 X-14.3771 Y37.4677 
G01 X-14.2377 Y37.6071 
G01 X-14.0739 Y37.7165 
G01 X-13.8918 Y37.7920 
G01 X-13.6985 Y37.8304 
G01 X-11.7015 Y37.8304 
G01 X-11.5082 Y37.7920 
G01 X-11.3261 Y37.7165 
G01 X-11.1623 Y37.6071 
G01 X-11.1206 Y37.5654 
G01 X-10.0876 Y37.5654 
G01 X-9.9455 Y37.5371 
G01 X-9.8117 Y37.4817 
G01 X-9.6912 Y37.4012 
G01 X-9.5888 Y37.2988 
G01 X-9.5083 Y37.1783 
G01 X-9.4529 Y37.0445 
G01 X-9.4246 Y36.9024 
G01 X-9.4246 Y29.1537 
G01 X-9.3957 Y29.1105 
G01 X-9.3307 Y28.9536 
G01 X-9.2976 Y28.7869 
G01 X-9.2976 Y27.0931 
G01 X-9.3307 Y26.9264 
G01 X-9.3957 Y26.7695 
G01 X-9.4901 Y26.6283 
G01 X-9.6103 Y26.5081 
G01 X-9.7515 Y26.4138 
G01 X-9.9084 Y26.3487 
G01 X-10.0751 Y26.3156 
G01 X-10.2449 Y26.3156 
G01 X-10.4116 Y26.3487 
G01 X-10.5685 Y26.4138 
G01 X-10.7097 Y26.5081 
G00 Z3.0000  
G00 X-22.2888 Y30.0112 
G01 Z-0.0800 F254   
G01 X-22.3912 Y29.9088 F508   
G01 X-22.5117 Y29.8283 
G01 X-22.6455 Y29.7729 
G01 X-22.7876 Y29.7446 
G01 X-47.6712 Y29.7446 
G01 X-47.8154 Y29.6482 
G01 X-47.9862 Y29.5775 
G01 X-48.1676 Y29.5414 
G01 X-48.3524 Y29.5414 
G01 X-48.5338 Y29.5775 
G01 X-48.7046 Y29.6482 
G01 X-48.8583 Y29.7509 
G01 X-48.9891 Y29.8817 
G01 X-49.0918 Y30.0354 
G01 X-49.1625 Y30.2062 
G01 X-49.1986 Y30.3876 
G01 X-49.1986 Y30.5724 
G01 X-49.1625 Y30.7538 
G01 X-49.0918 Y30.9246 
G01 X-48.9891 Y31.0783 
G01 X-48.8583 Y31.2091 
G01 X-48.7046 Y31.3118 
G01 X-48.5338 Y31.3825 
G01 X-48.3524 Y31.4186 
G01 X-48.1676 Y31.4186 
G01 X-47.9862 Y31.3825 
G01 X-47.8154 Y31.3118 
G01 X-47.6712 Y31.2154 
G01 X-23.5954 Y31.2154 
G01 X-23.5954 Y40.7124 
G01 X-23.5671 Y40.8545 
G01 X-23.5117 Y40.9883 
G01 X-23.4312 Y41.1088 
G01 X-23.3288 Y41.2112 
G01 X-23.2083 Y41.2917 
G01 X-23.0745 Y41.3471 
G01 X-22.9324 Y41.3754 
G01 X-19.3594 Y41.3754 
G01 X-19.3177 Y41.4171 
G01 X-19.1539 Y41.5265 
G01 X-18.9718 Y41.6020 
G01 X-18.7785 Y41.6404 
G01 X-16.7815 Y41.6404 
G01 X-16.5882 Y41.6020 
G01 X-16.4061 Y41.5265 
G01 X-16.2423 Y41.4171 
G01 X-16.1029 Y41.2777 
G01 X-15.9935 Y41.1139 
G01 X-15.9180 Y40.9318 
G01 X-15.8796 Y40.7385 
G01 X-15.8796 Y40.5415 
G01 X-15.9180 Y40.3482 
G01 X-15.9935 Y40.1661 
G01 X-16.1029 Y40.0023 
G01 X-16.2423 Y39.8629 
G01 X-16.4061 Y39.7535 
G01 X-16.5882 Y39.6780 
G01 X-16.7815 Y39.6396 
G01 X-18.7785 Y39.6396 
G01 X-18.9718 Y39.6780 
G01 X-19.1539 Y39.7535 
G01 X-19.3177 Y39.8629 
G01 X-19.3594 Y39.9046 
G01 X-22.1246 Y39.9046 
G01 X-22.1246 Y30.4076 
G01 X-22.1529 Y30.2655 
G01 X-22.2083 Y30.1317 
G01 X-22.2888 Y30.0112 
G00 Z3.0000  
G00 X-24.9191 Y21.5600 
G01 Z-0.0800 F254   
G01 X-24.8140 Y21.4549 F508   
G01 X-24.7315 Y21.3313 
G01 X-24.6746 Y21.1941 
G01 X-24.6456 Y21.0483 
G01 X-24.6456 Y19.5917 
G01 X-24.6746 Y19.4459 
G01 X-24.7315 Y19.3087 
G01 X-24.8140 Y19.1851 
G01 X-24.9191 Y19.0800 
G01 X-25.0427 Y18.9975 
G01 X-25.1799 Y18.9406 
G01 X-25.3257 Y18.9116 
G01 X-25.4743 Y18.9116 
G01 X-25.6200 Y18.9406 
G01 X-25.7573 Y18.9975 
G01 X-25.8809 Y19.0800 
G01 X-25.9860 Y19.1851 
G01 X-26.0685 Y19.3087 
G01 X-26.1254 Y19.4459 
G01 X-26.1544 Y19.5917 
G01 X-26.1544 Y21.0483 
G01 X-26.1254 Y21.1941 
G01 X-26.0685 Y21.3313 
G01 X-25.9860 Y21.4549 
G01 X-25.8809 Y21.5600 
G01 X-25.7573 Y21.6425 
G01 X-25.6200 Y21.6994 
G01 X-25.4743 Y21.7284 
G01 X-25.3257 Y21.7284 
G01 X-25.1799 Y21.6994 
G01 X-25.0427 Y21.6425 
G01 X-24.9191 Y21.5600 
G00 Z3.0000  
G00 X-27.4591 Y21.5600 
G01 Z-0.0800 F254   
G01 X-27.3540 Y21.4549 F508   
G01 X-27.2715 Y21.3313 
G01 X-27.2146 Y21.1941 
G01 X-27.1856 Y21.0483 
G01 X-27.1856 Y19.5917 
G01 X-27.2146 Y19.4459 
G01 X-27.2715 Y19.3087 
G01 X-27.3540 Y19.1851 
G01 X-27.4591 Y19.0800 
G01 X-27.5827 Y18.9975 
G01 X-27.7199 Y18.9406 
G01 X-27.8657 Y18.9116 
G01 X-28.0143 Y18.9116 
G01 X-28.1600 Y18.9406 
G01 X-28.2973 Y18.9975 
G01 X-28.4209 Y19.0800 
G01 X-28.5260 Y19.1851 
G01 X-28.6085 Y19.3087 
G01 X-28.6654 Y19.4459 
G01 X-28.6944 Y19.5917 
G01 X-28.6944 Y21.0483 
G01 X-28.6654 Y21.1941 
G01 X-28.6085 Y21.3313 
G01 X-28.5260 Y21.4549 
G01 X-28.4209 Y21.5600 
G01 X-28.2973 Y21.6425 
G01 X-28.1600 Y21.6994 
G01 X-28.0143 Y21.7284 
G01 X-27.8657 Y21.7284 
G01 X-27.7199 Y21.6994 
G01 X-27.5827 Y21.6425 
G01 X-27.4591 Y21.5600 
G00 Z3.0000  
G00 X-29.9991 Y21.5600 
G01 Z-0.0800 F254   
G01 X-29.8940 Y21.4549 F508   
G01 X-29.8115 Y21.3313 
G01 X-29.7546 Y21.1941 
G01 X-29.7256 Y21.0483 
G01 X-29.7256 Y19.5917 
G01 X-29.7546 Y19.4459 
G01 X-29.8115 Y19.3087 
G01 X-29.8940 Y19.1851 
G01 X-29.9991 Y19.0800 
G01 X-30.1227 Y18.9975 
G01 X-30.2599 Y18.9406 
G01 X-30.4057 Y18.9116 
G01 X-30.5543 Y18.9116 
G01 X-30.7001 Y18.9406 
G01 X-30.8373 Y18.9975 
G01 X-30.9609 Y19.0800 
G01 X-31.0660 Y19.1851 
G01 X-31.1485 Y19.3087 
G01 X-31.2054 Y19.4459 
G01 X-31.2344 Y19.5917 
G01 X-31.2344 Y21.0483 
G01 X-31.2054 Y21.1941 
G01 X-31.1485 Y21.3313 
G01 X-31.0660 Y21.4549 
G01 X-30.9609 Y21.5600 
G01 X-30.8373 Y21.6425 
G01 X-30.7001 Y21.6994 
G01 X-30.5543 Y21.7284 
G01 X-30.4057 Y21.7284 
G01 X-30.2599 Y21.6994 
G01 X-30.1227 Y21.6425 
G01 X-29.9991 Y21.5600 
G00 Z3.0000  
G00 X-29.9991 Y13.9400 
G01 Z-0.0800 F254   
G01 X-29.8940 Y13.8349 F508   
G01 X-29.8115 Y13.7113 
G01 X-29.7546 Y13.5740 
G01 X-29.7256 Y13.4283 
G01 X-29.7256 Y11.9717 
G01 X-29.7446 Y11.8762 
G01 X-29.7446 Y11.0224 
G01 X-29.6331 Y11.0224 
G01 X-29.4664 Y10.9893 
G01 X-29.3095 Y10.9242 
G01 X-29.2100 Y10.8578 
G01 X-29.1105 Y10.9242 
G01 X-28.9536 Y10.9893 
G01 X-28.7869 Y11.0224 
G01 X-28.6754 Y11.0224 
G01 X-28.6754 Y11.8762 
G01 X-28.6944 Y11.9717 
G01 X-28.6944 Y13.4283 
G01 X-28.6654 Y13.5740 
G01 X-28.6085 Y13.7113 
G01 X-28.5260 Y13.8349 
G01 X-28.4209 Y13.9400 
G01 X-28.2973 Y14.0225 
G01 X-28.1600 Y14.0794 
G01 X-28.0143 Y14.1084 
G01 X-27.8657 Y14.1084 
G01 X-27.7199 Y14.0794 
G01 X-27.5827 Y14.0225 
G01 X-27.4591 Y13.9400 
G01 X-27.3540 Y13.8349 
G01 X-27.2715 Y13.7113 
G01 X-27.2146 Y13.5740 
G01 X-27.1856 Y13.4283 
G01 X-27.1856 Y11.9717 
G01 X-27.2046 Y11.8762 
G01 X-27.2046 Y11.0224 
G01 X-27.0931 Y11.0224 
G01 X-26.9264 Y10.9893 
G01 X-26.7695 Y10.9242 
G01 X-26.6700 Y10.8578 
G01 X-26.5705 Y10.9242 
G01 X-26.4136 Y10.9893 
G01 X-26.2469 Y11.0224 
G01 X-26.1354 Y11.0224 
G01 X-26.1354 Y11.8762 
G01 X-26.1544 Y11.9717 
G01 X-26.1544 Y13.4283 
G01 X-26.1254 Y13.5740 
G01 X-26.0685 Y13.7113 
G01 X-25.9860 Y13.8349 
G01 X-25.8809 Y13.9400 
G01 X-25.7573 Y14.0225 
G01 X-25.6200 Y14.0794 
G01 X-25.4743 Y14.1084 
G01 X-25.3257 Y14.1084 
G01 X-25.1799 Y14.0794 
G01 X-25.0427 Y14.0225 
G01 X-24.9191 Y13.9400 
G01 X-24.8140 Y13.8349 
G01 X-24.7315 Y13.7113 
G01 X-24.6746 Y13.5740 
G01 X-24.6456 Y13.4283 
G01 X-24.6456 Y11.9717 
G01 X-24.6646 Y11.8762 
G01 X-24.6646 Y11.0224 
G01 X-24.5531 Y11.0224 
G01 X-24.3864 Y10.9893 
G01 X-24.2295 Y10.9242 
G01 X-24.1300 Y10.8578 
G01 X-24.0305 Y10.9242 
G01 X-23.8736 Y10.9893 
G01 X-23.7069 Y11.0224 
G01 X-23.5954 Y11.0224 
G01 X-23.5954 Y11.8762 
G01 X-23.6144 Y11.9717 
G01 X-23.6144 Y13.4283 
G01 X-23.5854 Y13.5740 
G01 X-23.5285 Y13.7113 
G01 X-23.4460 Y13.8349 
G01 X-23.3409 Y13.9400 
G01 X-23.2173 Y14.0225 
G01 X-23.0800 Y14.0794 
G01 X-22.9343 Y14.1084 
G01 X-22.7857 Y14.1084 
G01 X-22.6399 Y14.0794 
G01 X-22.5027 Y14.0225 
G01 X-22.3791 Y13.9400 
G01 X-22.2740 Y13.8349 
G01 X-22.1915 Y13.7113 
G01 X-22.1346 Y13.5740 
G01 X-22.1056 Y13.4283 
G01 X-22.1056 Y11.9717 
G01 X-22.1246 Y11.8762 
G01 X-22.1246 Y11.0224 
G01 X-22.0131 Y11.0224 
G01 X-21.8464 Y10.9893 
G01 X-21.6895 Y10.9242 
G01 X-21.5482 Y10.8299 
G01 X-21.4281 Y10.7097 
G01 X-21.3337 Y10.5685 
G01 X-21.2687 Y10.4116 
G01 X-21.2356 Y10.2449 
G01 X-21.2356 Y10.0751 
G01 X-21.2687 Y9.9084  
G01 X-21.3337 Y9.7515  
G01 X-21.4281 Y9.6103  
G01 X-21.5482 Y9.4901  
G01 X-21.6895 Y9.3957  
G01 X-21.8464 Y9.3307  
G01 X-22.0131 Y9.2976  
G01 X-23.7069 Y9.2976  
G01 X-23.8736 Y9.3307  
G01 X-24.0305 Y9.3957  
G01 X-24.1300 Y9.4622  
G01 X-24.2295 Y9.3957  
G01 X-24.3864 Y9.3307  
G01 X-24.5531 Y9.2976  
G01 X-26.2469 Y9.2976  
G01 X-26.4136 Y9.3307  
G01 X-26.5705 Y9.3957  
G01 X-26.6700 Y9.4622  
G01 X-26.7695 Y9.3957  
G01 X-26.9264 Y9.3307  
G01 X-27.0931 Y9.2976  
G01 X-28.7869 Y9.2976  
G01 X-28.9536 Y9.3307  
G01 X-29.1105 Y9.3957  
G01 X-29.2100 Y9.4622  
G01 X-29.3095 Y9.3957  
G01 X-29.4664 Y9.3307  
G01 X-29.6331 Y9.2976  
G01 X-31.3269 Y9.2976  
G01 X-31.4936 Y9.3307  
G01 X-31.6505 Y9.3957  
G01 X-31.7500 Y9.4622  
G01 X-31.8495 Y9.3957  
G01 X-32.0064 Y9.3307  
G01 X-32.1731 Y9.2976  
G01 X-33.8669 Y9.2976  
G01 X-34.0336 Y9.3307  
G01 X-34.1905 Y9.3957  
G01 X-34.2900 Y9.4622  
G01 X-34.3895 Y9.3957  
G01 X-34.5464 Y9.3307  
G01 X-34.7131 Y9.2976  
G01 X-36.4069 Y9.2976  
G01 X-36.5736 Y9.3307  
G01 X-36.7305 Y9.3957  
G01 X-36.8300 Y9.4622  
G01 X-36.9295 Y9.3957  
G01 X-37.0864 Y9.3307  
G01 X-37.2531 Y9.2976  
G01 X-38.9469 Y9.2976  
G01 X-39.1136 Y9.3307  
G01 X-39.2705 Y9.3957  
G01 X-39.3700 Y9.4622  
G01 X-39.4695 Y9.3957  
G01 X-39.6264 Y9.3307  
G01 X-39.7931 Y9.2976  
G01 X-41.4869 Y9.2976  
G01 X-41.6536 Y9.3307  
G01 X-41.8105 Y9.3957  
G01 X-41.9517 Y9.4901  
G01 X-42.0719 Y9.6103  
G01 X-42.1662 Y9.7515  
G01 X-42.2313 Y9.9084  
G01 X-42.2644 Y10.0751 
G01 X-42.2644 Y10.2449 
G01 X-42.2313 Y10.4116 
G01 X-42.1662 Y10.5685 
G01 X-42.0719 Y10.7097 
G01 X-41.9517 Y10.8299 
G01 X-41.8105 Y10.9242 
G01 X-41.6536 Y10.9893 
G01 X-41.4869 Y11.0224 
G01 X-41.3754 Y11.0224 
G01 X-41.3754 Y11.8762 
G01 X-41.3944 Y11.9717 
G01 X-41.3944 Y13.4283 
G01 X-41.3654 Y13.5740 
G01 X-41.3085 Y13.7113 
G01 X-41.2260 Y13.8349 
G01 X-41.1209 Y13.9400 
G01 X-40.9973 Y14.0225 
G01 X-40.8601 Y14.0794 
G01 X-40.7143 Y14.1084 
G01 X-40.5657 Y14.1084 
G01 X-40.4199 Y14.0794 
G01 X-40.2827 Y14.0225 
G01 X-40.1591 Y13.9400 
G01 X-40.0540 Y13.8349 
G01 X-39.9715 Y13.7113 
G01 X-39.9146 Y13.5740 
G01 X-39.8856 Y13.4283 
G01 X-39.8856 Y11.9717 
G01 X-39.9046 Y11.8762 
G01 X-39.9046 Y11.0224 
G01 X-39.7931 Y11.0224 
G01 X-39.6264 Y10.9893 
G01 X-39.4695 Y10.9242 
G01 X-39.3700 Y10.8578 
G01 X-39.2705 Y10.9242 
G01 X-39.1136 Y10.9893 
G01 X-38.9469 Y11.0224 
G01 X-38.8354 Y11.0224 
G01 X-38.8354 Y11.8762 
G01 X-38.8544 Y11.9717 
G01 X-38.8544 Y13.4283 
G01 X-38.8254 Y13.5740 
G01 X-38.7685 Y13.7113 
G01 X-38.6860 Y13.8349 
G01 X-38.5809 Y13.9400 
G01 X-38.4573 Y14.0225 
G01 X-38.3201 Y14.0794 
G01 X-38.1743 Y14.1084 
G01 X-38.0257 Y14.1084 
G01 X-37.8799 Y14.0794 
G01 X-37.7427 Y14.0225 
G01 X-37.6191 Y13.9400 
G01 X-37.5140 Y13.8349 
G01 X-37.4315 Y13.7113 
G01 X-37.3746 Y13.5740 
G01 X-37.3456 Y13.4283 
G01 X-37.3456 Y11.9717 
G01 X-37.3646 Y11.8762 
G01 X-37.3646 Y11.0224 
G01 X-37.2531 Y11.0224 
G01 X-37.0864 Y10.9893 
G01 X-36.9295 Y10.9242 
G01 X-36.8300 Y10.8578 
G01 X-36.7305 Y10.9242 
G01 X-36.5736 Y10.9893 
G01 X-36.4069 Y11.0224 
G01 X-36.2954 Y11.0224 
G01 X-36.2954 Y11.8762 
G01 X-36.3144 Y11.9717 
G01 X-36.3144 Y13.4283 
G01 X-36.2854 Y13.5740 
G01 X-36.2285 Y13.7113 
G01 X-36.1460 Y13.8349 
G01 X-36.0409 Y13.9400 
G01 X-35.9173 Y14.0225 
G01 X-35.7801 Y14.0794 
G01 X-35.6343 Y14.1084 
G01 X-35.4857 Y14.1084 
G01 X-35.3399 Y14.0794 
G01 X-35.2027 Y14.0225 
G01 X-35.0791 Y13.9400 
G01 X-34.9740 Y13.8349 
G01 X-34.8915 Y13.7113 
G01 X-34.8346 Y13.5740 
G01 X-34.8056 Y13.4283 
G01 X-34.8056 Y11.9717 
G01 X-34.8246 Y11.8762 
G01 X-34.8246 Y11.0224 
G01 X-34.7131 Y11.0224 
G01 X-34.5464 Y10.9893 
G01 X-34.3895 Y10.9242 
G01 X-34.2900 Y10.8578 
G01 X-34.1905 Y10.9242 
G01 X-34.0336 Y10.9893 
G01 X-33.8669 Y11.0224 
G01 X-33.7554 Y11.0224 
G01 X-33.7554 Y11.8762 
G01 X-33.7744 Y11.9717 
G01 X-33.7744 Y13.4283 
G01 X-33.7454 Y13.5740 
G01 X-33.6885 Y13.7113 
G01 X-33.6060 Y13.8349 
G01 X-33.5009 Y13.9400 
G01 X-33.3773 Y14.0225 
G01 X-33.2400 Y14.0794 
G01 X-33.0943 Y14.1084 
G01 X-32.9457 Y14.1084 
G01 X-32.7999 Y14.0794 
G01 X-32.6627 Y14.0225 
G01 X-32.5391 Y13.9400 
G01 X-32.4340 Y13.8349 
G01 X-32.3515 Y13.7113 
G01 X-32.2946 Y13.5740 
G01 X-32.2656 Y13.4283 
G01 X-32.2656 Y11.9717 
G01 X-32.2846 Y11.8762 
G01 X-32.2846 Y11.0224 
G01 X-32.1731 Y11.0224 
G01 X-32.0064 Y10.9893 
G01 X-31.8495 Y10.9242 
G01 X-31.7500 Y10.8578 
G01 X-31.6505 Y10.9242 
G01 X-31.4936 Y10.9893 
G01 X-31.3269 Y11.0224 
G01 X-31.2154 Y11.0224 
G01 X-31.2154 Y11.8762 
G01 X-31.2344 Y11.9717 
G01 X-31.2344 Y13.4283 
G01 X-31.2054 Y13.5740 
G01 X-31.1485 Y13.7113 
G01 X-31.0660 Y13.8349 
G01 X-30.9609 Y13.9400 
G01 X-30.8373 Y14.0225 
G01 X-30.7001 Y14.0794 
G01 X-30.5543 Y14.1084 
G01 X-30.4057 Y14.1084 
G01 X-30.2599 Y14.0794 
G01 X-30.1227 Y14.0225 
G01 X-29.9991 Y13.9400 
G00 Z3.0000  
G00 X-29.6331 Y8.4824  
G01 Z-0.0800 F254   
G01 X-29.4664 Y8.4493  F508   
G01 X-29.3095 Y8.3842  
G01 X-29.2663 Y8.3554  
G01 X-29.1537 Y8.3554  
G01 X-29.1105 Y8.3842  
G01 X-28.9536 Y8.4493  
G01 X-28.7869 Y8.4824  
G01 X-27.0931 Y8.4824  
G01 X-26.9264 Y8.4493  
G01 X-26.7695 Y8.3842  
G01 X-26.7263 Y8.3554  
G01 X-26.6137 Y8.3554  
G01 X-26.5705 Y8.3842  
G01 X-26.4136 Y8.4493  
G01 X-26.2469 Y8.4824  
G01 X-24.5531 Y8.4824  
G01 X-24.3864 Y8.4493  
G01 X-24.2295 Y8.3842  
G01 X-24.1863 Y8.3554  
G01 X-24.0737 Y8.3554  
G01 X-24.0305 Y8.3842  
G01 X-23.8736 Y8.4493  
G01 X-23.7069 Y8.4824  
G01 X-22.0131 Y8.4824  
G01 X-21.8464 Y8.4493  
G01 X-21.6895 Y8.3842  
G01 X-21.6463 Y8.3554  
G01 X-18.8710 Y8.3554  
G01 X-18.8710 Y8.6965  
G01 X-18.8441 Y8.8661  
G01 X-18.7911 Y9.0294  
G01 X-18.7131 Y9.1824  
G01 X-18.6122 Y9.3213  
G01 X-18.4907 Y9.4428  
G01 X-18.3518 Y9.5437  
G01 X-18.1988 Y9.6217  
G01 X-18.0355 Y9.6747  
G01 X-17.8659 Y9.7016  
G01 X-17.6941 Y9.7016  
G01 X-17.5245 Y9.6747  
G01 X-17.3612 Y9.6217  
G01 X-17.2082 Y9.5437  
G01 X-17.0693 Y9.4428  
G01 X-16.9478 Y9.3213  
G01 X-16.8469 Y9.1824  
G01 X-16.7689 Y9.0294  
G01 X-16.7159 Y8.8661  
G01 X-16.6890 Y8.6965  
G01 X-16.6890 Y6.5435  
G01 X-16.7159 Y6.3739  
G01 X-16.7689 Y6.2106  
G01 X-16.8469 Y6.0576  
G01 X-16.9478 Y5.9187  
G01 X-17.0693 Y5.7972  
G01 X-17.2082 Y5.6963  
G01 X-17.3612 Y5.6183  
G01 X-17.5245 Y5.5653  
G01 X-17.6941 Y5.5384  
G01 X-17.8659 Y5.5384  
G01 X-18.0355 Y5.5653  
G01 X-18.1988 Y5.6183  
G01 X-18.3518 Y5.6963  
G01 X-18.4907 Y5.7972  
G01 X-18.6122 Y5.9187  
G01 X-18.7131 Y6.0576  
G01 X-18.7911 Y6.2106  
G01 X-18.8441 Y6.3739  
G01 X-18.8710 Y6.5435  
G01 X-18.8710 Y6.8846  
G01 X-21.6463 Y6.8846  
G01 X-21.6895 Y6.8557  
G01 X-21.8464 Y6.7907  
G01 X-22.0131 Y6.7576  
G01 X-23.7069 Y6.7576  
G01 X-23.8736 Y6.7907  
G01 X-24.0305 Y6.8557  
G01 X-24.0737 Y6.8846  
G01 X-24.1863 Y6.8846  
G01 X-24.2295 Y6.8557  
G01 X-24.3864 Y6.7907  
G01 X-24.5531 Y6.7576  
G01 X-26.2469 Y6.7576  
G01 X-26.4136 Y6.7907  
G01 X-26.5705 Y6.8557  
G01 X-26.6137 Y6.8846  
G01 X-26.7263 Y6.8846  
G01 X-26.7695 Y6.8557  
G01 X-26.9264 Y6.7907  
G01 X-27.0931 Y6.7576  
G01 X-28.7869 Y6.7576  
G01 X-28.9536 Y6.7907  
G01 X-29.1105 Y6.8557  
G01 X-29.1537 Y6.8846  
G01 X-29.2663 Y6.8846  
G01 X-29.3095 Y6.8557  
G01 X-29.4664 Y6.7907  
G01 X-29.6331 Y6.7576  
G01 X-31.3269 Y6.7576  
G01 X-31.4936 Y6.7907  
G01 X-31.6505 Y6.8557  
G01 X-31.6937 Y6.8846  
G01 X-31.8063 Y6.8846  
G01 X-31.8495 Y6.8557  
G01 X-32.0064 Y6.7907  
G01 X-32.1731 Y6.7576  
G01 X-33.8669 Y6.7576  
G01 X-34.0336 Y6.7907  
G01 X-34.1905 Y6.8557  
G01 X-34.2337 Y6.8846  
G01 X-34.3463 Y6.8846  
G01 X-34.3895 Y6.8557  
G01 X-34.5464 Y6.7907  
G01 X-34.7131 Y6.7576  
G01 X-36.4069 Y6.7576  
G01 X-36.5736 Y6.7907  
G01 X-36.7305 Y6.8557  
G01 X-36.7737 Y6.8846  
G01 X-36.8863 Y6.8846  
G01 X-36.9295 Y6.8557  
G01 X-37.0864 Y6.7907  
G01 X-37.2531 Y6.7576  
G01 X-38.9469 Y6.7576  
G01 X-39.1136 Y6.7907  
G01 X-39.2705 Y6.8557  
G01 X-39.3137 Y6.8846  
G01 X-39.4263 Y6.8846  
G01 X-39.4695 Y6.8557  
G01 X-39.6264 Y6.7907  
G01 X-39.7931 Y6.7576  
G01 X-41.4869 Y6.7576  
G01 X-41.6536 Y6.7907  
G01 X-41.8105 Y6.8557  
G01 X-41.9517 Y6.9501  
G01 X-42.0719 Y7.0702  
G01 X-42.1662 Y7.2115  
G01 X-42.2313 Y7.3684  
G01 X-42.2644 Y7.5351  
G01 X-42.2644 Y7.7049  
G01 X-42.2313 Y7.8716  
G01 X-42.1662 Y8.0285  
G01 X-42.0719 Y8.1697  
G01 X-41.9517 Y8.2899  
G01 X-41.8105 Y8.3842  
G01 X-41.6536 Y8.4493  
G01 X-41.4869 Y8.4824  
G01 X-39.7931 Y8.4824  
G01 X-39.6264 Y8.4493  
G01 X-39.4695 Y8.3842  
G01 X-39.4263 Y8.3554  
G01 X-39.3137 Y8.3554  
G01 X-39.2705 Y8.3842  
G01 X-39.1136 Y8.4493  
G01 X-38.9469 Y8.4824  
G01 X-37.2531 Y8.4824  
G01 X-37.0864 Y8.4493  
G01 X-36.9295 Y8.3842  
G01 X-36.8863 Y8.3554  
G01 X-36.7737 Y8.3554  
G01 X-36.7305 Y8.3842  
G01 X-36.5736 Y8.4493  
G01 X-36.4069 Y8.4824  
G01 X-34.7131 Y8.4824  
G01 X-34.5464 Y8.4493  
G01 X-34.3895 Y8.3842  
G01 X-34.3463 Y8.3554  
G01 X-34.2337 Y8.3554  
G01 X-34.1905 Y8.3842  
G01 X-34.0336 Y8.4493  
G01 X-33.8669 Y8.4824  
G01 X-32.1731 Y8.4824  
G01 X-32.0064 Y8.4493  
G01 X-31.8495 Y8.3842  
G01 X-31.8063 Y8.3554  
G01 X-31.6937 Y8.3554  
G01 X-31.6505 Y8.3842  
G01 X-31.4936 Y8.4493  
G01 X-31.3269 Y8.4824  
G01 X-29.6331 Y8.4824  
G00 Z3.0000  
G00 X-52.6046 Y7.5476  
G01 Z-0.0800 F254   
G01 X-52.6329 Y7.4055  F508   
G01 X-52.6883 Y7.2717  
G01 X-52.7688 Y7.1512  
G01 X-52.8712 Y7.0488  
G01 X-52.9917 Y6.9683  
G01 X-53.1255 Y6.9129  
G01 X-53.2676 Y6.8846  
G01 X-57.5570 Y6.8846  
G01 X-57.6847 Y6.8592  
G01 X-59.1553 Y6.8592  
G01 X-59.3023 Y6.8884  
G01 X-59.4408 Y6.9458  
G01 X-59.5654 Y7.0290  
G01 X-59.6713 Y7.1350  
G01 X-59.7546 Y7.2596  
G01 X-59.8120 Y7.3981  
G01 X-59.8412 Y7.5451  
G01 X-59.8412 Y7.6949  
G01 X-59.8120 Y7.8419  
G01 X-59.7546 Y7.9804  
G01 X-59.6713 Y8.1050  
G01 X-59.5654 Y8.2110  
G01 X-59.4408 Y8.2942  
G01 X-59.3023 Y8.3516  
G01 X-59.1553 Y8.3808  
G01 X-57.6847 Y8.3808  
G01 X-57.5570 Y8.3554  
G01 X-54.0754 Y8.3554  
G01 X-54.0754 Y22.1246 
G01 X-55.2912 Y22.1246 
G01 X-55.4354 Y22.0282 
G01 X-55.6062 Y21.9575 
G01 X-55.7876 Y21.9214 
G01 X-55.9724 Y21.9214 
G01 X-56.1538 Y21.9575 
G01 X-56.3246 Y22.0282 
G01 X-56.4783 Y22.1309 
G01 X-56.6091 Y22.2617 
G01 X-56.7118 Y22.4154 
G01 X-56.7825 Y22.5862 
G01 X-56.8186 Y22.7676 
G01 X-56.8186 Y22.9524 
G01 X-56.7825 Y23.1338 
G01 X-56.7118 Y23.3046 
G01 X-56.6091 Y23.4583 
G01 X-56.4783 Y23.5891 
G01 X-56.3246 Y23.6918 
G01 X-56.1538 Y23.7625 
G01 X-55.9724 Y23.7986 
G01 X-55.7876 Y23.7986 
G01 X-55.6062 Y23.7625 
G01 X-55.4354 Y23.6918 
G01 X-55.2912 Y23.5954 
G01 X-53.2676 Y23.5954 
G01 X-53.1255 Y23.5671 
G01 X-52.9917 Y23.5117 
G01 X-52.8712 Y23.4312 
G01 X-52.7688 Y23.3288 
G01 X-52.6883 Y23.2083 
G01 X-52.6329 Y23.0745 
G01 X-52.6046 Y22.9324 
G01 X-52.6046 Y7.5476  
G00 Z3.0000  
G00 X-57.1686 Y9.6750  
G01 Z-0.0800 F254   
G01 X-57.2746 Y9.5690  F508   
G01 X-57.3992 Y9.4858  
G01 X-57.5377 Y9.4284  
G01 X-57.6847 Y9.3992  
G01 X-59.1553 Y9.3992  
G01 X-59.3023 Y9.4284  
G01 X-59.4408 Y9.4858  
G01 X-59.5654 Y9.5690  
G01 X-59.6713 Y9.6750  
G01 X-59.7546 Y9.7996  
G01 X-59.8120 Y9.9381  
G01 X-59.8412 Y10.0851 
G01 X-59.8412 Y10.2349 
G01 X-59.8120 Y10.3819 
G01 X-59.7546 Y10.5204 
G01 X-59.6713 Y10.6450 
G01 X-59.5654 Y10.7509 
G01 X-59.4408 Y10.8342 
G01 X-59.3023 Y10.8916 
G01 X-59.1553 Y10.9208 
G01 X-57.6847 Y10.9208 
G01 X-57.5377 Y10.8916 
G01 X-57.3992 Y10.8342 
G01 X-57.2746 Y10.7509 
G01 X-57.1686 Y10.6450 
G01 X-57.0854 Y10.5204 
G01 X-57.0280 Y10.3819 
G01 X-56.9988 Y10.2349 
G01 X-56.9988 Y10.0851 
G01 X-57.0280 Y9.9381  
G01 X-57.0854 Y9.7996  
G01 X-57.1686 Y9.6750  
G00 Z3.0000  
G00 X-57.1686 Y12.2150 
G01 Z-0.0800 F254   
G01 X-57.2746 Y12.1090 F508   
G01 X-57.3992 Y12.0258 
G01 X-57.5377 Y11.9684 
G01 X-57.6847 Y11.9392 
G01 X-59.1553 Y11.9392 
G01 X-59.3023 Y11.9684 
G01 X-59.4408 Y12.0258 
G01 X-59.5654 Y12.1090 
G01 X-59.6713 Y12.2150 
G01 X-59.7546 Y12.3396 
G01 X-59.8120 Y12.4781 
G01 X-59.8412 Y12.6251 
G01 X-59.8412 Y12.7749 
G01 X-59.8120 Y12.9219 
G01 X-59.7546 Y13.0604 
G01 X-59.6713 Y13.1850 
G01 X-59.5654 Y13.2910 
G01 X-59.4408 Y13.3742 
G01 X-59.3023 Y13.4316 
G01 X-59.1553 Y13.4608 
G01 X-57.6847 Y13.4608 
G01 X-57.5377 Y13.4316 
G01 X-57.3992 Y13.3742 
G01 X-57.2746 Y13.2910 
G01 X-57.1686 Y13.1850 
G01 X-57.0854 Y13.0604 
G01 X-57.0280 Y12.9219 
G01 X-56.9988 Y12.7749 
G01 X-56.9988 Y12.6251 
G01 X-57.0280 Y12.4781 
G01 X-57.0854 Y12.3396 
G01 X-57.1686 Y12.2150 
G00 Z3.0000  
G00 X-57.5570 Y14.5046 
G01 Z-0.0800 F254   
G01 X-57.6847 Y14.4792 F508   
G01 X-59.1553 Y14.4792 
G01 X-59.3023 Y14.5084 
G01 X-59.4408 Y14.5658 
G01 X-59.5654 Y14.6490 
G01 X-59.6713 Y14.7550 
G01 X-59.7546 Y14.8796 
G01 X-59.8120 Y15.0181 
G01 X-59.8412 Y15.1651 
G01 X-59.8412 Y15.3149 
G01 X-59.8120 Y15.4619 
G01 X-59.7546 Y15.6004 
G01 X-59.6713 Y15.7250 
G01 X-59.5654 Y15.8309 
G01 X-59.4408 Y15.9142 
G01 X-59.3023 Y15.9716 
G01 X-59.1553 Y16.0008 
G01 X-57.6847 Y16.0008 
G01 X-57.5570 Y15.9754 
G01 X-56.6154 Y15.9754 
G01 X-56.6154 Y19.5846 
G01 X-61.0324 Y19.5846 
G01 X-61.1745 Y19.6129 
G01 X-61.3083 Y19.6683 
G01 X-61.4288 Y19.7488 
G01 X-61.5312 Y19.8512 
G01 X-61.6117 Y19.9717 
G01 X-61.6671 Y20.1055 
G01 X-61.6954 Y20.2476 
G01 X-61.6954 Y28.0124 
G01 X-61.6671 Y28.1545 
G01 X-61.6117 Y28.2883 
G01 X-61.5312 Y28.4088 
G01 X-61.4288 Y28.5112 
G01 X-61.3083 Y28.5917 
G01 X-61.1745 Y28.6471 
G01 X-61.0324 Y28.6754 
G01 X-56.4688 Y28.6754 
G01 X-56.3246 Y28.7718 
G01 X-56.1538 Y28.8425 
G01 X-55.9724 Y28.8786 
G01 X-55.7876 Y28.8786 
G01 X-55.6062 Y28.8425 
G01 X-55.4354 Y28.7718 
G01 X-55.2817 Y28.6691 
G01 X-55.1509 Y28.5383 
G01 X-55.0482 Y28.3846 
G01 X-54.9775 Y28.2138 
G01 X-54.9414 Y28.0324 
G01 X-54.9414 Y27.8476 
G01 X-54.9775 Y27.6662 
G01 X-55.0482 Y27.4954 
G01 X-55.1509 Y27.3417 
G01 X-55.2817 Y27.2109 
G01 X-55.4354 Y27.1082 
G01 X-55.6062 Y27.0375 
G01 X-55.7876 Y27.0014 
G01 X-55.9724 Y27.0014 
G01 X-56.1538 Y27.0375 
G01 X-56.3246 Y27.1082 
G01 X-56.4688 Y27.2046 
G01 X-60.2246 Y27.2046 
G01 X-60.2246 Y21.0554 
G01 X-55.8076 Y21.0554 
G01 X-55.6655 Y21.0271 
G01 X-55.5317 Y20.9717 
G01 X-55.4112 Y20.8912 
G01 X-55.3088 Y20.7888 
G01 X-55.2283 Y20.6683 
G01 X-55.1729 Y20.5345 
G01 X-55.1446 Y20.3924 
G01 X-55.1446 Y15.1676 
G01 X-55.1729 Y15.0255 
G01 X-55.2283 Y14.8917 
G01 X-55.3088 Y14.7712 
G01 X-55.4112 Y14.6688 
G01 X-55.5317 Y14.5883 
G01 X-55.6655 Y14.5329 
G01 X-55.8076 Y14.5046 
G01 X-57.5570 Y14.5046 
G00 Z3.0000  
G00 X-57.5377 Y17.0484 
G01 Z-0.0800 F254   
G01 X-57.6847 Y17.0192 F508   
G01 X-59.1553 Y17.0192 
G01 X-59.2830 Y17.0446 
G01 X-63.5724 Y17.0446 
G01 X-63.7145 Y17.0729 
G01 X-63.8483 Y17.1283 
G01 X-63.9688 Y17.2088 
G01 X-64.0712 Y17.3112 
G01 X-64.1517 Y17.4317 
G01 X-64.2071 Y17.5655 
G01 X-64.2354 Y17.7076 
G01 X-64.2354 Y33.0924 
G01 X-64.2071 Y33.2345 
G01 X-64.1517 Y33.3683 
G01 X-64.0712 Y33.4888 
G01 X-63.9688 Y33.5912 
G01 X-63.8483 Y33.6717 
G01 X-63.7145 Y33.7271 
G01 X-63.5724 Y33.7554 
G01 X-56.4688 Y33.7554 
G01 X-56.3246 Y33.8518 
G01 X-56.1538 Y33.9225 
G01 X-55.9724 Y33.9586 
G01 X-55.7876 Y33.9586 
G01 X-55.6062 Y33.9225 
G01 X-55.4354 Y33.8518 
G01 X-55.2817 Y33.7491 
G01 X-55.1509 Y33.6183 
G01 X-55.0482 Y33.4646 
G01 X-54.9775 Y33.2938 
G01 X-54.9414 Y33.1124 
G01 X-54.9414 Y32.9276 
G01 X-54.9775 Y32.7462 
G01 X-55.0482 Y32.5754 
G01 X-55.1509 Y32.4217 
G01 X-55.2817 Y32.2909 
G01 X-55.4354 Y32.1882 
G01 X-55.6062 Y32.1175 
G01 X-55.7876 Y32.0814 
G01 X-55.9724 Y32.0814 
G01 X-56.1538 Y32.1175 
G01 X-56.3246 Y32.1882 
G01 X-56.4688 Y32.2846 
G01 X-62.7646 Y32.2846 
G01 X-62.7646 Y18.5154 
G01 X-59.2830 Y18.5154 
G01 X-59.1553 Y18.5408 
G01 X-57.6847 Y18.5408 
G01 X-57.5377 Y18.5116 
G01 X-57.3992 Y18.4542 
G01 X-57.2746 Y18.3710 
G01 X-57.1686 Y18.2650 
G01 X-57.0854 Y18.1404 
G01 X-57.0280 Y18.0019 
G01 X-56.9988 Y17.8549 
G01 X-56.9988 Y17.7051 
G01 X-57.0280 Y17.5581 
G01 X-57.0854 Y17.4196 
G01 X-57.1686 Y17.2950 
G01 X-57.2746 Y17.1890 
G01 X-57.3992 Y17.1058 
G01 X-57.5377 Y17.0484 
G00 Z3.0000  
G00 X-56.4783 Y24.6709 
G01 Z-0.0800 F254   
G01 X-56.6091 Y24.8017 F508   
G01 X-56.7118 Y24.9554 
G01 X-56.7825 Y25.1262 
G01 X-56.8186 Y25.3076 
G01 X-56.8186 Y25.4924 
G01 X-56.7825 Y25.6738 
G01 X-56.7118 Y25.8446 
G01 X-56.6091 Y25.9983 
G01 X-56.4783 Y26.1291 
G01 X-56.3246 Y26.2318 
G01 X-56.1538 Y26.3025 
G01 X-55.9724 Y26.3386 
G01 X-55.7876 Y26.3386 
G01 X-55.6062 Y26.3025 
G01 X-55.4354 Y26.2318 
G01 X-55.2817 Y26.1291 
G01 X-55.1509 Y25.9983 
G01 X-55.0482 Y25.8446 
G01 X-54.9775 Y25.6738 
G01 X-54.9414 Y25.4924 
G01 X-54.9414 Y25.3076 
G01 X-54.9775 Y25.1262 
G01 X-55.0482 Y24.9554 
G01 X-55.1509 Y24.8017 
G01 X-55.2817 Y24.6709 
G01 X-55.4354 Y24.5682 
G01 X-55.6062 Y24.4975 
G01 X-55.7876 Y24.4614 
G01 X-55.9724 Y24.4614 
G01 X-56.1538 Y24.4975 
G01 X-56.3246 Y24.5682 
G01 X-56.4783 Y24.6709 
G00 Z3.0000  
G00 X-56.4783 Y29.7509 
G01 Z-0.0800 F254   
G01 X-56.6091 Y29.8817 F508   
G01 X-56.7118 Y30.0354 
G01 X-56.7825 Y30.2062 
G01 X-56.8186 Y30.3876 
G01 X-56.8186 Y30.5724 
G01 X-56.7825 Y30.7538 
G01 X-56.7118 Y30.9246 
G01 X-56.6091 Y31.0783 
G01 X-56.4783 Y31.2091 
G01 X-56.3246 Y31.3118 
G01 X-56.1538 Y31.3825 
G01 X-55.9724 Y31.4186 
G01 X-55.7876 Y31.4186 
G01 X-55.6062 Y31.3825 
G01 X-55.4354 Y31.3118 
G01 X-55.2817 Y31.2091 
G01 X-55.1509 Y31.0783 
G01 X-55.0482 Y30.9246 
G01 X-54.9775 Y30.7538 
G01 X-54.9414 Y30.5724 
G01 X-54.9414 Y30.3876 
G01 X-54.9775 Y30.2062 
G01 X-55.0482 Y30.0354 
G01 X-55.1509 Y29.8817 
G01 X-55.2817 Y29.7509 
G01 X-55.4354 Y29.6482 
G01 X-55.6062 Y29.5775 
G01 X-55.7876 Y29.5414 
G01 X-55.9724 Y29.5414 
G01 X-56.1538 Y29.5775 
G01 X-56.3246 Y29.6482 
G01 X-56.4783 Y29.7509 
G00 Z3.0000  
G00 X-56.4783 Y37.3709 
G01 Z-0.0800 F254   
G01 X-56.6091 Y37.5017 F508   
G01 X-56.7118 Y37.6554 
G01 X-56.7825 Y37.8262 
G01 X-56.8078 Y37.9535 
G01 X-56.8287 Y37.8484 
G01 X-56.8937 Y37.6915 
G01 X-56.9881 Y37.5502 
G01 X-57.1082 Y37.4301 
G01 X-57.2495 Y37.3357 
G01 X-57.4064 Y37.2707 
G01 X-57.5731 Y37.2376 
G01 X-59.2669 Y37.2376 
G01 X-59.4336 Y37.2707 
G01 X-59.5905 Y37.3357 
G01 X-59.6337 Y37.3646 
G01 X-63.1595 Y37.3646 
G01 X-63.1849 Y37.3392 
G01 X-63.8151 Y37.3392 
G01 X-64.2608 Y37.7849 
G01 X-64.2608 Y38.4151 
G01 X-63.8151 Y38.8608 
G01 X-63.1849 Y38.8608 
G01 X-63.1595 Y38.8354 
G01 X-59.6337 Y38.8354 
G01 X-59.5905 Y38.8642 
G01 X-59.4336 Y38.9293 
G01 X-59.2669 Y38.9624 
G01 X-57.5731 Y38.9624 
G01 X-57.4064 Y38.9293 
G01 X-57.2495 Y38.8642 
G01 X-57.1082 Y38.7699 
G01 X-56.9881 Y38.6497 
G01 X-56.8937 Y38.5085 
G01 X-56.8287 Y38.3516 
G01 X-56.8078 Y38.2465 
G01 X-56.7825 Y38.3738 
G01 X-56.7118 Y38.5446 
G01 X-56.6091 Y38.6983 
G01 X-56.4783 Y38.8291 
G01 X-56.3246 Y38.9318 
G01 X-56.1538 Y39.0025 
G01 X-55.9724 Y39.0386 
G01 X-55.7876 Y39.0386 
G01 X-55.6062 Y39.0025 
G01 X-55.4354 Y38.9318 
G01 X-55.2817 Y38.8291 
G01 X-55.1509 Y38.6983 
G01 X-55.0482 Y38.5446 
G01 X-54.9775 Y38.3738 
G01 X-54.9414 Y38.1924 
G01 X-54.9414 Y38.0076 
G01 X-54.9775 Y37.8262 
G01 X-55.0482 Y37.6554 
G01 X-55.1509 Y37.5017 
G01 X-55.2817 Y37.3709 
G01 X-55.4354 Y37.2682 
G01 X-55.6062 Y37.1975 
G01 X-55.7876 Y37.1614 
G01 X-55.9724 Y37.1614 
G01 X-56.1538 Y37.1975 
G01 X-56.3246 Y37.2682 
G01 X-56.4783 Y37.3709 
G00 Z3.0000  
G00 X-56.4688 Y39.9046 
G01 Z-0.0800 F254   
G01 X-63.1595 Y39.9046 F508   
G01 X-63.1849 Y39.8792 
G01 X-63.8151 Y39.8792 
G01 X-63.8405 Y39.9046 
G01 X-76.2724 Y39.9046 
G01 X-76.4145 Y39.9329 
G01 X-76.5483 Y39.9883 
G01 X-76.6688 Y40.0688 
G01 X-76.7712 Y40.1712 
G01 X-76.8517 Y40.2917 
G01 X-76.9071 Y40.4255 
G01 X-76.9354 Y40.5676 
G01 X-76.9354 Y42.4446 
G01 X-80.5446 Y42.4446 
G01 X-80.5446 Y41.8537 
G01 X-80.5157 Y41.8105 
G01 X-80.4507 Y41.6536 
G01 X-80.4176 Y41.4869 
G01 X-80.4176 Y39.7931 
G01 X-80.4507 Y39.6264 
G01 X-80.5157 Y39.4695 
G01 X-80.6101 Y39.3282 
G01 X-80.7302 Y39.2081 
G01 X-80.8715 Y39.1138 
G01 X-81.0284 Y39.0487 
G01 X-81.1951 Y39.0156 
G01 X-81.3649 Y39.0156 
G01 X-81.5316 Y39.0487 
G01 X-81.6885 Y39.1138 
G01 X-81.8297 Y39.2081 
G01 X-81.9499 Y39.3282 
G01 X-82.0442 Y39.4695 
G01 X-82.1093 Y39.6264 
G01 X-82.1424 Y39.7931 
G01 X-82.1424 Y41.4869 
G01 X-82.1093 Y41.6536 
G01 X-82.0442 Y41.8105 
G01 X-82.0154 Y41.8537 
G01 X-82.0154 Y43.2524 
G01 X-81.9871 Y43.3945 
G01 X-81.9317 Y43.5283 
G01 X-81.8512 Y43.6488 
G01 X-81.7488 Y43.7512 
G01 X-81.6283 Y43.8317 
G01 X-81.4945 Y43.8871 
G01 X-81.3524 Y43.9154 
G01 X-76.1276 Y43.9154 
G01 X-75.9855 Y43.8871 
G01 X-75.8517 Y43.8317 
G01 X-75.7312 Y43.7512 
G01 X-75.6288 Y43.6488 
G01 X-75.5483 Y43.5283 
G01 X-75.4929 Y43.3945 
G01 X-75.4646 Y43.2524 
G01 X-75.4646 Y41.3754 
G01 X-63.8405 Y41.3754 
G01 X-63.8151 Y41.4008 
G01 X-63.1849 Y41.4008 
G01 X-63.1595 Y41.3754 
G01 X-56.4688 Y41.3754 
G01 X-56.3246 Y41.4718 
G01 X-56.1538 Y41.5425 
G01 X-55.9724 Y41.5786 
G01 X-55.7876 Y41.5786 
G01 X-55.6062 Y41.5425 
G01 X-55.4354 Y41.4718 
G01 X-55.2817 Y41.3691 
G01 X-55.1509 Y41.2383 
G01 X-55.0482 Y41.0846 
G01 X-54.9775 Y40.9138 
G01 X-54.9414 Y40.7324 
G01 X-54.9414 Y40.5476 
G01 X-54.9775 Y40.3662 
G01 X-55.0482 Y40.1954 
G01 X-55.1509 Y40.0417 
G01 X-55.2817 Y39.9109 
G01 X-55.4354 Y39.8082 
G01 X-55.6062 Y39.7375 
G01 X-55.7876 Y39.7014 
G01 X-55.9724 Y39.7014 
G01 X-56.1538 Y39.7375 
G01 X-56.3246 Y39.8082 
G01 X-56.4688 Y39.9046 
G00 Z3.0000  
G00 X-56.4783 Y42.4509 
G01 Z-0.0800 F254   
G01 X-56.6091 Y42.5817 F508   
G01 X-56.7118 Y42.7354 
G01 X-56.7825 Y42.9062 
G01 X-56.8186 Y43.0876 
G01 X-56.8186 Y43.2724 
G01 X-56.7825 Y43.4538 
G01 X-56.7118 Y43.6246 
G01 X-56.6091 Y43.7783 
G01 X-56.4783 Y43.9091 
G01 X-56.3246 Y44.0118 
G01 X-56.1538 Y44.0825 
G01 X-55.9724 Y44.1186 
G01 X-55.7876 Y44.1186 
G01 X-55.6062 Y44.0825 
G01 X-55.4354 Y44.0118 
G01 X-55.2817 Y43.9091 
G01 X-55.1509 Y43.7783 
G01 X-55.0482 Y43.6246 
G01 X-54.9775 Y43.4538 
G01 X-54.9414 Y43.2724 
G01 X-54.9414 Y43.0876 
G01 X-54.9775 Y42.9062 
G01 X-55.0482 Y42.7354 
G01 X-55.1509 Y42.5817 
G01 X-55.2817 Y42.4509 
G01 X-55.4354 Y42.3482 
G01 X-55.6062 Y42.2775 
G01 X-55.7876 Y42.2414 
G01 X-55.9724 Y42.2414 
G01 X-56.1538 Y42.2775 
G01 X-56.3246 Y42.3482 
G01 X-56.4783 Y42.4509 
G00 Z3.0000  
G00 X-56.4783 Y44.9909 
G01 Z-0.0800 F254   
G01 X-56.6091 Y45.1217 F508   
G01 X-56.7118 Y45.2754 
G01 X-56.7825 Y45.4462 
G01 X-56.8186 Y45.6276 
G01 X-56.8186 Y45.8124 
G01 X-56.7825 Y45.9938 
G01 X-56.7118 Y46.1646 
G01 X-56.6091 Y46.3183 
G01 X-56.4783 Y46.4491 
G01 X-56.3246 Y46.5518 
G01 X-56.1538 Y46.6225 
G01 X-55.9724 Y46.6586 
G01 X-55.7876 Y46.6586 
G01 X-55.6062 Y46.6225 
G01 X-55.4354 Y46.5518 
G01 X-55.2817 Y46.4491 
G01 X-55.1509 Y46.3183 
G01 X-55.0482 Y46.1646 
G01 X-54.9775 Y45.9938 
G01 X-54.9414 Y45.8124 
G01 X-54.9414 Y45.6276 
G01 X-54.9775 Y45.4462 
G01 X-55.0482 Y45.2754 
G01 X-55.1509 Y45.1217 
G01 X-55.2817 Y44.9909 
G01 X-55.4354 Y44.8882 
G01 X-55.6062 Y44.8175 
G01 X-55.7876 Y44.7814 
G01 X-55.9724 Y44.7814 
G01 X-56.1538 Y44.8175 
G01 X-56.3246 Y44.8882 
G01 X-56.4783 Y44.9909 
G00 Z3.0000  
G00 X-56.4783 Y47.5309 
G01 Z-0.0800 F254   
G01 X-56.6091 Y47.6617 F508   
G01 X-56.7118 Y47.8154 
G01 X-56.7825 Y47.9862 
G01 X-56.8186 Y48.1676 
G01 X-56.8186 Y48.3524 
G01 X-56.7825 Y48.5338 
G01 X-56.7118 Y48.7046 
G01 X-56.6091 Y48.8583 
G01 X-56.4783 Y48.9891 
G01 X-56.3246 Y49.0918 
G01 X-56.1538 Y49.1625 
G01 X-55.9724 Y49.1986 
G01 X-55.7876 Y49.1986 
G01 X-55.6062 Y49.1625 
G01 X-55.4354 Y49.0918 
G01 X-55.2817 Y48.9891 
G01 X-55.1509 Y48.8583 
G01 X-55.0482 Y48.7046 
G01 X-54.9775 Y48.5338 
G01 X-54.9414 Y48.3524 
G01 X-54.9414 Y48.1676 
G01 X-54.9775 Y47.9862 
G01 X-55.0482 Y47.8154 
G01 X-55.1509 Y47.6617 
G01 X-55.2817 Y47.5309 
G01 X-55.4354 Y47.4282 
G01 X-55.6062 Y47.3575 
G01 X-55.7876 Y47.3214 
G01 X-55.9724 Y47.3214 
G01 X-56.1538 Y47.3575 
G01 X-56.3246 Y47.4282 
G01 X-56.4783 Y47.5309 
G00 Z3.0000  
G00 X-56.4783 Y50.0709 
G01 Z-0.0800 F254   
G01 X-56.6091 Y50.2017 F508   
G01 X-56.7118 Y50.3554 
G01 X-56.7825 Y50.5262 
G01 X-56.8186 Y50.7076 
G01 X-56.8186 Y50.8924 
G01 X-56.7825 Y51.0738 
G01 X-56.7118 Y51.2446 
G01 X-56.6091 Y51.3983 
G01 X-56.4783 Y51.5291 
G01 X-56.3246 Y51.6318 
G01 X-56.1538 Y51.7025 
G01 X-55.9724 Y51.7386 
G01 X-55.7876 Y51.7386 
G01 X-55.6062 Y51.7025 
G01 X-55.4354 Y51.6318 
G01 X-55.2817 Y51.5291 
G01 X-55.1509 Y51.3983 
G01 X-55.0482 Y51.2446 
G01 X-54.9775 Y51.0738 
G01 X-54.9414 Y50.8924 
G01 X-54.9414 Y50.7076 
G01 X-54.9775 Y50.5262 
G01 X-55.0482 Y50.3554 
G01 X-55.1509 Y50.2017 
G01 X-55.2817 Y50.0709 
G01 X-55.4354 Y49.9682 
G01 X-55.6062 Y49.8975 
G01 X-55.7876 Y49.8614 
G01 X-55.9724 Y49.8614 
G01 X-56.1538 Y49.8975 
G01 X-56.3246 Y49.9682 
G01 X-56.4783 Y50.0709 
G00 Z3.0000  
G00 X-56.4688 Y52.6046 
G01 Z-0.0800 F254   
G01 X-59.7463 Y52.6046 F508   
G01 X-59.7895 Y52.5757 
G01 X-59.9464 Y52.5107 
G01 X-60.1131 Y52.4776 
G01 X-61.8069 Y52.4776 
G01 X-61.9736 Y52.5107 
G01 X-62.1305 Y52.5757 
G01 X-62.2717 Y52.6701 
G01 X-62.3919 Y52.7903 
G01 X-62.4862 Y52.9315 
G01 X-62.5513 Y53.0884 
G01 X-62.5844 Y53.2551 
G01 X-62.5844 Y53.4249 
G01 X-62.5513 Y53.5916 
G01 X-62.4862 Y53.7485 
G01 X-62.3919 Y53.8897 
G01 X-62.2717 Y54.0099 
G01 X-62.1305 Y54.1042 
G01 X-61.9736 Y54.1693 
G01 X-61.8069 Y54.2024 
G01 X-60.1131 Y54.2024 
G01 X-59.9464 Y54.1693 
G01 X-59.7895 Y54.1042 
G01 X-59.7463 Y54.0754 
G01 X-56.4688 Y54.0754 
G01 X-56.3246 Y54.1718 
G01 X-56.1538 Y54.2425 
G01 X-55.9724 Y54.2786 
G01 X-55.7876 Y54.2786 
G01 X-55.6062 Y54.2425 
G01 X-55.4354 Y54.1718 
G01 X-55.2817 Y54.0691 
G01 X-55.1509 Y53.9383 
G01 X-55.0482 Y53.7846 
G01 X-54.9775 Y53.6138 
G01 X-54.9414 Y53.4324 
G01 X-54.9414 Y53.2476 
G01 X-54.9775 Y53.0662 
G01 X-55.0482 Y52.8954 
G01 X-55.1509 Y52.7417 
G01 X-55.2817 Y52.6109 
G01 X-55.4354 Y52.5082 
G01 X-55.6062 Y52.4375 
G01 X-55.7876 Y52.4014 
G01 X-55.9724 Y52.4014 
G01 X-56.1538 Y52.4375 
G01 X-56.3246 Y52.5082 
G01 X-56.4688 Y52.6046 
G00 Z3.0000  
G00 X-56.4688 Y55.1446 
G01 Z-0.0800 F254   
G01 X-59.7463 Y55.1446 F508   
G01 X-59.7895 Y55.1157 
G01 X-59.9464 Y55.0507 
G01 X-60.1131 Y55.0176 
G01 X-61.8069 Y55.0176 
G01 X-61.9736 Y55.0507 
G01 X-62.1305 Y55.1157 
G01 X-62.2717 Y55.2101 
G01 X-62.3919 Y55.3302 
G01 X-62.4862 Y55.4715 
G01 X-62.5513 Y55.6284 
G01 X-62.5844 Y55.7951 
G01 X-62.5844 Y55.9649 
G01 X-62.5513 Y56.1316 
G01 X-62.4862 Y56.2885 
G01 X-62.3919 Y56.4297 
G01 X-62.2717 Y56.5499 
G01 X-62.1305 Y56.6442 
G01 X-61.9736 Y56.7093 
G01 X-61.8069 Y56.7424 
G01 X-60.1131 Y56.7424 
G01 X-59.9464 Y56.7093 
G01 X-59.7895 Y56.6442 
G01 X-59.7463 Y56.6154 
G01 X-56.4688 Y56.6154 
G01 X-56.3246 Y56.7118 
G01 X-56.1538 Y56.7825 
G01 X-55.9724 Y56.8186 
G01 X-55.7876 Y56.8186 
G01 X-55.6062 Y56.7825 
G01 X-55.4354 Y56.7118 
G01 X-55.2817 Y56.6091 
G01 X-55.1509 Y56.4783 
G01 X-55.0482 Y56.3246 
G01 X-54.9775 Y56.1538 
G01 X-54.9414 Y55.9724 
G01 X-54.9414 Y55.7876 
G01 X-54.9775 Y55.6062 
G01 X-55.0482 Y55.4354 
G01 X-55.1509 Y55.2817 
G01 X-55.2817 Y55.1509 
G01 X-55.4354 Y55.0482 
G01 X-55.6062 Y54.9775 
G01 X-55.7876 Y54.9414 
G01 X-55.9724 Y54.9414 
G01 X-56.1538 Y54.9775 
G01 X-56.3246 Y55.0482 
G01 X-56.4688 Y55.1446 
G00 Z3.0000  
G00 X-59.5281 Y57.8702 
G01 Z-0.0800 F254   
G01 X-59.6482 Y57.7501 F508   
G01 X-59.7895 Y57.6557 
G01 X-59.9464 Y57.5907 
G01 X-60.1131 Y57.5576 
G01 X-61.8069 Y57.5576 
G01 X-61.9736 Y57.5907 
G01 X-62.1305 Y57.6557 
G01 X-62.2717 Y57.7501 
G01 X-62.3919 Y57.8702 
G01 X-62.4862 Y58.0115 
G01 X-62.5513 Y58.1684 
G01 X-62.5844 Y58.3351 
G01 X-62.5844 Y58.5049 
G01 X-62.5513 Y58.6716 
G01 X-62.4862 Y58.8285 
G01 X-62.3919 Y58.9697 
G01 X-62.2717 Y59.0899 
G01 X-62.1305 Y59.1842 
G01 X-61.9736 Y59.2493 
G01 X-61.8069 Y59.2824 
G01 X-60.1131 Y59.2824 
G01 X-59.9464 Y59.2493 
G01 X-59.7895 Y59.1842 
G01 X-59.6482 Y59.0899 
G01 X-59.5281 Y58.9697 
G01 X-59.4338 Y58.8285 
G01 X-59.3687 Y58.6716 
G01 X-59.3356 Y58.5049 
G01 X-59.3356 Y58.3351 
G01 X-59.3687 Y58.1684 
G01 X-59.4338 Y58.0115 
G01 X-59.5281 Y57.8702 
G00 Z3.0000  
G00 X-59.5281 Y60.4102 
G01 Z-0.0800 F254   
G01 X-59.6482 Y60.2901 F508   
G01 X-59.7895 Y60.1957 
G01 X-59.9464 Y60.1307 
G01 X-60.1131 Y60.0976 
G01 X-61.8069 Y60.0976 
G01 X-61.9736 Y60.1307 
G01 X-62.1305 Y60.1957 
G01 X-62.2717 Y60.2901 
G01 X-62.3919 Y60.4102 
G01 X-62.4862 Y60.5515 
G01 X-62.5513 Y60.7084 
G01 X-62.5844 Y60.8751 
G01 X-62.5844 Y61.0449 
G01 X-62.5513 Y61.2116 
G01 X-62.4862 Y61.3685 
G01 X-62.3919 Y61.5097 
G01 X-62.2717 Y61.6299 
G01 X-62.1305 Y61.7242 
G01 X-61.9736 Y61.7893 
G01 X-61.8069 Y61.8224 
G01 X-60.1131 Y61.8224 
G01 X-59.9464 Y61.7893 
G01 X-59.7895 Y61.7242 
G01 X-59.6482 Y61.6299 
G01 X-59.5281 Y61.5097 
G01 X-59.4338 Y61.3685 
G01 X-59.3687 Y61.2116 
G01 X-59.3356 Y61.0449 
G01 X-59.3356 Y60.8751 
G01 X-59.3687 Y60.7084 
G01 X-59.4338 Y60.5515 
G01 X-59.5281 Y60.4102 
G00 Z3.0000  
G00 X-59.6482 Y51.4699 
G01 Z-0.0800 F254   
G01 X-59.5281 Y51.3497 F508   
G01 X-59.4338 Y51.2085 
G01 X-59.3687 Y51.0516 
G01 X-59.3356 Y50.8849 
G01 X-59.3356 Y50.7151 
G01 X-59.3687 Y50.5484 
G01 X-59.4338 Y50.3915 
G01 X-59.5281 Y50.2503 
G01 X-59.6482 Y50.1301 
G01 X-59.7895 Y50.0358 
G01 X-59.9464 Y49.9707 
G01 X-60.1131 Y49.9376 
G01 X-61.8069 Y49.9376 
G01 X-61.9736 Y49.9707 
G01 X-62.1305 Y50.0358 
G01 X-62.2717 Y50.1301 
G01 X-62.3919 Y50.2503 
G01 X-62.4862 Y50.3915 
G01 X-62.5513 Y50.5484 
G01 X-62.5844 Y50.7151 
G01 X-62.5844 Y50.8849 
G01 X-62.5513 Y51.0516 
G01 X-62.4862 Y51.2085 
G01 X-62.3919 Y51.3497 
G01 X-62.2717 Y51.4699 
G01 X-62.1305 Y51.5642 
G01 X-61.9736 Y51.6293 
G01 X-61.8069 Y51.6624 
G01 X-60.1131 Y51.6624 
G01 X-59.9464 Y51.6293 
G01 X-59.7895 Y51.5642 
G01 X-59.6482 Y51.4699 
G00 Z3.0000  
G00 X-59.6482 Y48.9299 
G01 Z-0.0800 F254   
G01 X-59.5281 Y48.8097 F508   
G01 X-59.4338 Y48.6685 
G01 X-59.3687 Y48.5116 
G01 X-59.3356 Y48.3449 
G01 X-59.3356 Y48.1751 
G01 X-59.3687 Y48.0084 
G01 X-59.4338 Y47.8515 
G01 X-59.5281 Y47.7103 
G01 X-59.6482 Y47.5901 
G01 X-59.7895 Y47.4958 
G01 X-59.9464 Y47.4307 
G01 X-60.1131 Y47.3976 
G01 X-61.8069 Y47.3976 
G01 X-61.9736 Y47.4307 
G01 X-62.1305 Y47.4958 
G01 X-62.2717 Y47.5901 
G01 X-62.3919 Y47.7103 
G01 X-62.4862 Y47.8515 
G01 X-62.5513 Y48.0084 
G01 X-62.5844 Y48.1751 
G01 X-62.5844 Y48.3449 
G01 X-62.5513 Y48.5116 
G01 X-62.4862 Y48.6685 
G01 X-62.3919 Y48.8097 
G01 X-62.2717 Y48.9299 
G01 X-62.1305 Y49.0242 
G01 X-61.9736 Y49.0893 
G01 X-61.8069 Y49.1224 
G01 X-60.1131 Y49.1224 
G01 X-59.9464 Y49.0893 
G01 X-59.7895 Y49.0242 
G01 X-59.6482 Y48.9299 
G00 Z3.0000  
G00 X-59.6482 Y46.3899 
G01 Z-0.0800 F254   
G01 X-59.5281 Y46.2697 F508   
G01 X-59.4338 Y46.1285 
G01 X-59.3687 Y45.9716 
G01 X-59.3356 Y45.8049 
G01 X-59.3356 Y45.6351 
G01 X-59.3687 Y45.4684 
G01 X-59.4338 Y45.3115 
G01 X-59.5281 Y45.1703 
G01 X-59.6482 Y45.0501 
G01 X-59.7895 Y44.9558 
G01 X-59.9464 Y44.8907 
G01 X-60.1131 Y44.8576 
G01 X-61.8069 Y44.8576 
G01 X-61.9736 Y44.8907 
G01 X-62.1305 Y44.9558 
G01 X-62.2717 Y45.0501 
G01 X-62.3919 Y45.1703 
G01 X-62.4862 Y45.3115 
G01 X-62.5513 Y45.4684 
G01 X-62.5844 Y45.6351 
G01 X-62.5844 Y45.8049 
G01 X-62.5513 Y45.9716 
G01 X-62.4862 Y46.1285 
G01 X-62.3919 Y46.2697 
G01 X-62.2717 Y46.3899 
G01 X-62.1305 Y46.4842 
G01 X-61.9736 Y46.5493 
G01 X-61.8069 Y46.5824 
G01 X-60.1131 Y46.5824 
G01 X-59.9464 Y46.5493 
G01 X-59.7895 Y46.4842 
G01 X-59.6482 Y46.3899 
G00 Z3.0000  
G00 X-59.6482 Y43.8499 
G01 Z-0.0800 F254   
G01 X-59.5281 Y43.7297 F508   
G01 X-59.4338 Y43.5885 
G01 X-59.3687 Y43.4316 
G01 X-59.3356 Y43.2649 
G01 X-59.3356 Y43.0951 
G01 X-59.3687 Y42.9284 
G01 X-59.4338 Y42.7715 
G01 X-59.5281 Y42.6302 
G01 X-59.6482 Y42.5101 
G01 X-59.7895 Y42.4158 
G01 X-59.9464 Y42.3507 
G01 X-60.1131 Y42.3176 
G01 X-61.8069 Y42.3176 
G01 X-61.9736 Y42.3507 
G01 X-62.1305 Y42.4158 
G01 X-62.2717 Y42.5101 
G01 X-62.3919 Y42.6302 
G01 X-62.4862 Y42.7715 
G01 X-62.5513 Y42.9284 
G01 X-62.5844 Y43.0951 
G01 X-62.5844 Y43.2649 
G01 X-62.5513 Y43.4316 
G01 X-62.4862 Y43.5885 
G01 X-62.3919 Y43.7297 
G01 X-62.2717 Y43.8499 
G01 X-62.1305 Y43.9442 
G01 X-61.9736 Y44.0093 
G01 X-61.8069 Y44.0424 
G01 X-60.1131 Y44.0424 
G01 X-59.9464 Y44.0093 
G01 X-59.7895 Y43.9442 
G01 X-59.6482 Y43.8499 
G00 Z3.0000  
G00 X-48.9891 Y43.7783 
G01 Z-0.0800 F254   
G01 X-48.8583 Y43.9091 F508   
G01 X-48.7046 Y44.0118 
G01 X-48.5338 Y44.0825 
G01 X-48.3524 Y44.1186 
G01 X-48.1676 Y44.1186 
G01 X-47.9862 Y44.0825 
G01 X-47.8154 Y44.0118 
G01 X-47.6712 Y43.9154 
G01 X-41.3754 Y43.9154 
G01 X-41.3754 Y57.2063 
G01 X-41.4042 Y57.2495 
G01 X-41.4693 Y57.4064 
G01 X-41.5024 Y57.5731 
G01 X-41.5024 Y59.2669 
G01 X-41.4693 Y59.4336 
G01 X-41.4042 Y59.5905 
G01 X-41.3099 Y59.7317 
G01 X-41.1897 Y59.8519 
G01 X-41.0485 Y59.9462 
G01 X-40.8916 Y60.0113 
G01 X-40.7249 Y60.0444 
G01 X-40.5551 Y60.0444 
G01 X-40.3884 Y60.0113 
G01 X-40.2315 Y59.9462 
G01 X-40.0902 Y59.8519 
G01 X-39.9701 Y59.7317 
G01 X-39.8757 Y59.5905 
G01 X-39.8107 Y59.4336 
G01 X-39.7776 Y59.2669 
G01 X-39.7776 Y57.5731 
G01 X-39.8107 Y57.4064 
G01 X-39.8757 Y57.2495 
G01 X-39.9046 Y57.2063 
G01 X-39.9046 Y43.1076 
G01 X-39.9329 Y42.9655 
G01 X-39.9883 Y42.8317 
G01 X-40.0688 Y42.7112 
G01 X-40.1712 Y42.6088 
G01 X-40.2917 Y42.5283 
G01 X-40.4255 Y42.4729 
G01 X-40.5676 Y42.4446 
G01 X-47.6712 Y42.4446 
G01 X-47.8154 Y42.3482 
G01 X-47.9862 Y42.2775 
G01 X-48.1676 Y42.2414 
G01 X-48.3524 Y42.2414 
G01 X-48.5338 Y42.2775 
G01 X-48.7046 Y42.3482 
G01 X-48.8583 Y42.4509 
G01 X-48.9891 Y42.5817 
G01 X-49.0918 Y42.7354 
G01 X-49.1625 Y42.9062 
G01 X-49.1986 Y43.0876 
G01 X-49.1986 Y43.2724 
G01 X-49.1625 Y43.4538 
G01 X-49.0918 Y43.6246 
G01 X-48.9891 Y43.7783 
G00 Z3.0000  
G00 X-48.8583 Y44.9909 
G01 Z-0.0800 F254   
G01 X-48.9891 Y45.1217 F508   
G01 X-49.0918 Y45.2754 
G01 X-49.1625 Y45.4462 
G01 X-49.1986 Y45.6276 
G01 X-49.1986 Y45.8124 
G01 X-49.1625 Y45.9938 
G01 X-49.0918 Y46.1646 
G01 X-48.9891 Y46.3183 
G01 X-48.8583 Y46.4491 
G01 X-48.7046 Y46.5518 
G01 X-48.5338 Y46.6225 
G01 X-48.3524 Y46.6586 
G01 X-48.1676 Y46.6586 
G01 X-47.9862 Y46.6225 
G01 X-47.8154 Y46.5518 
G01 X-47.6617 Y46.4491 
G01 X-47.5309 Y46.3183 
G01 X-47.4282 Y46.1646 
G01 X-47.3575 Y45.9938 
G01 X-47.3214 Y45.8124 
G01 X-47.3214 Y45.6276 
G01 X-47.3575 Y45.4462 
G01 X-47.4282 Y45.2754 
G01 X-47.5309 Y45.1217 
G01 X-47.6617 Y44.9909 
G01 X-47.8154 Y44.8882 
G01 X-47.9862 Y44.8175 
G01 X-48.1676 Y44.7814 
G01 X-48.3524 Y44.7814 
G01 X-48.5338 Y44.8175 
G01 X-48.7046 Y44.8882 
G01 X-48.8583 Y44.9909 
G00 Z3.0000  
G00 X-48.8583 Y47.5309 
G01 Z-0.0800 F254   
G01 X-48.9891 Y47.6617 F508   
G01 X-49.0918 Y47.8154 
G01 X-49.1625 Y47.9862 
G01 X-49.1986 Y48.1676 
G01 X-49.1986 Y48.3524 
G01 X-49.1625 Y48.5338 
G01 X-49.0918 Y48.7046 
G01 X-48.9891 Y48.8583 
G01 X-48.8583 Y48.9891 
G01 X-48.7046 Y49.0918 
G01 X-48.5338 Y49.1625 
G01 X-48.3524 Y49.1986 
G01 X-48.1676 Y49.1986 
G01 X-47.9862 Y49.1625 
G01 X-47.8154 Y49.0918 
G01 X-47.6617 Y48.9891 
G01 X-47.5309 Y48.8583 
G01 X-47.4282 Y48.7046 
G01 X-47.3575 Y48.5338 
G01 X-47.3214 Y48.3524 
G01 X-47.3214 Y48.1676 
G01 X-47.3575 Y47.9862 
G01 X-47.4282 Y47.8154 
G01 X-47.5309 Y47.6617 
G01 X-47.6617 Y47.5309 
G01 X-47.8154 Y47.4282 
G01 X-47.9862 Y47.3575 
G01 X-48.1676 Y47.3214 
G01 X-48.3524 Y47.3214 
G01 X-48.5338 Y47.3575 
G01 X-48.7046 Y47.4282 
G01 X-48.8583 Y47.5309 
G00 Z3.0000  
G00 X-48.8583 Y50.0709 
G01 Z-0.0800 F254   
G01 X-48.9891 Y50.2017 F508   
G01 X-49.0918 Y50.3554 
G01 X-49.1625 Y50.5262 
G01 X-49.1986 Y50.7076 
G01 X-49.1986 Y50.8924 
G01 X-49.1625 Y51.0738 
G01 X-49.0918 Y51.2446 
G01 X-48.9891 Y51.3983 
G01 X-48.8583 Y51.5291 
G01 X-48.7046 Y51.6318 
G01 X-48.5338 Y51.7025 
G01 X-48.3524 Y51.7386 
G01 X-48.1676 Y51.7386 
G01 X-47.9862 Y51.7025 
G01 X-47.8154 Y51.6318 
G01 X-47.6712 Y51.5354 
G01 X-43.9154 Y51.5354 
G01 X-43.9154 Y63.5724 
G01 X-43.8871 Y63.7145 
G01 X-43.8317 Y63.8483 
G01 X-43.7512 Y63.9688 
G01 X-43.6488 Y64.0712 
G01 X-43.5283 Y64.1517 
G01 X-43.3945 Y64.2071 
G01 X-43.2524 Y64.2354 
G01 X-33.8824 Y64.2354 
G01 X-33.8824 Y64.3469 
G01 X-33.8493 Y64.5136 
G01 X-33.7842 Y64.6705 
G01 X-33.7178 Y64.7700 
G01 X-33.7842 Y64.8695 
G01 X-33.8493 Y65.0264 
G01 X-33.8824 Y65.1931 
G01 X-33.8824 Y65.3046 
G01 X-44.9846 Y65.3046 
G01 X-44.9846 Y53.2676 
G01 X-45.0129 Y53.1255 
G01 X-45.0683 Y52.9917 
G01 X-45.1488 Y52.8712 
G01 X-45.2512 Y52.7688 
G01 X-45.3717 Y52.6883 
G01 X-45.5055 Y52.6329 
G01 X-45.6476 Y52.6046 
G01 X-47.6712 Y52.6046 
G01 X-47.8154 Y52.5082 
G01 X-47.9862 Y52.4375 
G01 X-48.1676 Y52.4014 
G01 X-48.3524 Y52.4014 
G01 X-48.5338 Y52.4375 
G01 X-48.7046 Y52.5082 
G01 X-48.8583 Y52.6109 
G01 X-48.9891 Y52.7417 
G01 X-49.0918 Y52.8954 
G01 X-49.1625 Y53.0662 
G01 X-49.1986 Y53.2476 
G01 X-49.1986 Y53.4324 
G01 X-49.1625 Y53.6138 
G01 X-49.0918 Y53.7846 
G01 X-48.9891 Y53.9383 
G01 X-48.8583 Y54.0691 
G01 X-48.7046 Y54.1718 
G01 X-48.5338 Y54.2425 
G01 X-48.3524 Y54.2786 
G01 X-48.1676 Y54.2786 
G01 X-47.9862 Y54.2425 
G01 X-47.8154 Y54.1718 
G01 X-47.6712 Y54.0754 
G01 X-46.4554 Y54.0754 
G01 X-46.4554 Y66.1124 
G01 X-46.4271 Y66.2545 
G01 X-46.3717 Y66.3883 
G01 X-46.2912 Y66.5088 
G01 X-46.1888 Y66.6112 
G01 X-46.0683 Y66.6917 
G01 X-45.9345 Y66.7471 
G01 X-45.7924 Y66.7754 
G01 X-33.8824 Y66.7754 
G01 X-33.8824 Y66.8869 
G01 X-33.8493 Y67.0536 
G01 X-33.7842 Y67.2105 
G01 X-33.6899 Y67.3517 
G01 X-33.5697 Y67.4719 
G01 X-33.4285 Y67.5662 
G01 X-33.2716 Y67.6313 
G01 X-33.1049 Y67.6644 
G01 X-32.9351 Y67.6644 
G01 X-32.7684 Y67.6313 
G01 X-32.6115 Y67.5662 
G01 X-32.4703 Y67.4719 
G01 X-32.3501 Y67.3517 
G01 X-32.2557 Y67.2105 
G01 X-32.1907 Y67.0536 
G01 X-32.1576 Y66.8869 
G01 X-32.1576 Y65.1931 
G01 X-32.1907 Y65.0264 
G01 X-32.2557 Y64.8695 
G01 X-32.3222 Y64.7700 
G01 X-32.2557 Y64.6705 
G01 X-32.1907 Y64.5136 
G01 X-32.1576 Y64.3469 
G01 X-32.1576 Y62.6531 
G01 X-32.1907 Y62.4864 
G01 X-32.2557 Y62.3295 
G01 X-32.3501 Y62.1882 
G01 X-32.4703 Y62.0681 
G01 X-32.6115 Y61.9738 
G01 X-32.7684 Y61.9087 
G01 X-32.9351 Y61.8756 
G01 X-33.1049 Y61.8756 
G01 X-33.2716 Y61.9087 
G01 X-33.4285 Y61.9738 
G01 X-33.5697 Y62.0681 
G01 X-33.6899 Y62.1882 
G01 X-33.7842 Y62.3295 
G01 X-33.8493 Y62.4864 
G01 X-33.8824 Y62.6531 
G01 X-33.8824 Y62.7646 
G01 X-42.4446 Y62.7646 
G01 X-42.4446 Y50.7276 
G01 X-42.4729 Y50.5855 
G01 X-42.5283 Y50.4517 
G01 X-42.6088 Y50.3312 
G01 X-42.7112 Y50.2288 
G01 X-42.8317 Y50.1483 
G01 X-42.9655 Y50.0929 
G01 X-43.1076 Y50.0646 
G01 X-47.6712 Y50.0646 
G01 X-47.8154 Y49.9682 
G01 X-47.9862 Y49.8975 
G01 X-48.1676 Y49.8614 
G01 X-48.3524 Y49.8614 
G01 X-48.5338 Y49.8975 
G01 X-48.7046 Y49.9682 
G01 X-48.8583 Y50.0709 
G00 Z3.0000  
G00 X-49.1182 Y54.9414 
G01 Z-0.0800 F254   
G01 X-49.1551 Y54.9567 F508   
G01 X-49.1833 Y54.9849 
G01 X-49.1986 Y55.0218 
G01 X-49.1986 Y56.7382 
G01 X-49.1833 Y56.7751 
G01 X-49.1551 Y56.8033 
G01 X-49.1182 Y56.8186 
G01 X-47.4018 Y56.8186 
G01 X-47.3649 Y56.8033 
G01 X-47.3367 Y56.7751 
G01 X-47.3214 Y56.7382 
G01 X-47.3214 Y55.0218 
G01 X-47.3367 Y54.9849 
G01 X-47.3649 Y54.9567 
G01 X-47.4018 Y54.9414 
G01 X-49.1182 Y54.9414 
G00 Z3.0000  
G00 X-36.8717 Y55.2101 
G01 Z-0.0800 F254   
G01 X-36.9919 Y55.3302 F508   
G01 X-37.0862 Y55.4715 
G01 X-37.1513 Y55.6284 
G01 X-37.1844 Y55.7951 
G01 X-37.1844 Y55.9649 
G01 X-37.1513 Y56.1316 
G01 X-37.0862 Y56.2885 
G01 X-36.9919 Y56.4297 
G01 X-36.8717 Y56.5499 
G01 X-36.7305 Y56.6442 
G01 X-36.5736 Y56.7093 
G01 X-36.4069 Y56.7424 
G01 X-34.7131 Y56.7424 
G01 X-34.5464 Y56.7093 
G01 X-34.3895 Y56.6442 
G01 X-34.3463 Y56.6154 
G01 X-34.2337 Y56.6154 
G01 X-34.1905 Y56.6442 
G01 X-34.0336 Y56.7093 
G01 X-33.8669 Y56.7424 
G01 X-32.1731 Y56.7424 
G01 X-32.0064 Y56.7093 
G01 X-31.8495 Y56.6442 
G01 X-31.8063 Y56.6154 
G01 X-31.6937 Y56.6154 
G01 X-31.6505 Y56.6442 
G01 X-31.4936 Y56.7093 
G01 X-31.3269 Y56.7424 
G01 X-29.6331 Y56.7424 
G01 X-29.4664 Y56.7093 
G01 X-29.3095 Y56.6442 
G01 X-29.2663 Y56.6154 
G01 X-29.1537 Y56.6154 
G01 X-29.1105 Y56.6442 
G01 X-28.9536 Y56.7093 
G01 X-28.7869 Y56.7424 
G01 X-28.6754 Y56.7424 
G01 X-28.6754 Y58.4924 
G01 X-28.6471 Y58.6345 
G01 X-28.5917 Y58.7683 
G01 X-28.5112 Y58.8888 
G01 X-28.4088 Y58.9912 
G01 X-28.2883 Y59.0717 
G01 X-28.1545 Y59.1271 
G01 X-28.0124 Y59.1554 
G01 X-24.4705 Y59.1554 
G01 X-24.4451 Y59.1808 
G01 X-23.8149 Y59.1808 
G01 X-23.3692 Y58.7351 
G01 X-23.3692 Y58.1049 
G01 X-23.8149 Y57.6592 
G01 X-24.4451 Y57.6592 
G01 X-24.4705 Y57.6846 
G01 X-27.2046 Y57.6846 
G01 X-27.2046 Y56.7424 
G01 X-27.0931 Y56.7424 
G01 X-26.9264 Y56.7093 
G01 X-26.7695 Y56.6442 
G01 X-26.6283 Y56.5499 
G01 X-26.5081 Y56.4297 
G01 X-26.4138 Y56.2885 
G01 X-26.3487 Y56.1316 
G01 X-26.3156 Y55.9649 
G01 X-26.3156 Y55.7951 
G01 X-26.3487 Y55.6284 
G01 X-26.4138 Y55.4715 
G01 X-26.5081 Y55.3302 
G01 X-26.6283 Y55.2101 
G01 X-26.7695 Y55.1157 
G01 X-26.9264 Y55.0507 
G01 X-27.0931 Y55.0176 
G01 X-28.7869 Y55.0176 
G01 X-28.9536 Y55.0507 
G01 X-29.1105 Y55.1157 
G01 X-29.1537 Y55.1446 
G01 X-29.2663 Y55.1446 
G01 X-29.3095 Y55.1157 
G01 X-29.4664 Y55.0507 
G01 X-29.6331 Y55.0176 
G01 X-31.3269 Y55.0176 
G01 X-31.4936 Y55.0507 
G01 X-31.6505 Y55.1157 
G01 X-31.6937 Y55.1446 
G01 X-31.8063 Y55.1446 
G01 X-31.8495 Y55.1157 
G01 X-32.0064 Y55.0507 
G01 X-32.1731 Y55.0176 
G01 X-33.8669 Y55.0176 
G01 X-34.0336 Y55.0507 
G01 X-34.1905 Y55.1157 
G01 X-34.2337 Y55.1446 
G01 X-34.3463 Y55.1446 
G01 X-34.3895 Y55.1157 
G01 X-34.5464 Y55.0507 
G01 X-34.7131 Y55.0176 
G01 X-36.4069 Y55.0176 
G01 X-36.5736 Y55.0507 
G01 X-36.7305 Y55.1157 
G01 X-36.8717 Y55.2101 
G00 Z3.0000  
G00 X-23.6208 Y56.1999 
G01 Z-0.0800 F254   
G01 X-23.6208 Y56.8301 F508   
G01 X-23.1751 Y57.2758 
G01 X-22.5449 Y57.2758 
G01 X-22.0992 Y56.8301 
G01 X-22.0992 Y56.1999 
G01 X-22.5449 Y55.7542 
G01 X-23.1751 Y55.7542 
G01 X-23.6208 Y56.1999 
G00 Z3.0000  
G00 X-20.9717 Y56.2283 
G01 Z-0.0800 F254   
G01 X-20.8912 Y56.3488 F508   
G01 X-20.7888 Y56.4512 
G01 X-20.6683 Y56.5317 
G01 X-20.5345 Y56.5871 
G01 X-20.3924 Y56.6154 
G01 X-18.1205 Y56.6154 
G01 X-18.0951 Y56.6408 
G01 X-17.4649 Y56.6408 
G01 X-17.0192 Y56.1951 
G01 X-17.0192 Y55.5649 
G01 X-17.4649 Y55.1192 
G01 X-18.0951 Y55.1192 
G01 X-18.1205 Y55.1446 
G01 X-19.5846 Y55.1446 
G01 X-19.5846 Y53.6805 
G01 X-19.5592 Y53.6551 
G01 X-19.5592 Y53.0249 
G01 X-20.0049 Y52.5792 
G01 X-20.6351 Y52.5792 
G01 X-21.0808 Y53.0249 
G01 X-21.0808 Y53.6551 
G01 X-21.0554 Y53.6805 
G01 X-21.0554 Y55.9524 
G01 X-21.0271 Y56.0945 
G01 X-20.9717 Y56.2283 
G00 Z3.0000  
G00 X-21.2749 Y57.6592 
G01 Z-0.0800 F254   
G01 X-21.9051 Y57.6592 F508   
G01 X-22.3508 Y58.1049 
G01 X-22.3508 Y58.7351 
G01 X-21.9051 Y59.1808 
G01 X-21.2749 Y59.1808 
G01 X-21.2495 Y59.1554 
G01 X-15.1676 Y59.1554 
G01 X-15.0255 Y59.1271 
G01 X-14.8917 Y59.0717 
G01 X-14.7712 Y58.9912 
G01 X-14.6688 Y58.8888 
G01 X-14.5883 Y58.7683 
G01 X-14.5329 Y58.6345 
G01 X-14.5046 Y58.4924 
G01 X-14.5046 Y56.6154 
G01 X-13.2203 Y56.6154 
G01 X-13.1265 Y56.6780 
G01 X-12.9627 Y56.7459 
G01 X-12.7887 Y56.7805 
G01 X-12.6113 Y56.7805 
G01 X-12.4373 Y56.7459 
G01 X-12.2735 Y56.6780 
G01 X-12.1797 Y56.6154 
G01 X-10.8954 Y56.6154 
G01 X-10.8954 Y72.9246 
G01 X-13.8499 Y72.9246 
G01 X-13.9767 Y72.8399 
G01 X-14.1451 Y72.7702 
G01 X-14.3239 Y72.7346 
G01 X-16.1561 Y72.7346 
G01 X-16.3349 Y72.7702 
G01 X-16.5033 Y72.8399 
G01 X-16.6301 Y72.9246 
G01 X-24.5376 Y72.9246 
G01 X-24.5376 Y72.8131 
G01 X-24.5707 Y72.6464 
G01 X-24.6358 Y72.4895 
G01 X-24.7301 Y72.3482 
G01 X-24.8502 Y72.2281 
G01 X-24.9915 Y72.1338 
G01 X-25.1484 Y72.0687 
G01 X-25.3151 Y72.0356 
G01 X-25.4849 Y72.0356 
G01 X-25.6516 Y72.0687 
G01 X-25.8085 Y72.1338 
G01 X-25.9497 Y72.2281 
G01 X-26.0699 Y72.3482 
G01 X-26.1642 Y72.4895 
G01 X-26.2293 Y72.6464 
G01 X-26.2624 Y72.8131 
G01 X-26.2624 Y74.5069 
G01 X-26.2293 Y74.6736 
G01 X-26.1642 Y74.8305 
G01 X-26.0699 Y74.9717 
G01 X-25.9497 Y75.0919 
G01 X-25.8085 Y75.1862 
G01 X-25.6516 Y75.2513 
G01 X-25.4849 Y75.2844 
G01 X-25.3151 Y75.2844 
G01 X-25.1484 Y75.2513 
G01 X-24.9915 Y75.1862 
G01 X-24.8502 Y75.0919 
G01 X-24.7301 Y74.9717 
G01 X-24.6358 Y74.8305 
G01 X-24.5707 Y74.6736 
G01 X-24.5376 Y74.5069 
G01 X-24.5376 Y74.3954 
G01 X-16.6301 Y74.3954 
G01 X-16.5033 Y74.4801 
G01 X-16.3349 Y74.5498 
G01 X-16.1561 Y74.5854 
G01 X-14.3239 Y74.5854 
G01 X-14.1451 Y74.5498 
G01 X-13.9767 Y74.4801 
G01 X-13.8499 Y74.3954 
G01 X-10.0876 Y74.3954 
G01 X-9.9455 Y74.3671 
G01 X-9.8117 Y74.3117 
G01 X-9.6912 Y74.2312 
G01 X-9.5888 Y74.1288 
G01 X-9.5083 Y74.0083 
G01 X-9.4529 Y73.8745 
G01 X-9.4246 Y73.7324 
G01 X-9.4246 Y55.8076 
G01 X-9.4529 Y55.6655 
G01 X-9.5083 Y55.5317 
G01 X-9.5888 Y55.4112 
G01 X-9.6912 Y55.3088 
G01 X-9.8117 Y55.2283 
G01 X-9.9455 Y55.1729 
G01 X-10.0876 Y55.1446 
G01 X-12.1797 Y55.1446 
G01 X-12.2735 Y55.0820 
G01 X-12.4373 Y55.0141 
G01 X-12.6113 Y54.9795 
G01 X-12.7887 Y54.9795 
G01 X-12.9627 Y55.0141 
G01 X-13.1265 Y55.0820 
G01 X-13.2203 Y55.1446 
G01 X-14.5046 Y55.1446 
G01 X-14.5046 Y52.5003 
G01 X-14.4865 Y52.5439 
G01 X-14.3771 Y52.7077 
G01 X-14.2377 Y52.8471 
G01 X-14.0739 Y52.9565 
G01 X-13.8918 Y53.0320 
G01 X-13.6985 Y53.0704 
G01 X-11.7015 Y53.0704 
G01 X-11.5082 Y53.0320 
G01 X-11.3261 Y52.9565 
G01 X-11.1623 Y52.8471 
G01 X-11.0229 Y52.7077 
G01 X-10.9135 Y52.5439 
G01 X-10.8380 Y52.3618 
G01 X-10.7996 Y52.1685 
G01 X-10.7996 Y51.9715 
G01 X-10.8380 Y51.7782 
G01 X-10.9135 Y51.5961 
G01 X-11.0229 Y51.4323 
G01 X-11.1623 Y51.2929 
G01 X-11.3261 Y51.1835 
G01 X-11.5082 Y51.1080 
G01 X-11.7015 Y51.0696 
G01 X-13.6985 Y51.0696 
G01 X-13.8918 Y51.1080 
G01 X-14.0739 Y51.1835 
G01 X-14.2377 Y51.2929 
G01 X-14.3771 Y51.4323 
G01 X-14.4865 Y51.5961 
G01 X-14.5046 Y51.6397 
G01 X-14.5046 Y49.9603 
G01 X-14.4865 Y50.0039 
G01 X-14.3771 Y50.1677 
G01 X-14.2377 Y50.3071 
G01 X-14.0739 Y50.4165 
G01 X-13.8918 Y50.4920 
G01 X-13.6985 Y50.5304 
G01 X-11.7015 Y50.5304 
G01 X-11.5082 Y50.4920 
G01 X-11.3261 Y50.4165 
G01 X-11.1623 Y50.3071 
G01 X-11.0229 Y50.1677 
G01 X-10.9135 Y50.0039 
G01 X-10.8380 Y49.8218 
G01 X-10.7996 Y49.6285 
G01 X-10.7996 Y49.4315 
G01 X-10.8380 Y49.2382 
G01 X-10.9135 Y49.0561 
G01 X-11.0229 Y48.8923 
G01 X-11.1623 Y48.7529 
G01 X-11.3261 Y48.6435 
G01 X-11.5082 Y48.5680 
G01 X-11.7015 Y48.5296 
G01 X-13.6985 Y48.5296 
G01 X-13.8918 Y48.5680 
G01 X-14.0739 Y48.6435 
G01 X-14.2377 Y48.7529 
G01 X-14.3771 Y48.8923 
G01 X-14.4865 Y49.0561 
G01 X-14.5046 Y49.0997 
G01 X-14.5046 Y48.1876 
G01 X-14.5329 Y48.0455 
G01 X-14.5883 Y47.9117 
G01 X-14.6688 Y47.7912 
G01 X-14.7712 Y47.6888 
G01 X-14.8917 Y47.6083 
G01 X-15.0255 Y47.5529 
G01 X-15.1676 Y47.5246 
G01 X-16.2006 Y47.5246 
G01 X-16.2423 Y47.4829 
G01 X-16.4061 Y47.3735 
G01 X-16.5882 Y47.2980 
G01 X-16.7815 Y47.2596 
G01 X-18.7785 Y47.2596 
G01 X-18.9718 Y47.2980 
G01 X-19.1539 Y47.3735 
G01 X-19.3177 Y47.4829 
G01 X-19.4571 Y47.6223 
G01 X-19.5665 Y47.7861 
G01 X-19.6420 Y47.9682 
G01 X-19.6804 Y48.1615 
G01 X-19.6804 Y48.3585 
G01 X-19.6420 Y48.5518 
G01 X-19.5665 Y48.7339 
G01 X-19.4571 Y48.8977 
G01 X-19.3177 Y49.0371 
G01 X-19.1539 Y49.1465 
G01 X-18.9718 Y49.2220 
G01 X-18.7785 Y49.2604 
G01 X-16.7815 Y49.2604 
G01 X-16.5882 Y49.2220 
G01 X-16.4061 Y49.1465 
G01 X-16.2423 Y49.0371 
G01 X-16.2006 Y48.9954 
G01 X-15.9754 Y48.9954 
G01 X-15.9754 Y50.3697 
G01 X-15.9935 Y50.3261 
G01 X-16.1029 Y50.1623 
G01 X-16.2423 Y50.0229 
G01 X-16.4061 Y49.9135 
G01 X-16.5882 Y49.8380 
G01 X-16.7815 Y49.7996 
G01 X-18.7785 Y49.7996 
G01 X-18.9718 Y49.8380 
G01 X-19.1539 Y49.9135 
G01 X-19.3177 Y50.0229 
G01 X-19.4571 Y50.1623 
G01 X-19.5665 Y50.3261 
G01 X-19.6420 Y50.5082 
G01 X-19.6804 Y50.7015 
G01 X-19.6804 Y50.8985 
G01 X-19.6420 Y51.0918 
G01 X-19.5665 Y51.2739 
G01 X-19.4571 Y51.4377 
G01 X-19.3177 Y51.5771 
G01 X-19.1539 Y51.6865 
G01 X-18.9718 Y51.7620 
G01 X-18.7785 Y51.8004 
G01 X-16.7815 Y51.8004 
G01 X-16.5882 Y51.7620 
G01 X-16.4061 Y51.6865 
G01 X-16.2423 Y51.5771 
G01 X-16.1029 Y51.4377 
G01 X-15.9935 Y51.2739 
G01 X-15.9754 Y51.2303 
G01 X-15.9754 Y55.5395 
G01 X-16.0008 Y55.5649 
G01 X-16.0008 Y56.1951 
G01 X-15.9754 Y56.2205 
G01 X-15.9754 Y57.6846 
G01 X-21.2495 Y57.6846 
G01 X-21.2749 Y57.6592 
G00 Z3.0000  
G00 X-18.5154 Y61.6954 
G01 Z-0.0800 F254   
G01 X-18.5154 Y70.3846 F508   
G01 X-27.2046 Y70.3846 
G01 X-27.2046 Y67.2537 
G01 X-27.1758 Y67.2105 
G01 X-27.1107 Y67.0536 
G01 X-27.0776 Y66.8869 
G01 X-27.0776 Y65.1931 
G01 X-27.1107 Y65.0264 
G01 X-27.1758 Y64.8695 
G01 X-27.2046 Y64.8263 
G01 X-27.2046 Y64.7137 
G01 X-27.1758 Y64.6705 
G01 X-27.1107 Y64.5136 
G01 X-27.0776 Y64.3469 
G01 X-27.0776 Y62.6531 
G01 X-27.1107 Y62.4864 
G01 X-27.1758 Y62.3295 
G01 X-27.2046 Y62.2863 
G01 X-27.2046 Y61.6954 
G01 X-18.5154 Y61.6954 
G00 Z3.0000  
G00 X-15.7897 Y62.0681 
G01 Z-0.0800 F254   
G01 X-15.9099 Y62.1882 F508   
G01 X-16.0042 Y62.3295 
G01 X-16.0693 Y62.4864 
G01 X-16.1024 Y62.6531 
G01 X-16.1024 Y64.3469 
G01 X-16.0693 Y64.5136 
G01 X-16.0042 Y64.6705 
G01 X-15.9754 Y64.7137 
G01 X-15.9754 Y67.6546 
G01 X-16.1561 Y67.6546 
G01 X-16.3349 Y67.6902 
G01 X-16.5033 Y67.7599 
G01 X-16.6549 Y67.8612 
G01 X-16.7838 Y67.9901 
G01 X-16.8851 Y68.1417 
G01 X-16.9548 Y68.3101 
G01 X-16.9904 Y68.4889 
G01 X-16.9904 Y68.6711 
G01 X-16.9548 Y68.8499 
G01 X-16.8851 Y69.0183 
G01 X-16.7838 Y69.1699 
G01 X-16.6549 Y69.2988 
G01 X-16.5033 Y69.4001 
G01 X-16.3349 Y69.4698 
G01 X-16.1561 Y69.5054 
G01 X-15.9754 Y69.5054 
G01 X-15.9754 Y70.1946 
G01 X-16.1561 Y70.1946 
G01 X-16.3349 Y70.2302 
G01 X-16.5033 Y70.2999 
G01 X-16.6549 Y70.4012 
G01 X-16.7838 Y70.5301 
G01 X-16.8851 Y70.6817 
G01 X-16.9548 Y70.8501 
G01 X-16.9904 Y71.0289 
G01 X-16.9904 Y71.2111 
G01 X-16.9548 Y71.3899 
G01 X-16.8851 Y71.5583 
G01 X-16.7838 Y71.7099 
G01 X-16.6549 Y71.8388 
G01 X-16.5033 Y71.9401 
G01 X-16.3349 Y72.0098 
G01 X-16.1561 Y72.0454 
G01 X-14.3239 Y72.0454 
G01 X-14.1451 Y72.0098 
G01 X-13.9767 Y71.9401 
G01 X-13.8251 Y71.8388 
G01 X-13.6962 Y71.7099 
G01 X-13.5949 Y71.5583 
G01 X-13.5252 Y71.3899 
G01 X-13.4896 Y71.2111 
G01 X-13.4896 Y71.0289 
G01 X-13.5252 Y70.8501 
G01 X-13.5949 Y70.6817 
G01 X-13.6962 Y70.5301 
G01 X-13.8251 Y70.4012 
G01 X-13.9767 Y70.2999 
G01 X-14.1451 Y70.2302 
G01 X-14.3239 Y70.1946 
G01 X-14.5046 Y70.1946 
G01 X-14.5046 Y69.5054 
G01 X-14.3239 Y69.5054 
G01 X-14.1451 Y69.4698 
G01 X-13.9767 Y69.4001 
G01 X-13.8251 Y69.2988 
G01 X-13.6962 Y69.1699 
G01 X-13.5949 Y69.0183 
G01 X-13.5252 Y68.8499 
G01 X-13.4896 Y68.6711 
G01 X-13.4896 Y68.4889 
G01 X-13.5252 Y68.3101 
G01 X-13.5949 Y68.1417 
G01 X-13.6962 Y67.9901 
G01 X-13.8251 Y67.8612 
G01 X-13.9767 Y67.7599 
G01 X-14.1451 Y67.6902 
G01 X-14.3239 Y67.6546 
G01 X-14.5046 Y67.6546 
G01 X-14.5046 Y64.7137 
G01 X-14.4757 Y64.6705 
G01 X-14.4107 Y64.5136 
G01 X-14.3776 Y64.3469 
G01 X-14.3776 Y62.6531 
G01 X-14.4107 Y62.4864 
G01 X-14.4757 Y62.3295 
G01 X-14.5701 Y62.1882 
G01 X-14.6903 Y62.0681 
G01 X-14.8315 Y61.9738 
G01 X-14.9884 Y61.9087 
G01 X-15.1551 Y61.8756 
G01 X-15.3249 Y61.8756 
G01 X-15.4916 Y61.9087 
G01 X-15.6485 Y61.9738 
G01 X-15.7897 Y62.0681 
G00 Z3.0000  
G00 X-14.3771 Y47.6277 
G01 Z-0.0800 F254   
G01 X-14.2377 Y47.7671 F508   
G01 X-14.0739 Y47.8765 
G01 X-13.8918 Y47.9520 
G01 X-13.6985 Y47.9904 
G01 X-11.7015 Y47.9904 
G01 X-11.5082 Y47.9520 
G01 X-11.3261 Y47.8765 
G01 X-11.1623 Y47.7671 
G01 X-11.0229 Y47.6277 
G01 X-10.9135 Y47.4639 
G01 X-10.8380 Y47.2818 
G01 X-10.7996 Y47.0885 
G01 X-10.7996 Y46.8915 
G01 X-10.8380 Y46.6982 
G01 X-10.9135 Y46.5161 
G01 X-11.0229 Y46.3523 
G01 X-11.1623 Y46.2129 
G01 X-11.3261 Y46.1035 
G01 X-11.5082 Y46.0280 
G01 X-11.7015 Y45.9896 
G01 X-13.6985 Y45.9896 
G01 X-13.8918 Y46.0280 
G01 X-14.0739 Y46.1035 
G01 X-14.2377 Y46.2129 
G01 X-14.3771 Y46.3523 
G01 X-14.4865 Y46.5161 
G01 X-14.5620 Y46.6982 
G01 X-14.6004 Y46.8915 
G01 X-14.6004 Y47.0885 
G01 X-14.5620 Y47.2818 
G01 X-14.4865 Y47.4639 
G01 X-14.3771 Y47.6277 
G00 Z3.0000  
G00 X-14.3771 Y45.0877 
G01 Z-0.0800 F254   
G01 X-14.2377 Y45.2271 F508   
G01 X-14.0739 Y45.3365 
G01 X-13.8918 Y45.4120 
G01 X-13.6985 Y45.4504 
G01 X-11.7015 Y45.4504 
G01 X-11.5082 Y45.4120 
G01 X-11.3261 Y45.3365 
G01 X-11.1623 Y45.2271 
G01 X-11.0229 Y45.0877 
G01 X-10.9135 Y44.9239 
G01 X-10.8380 Y44.7418 
G01 X-10.7996 Y44.5485 
G01 X-10.7996 Y44.3515 
G01 X-10.8380 Y44.1582 
G01 X-10.9135 Y43.9761 
G01 X-11.0229 Y43.8123 
G01 X-11.1623 Y43.6729 
G01 X-11.3261 Y43.5635 
G01 X-11.5082 Y43.4880 
G01 X-11.7015 Y43.4496 
G01 X-13.6985 Y43.4496 
G01 X-13.8918 Y43.4880 
G01 X-14.0739 Y43.5635 
G01 X-14.2377 Y43.6729 
G01 X-14.3771 Y43.8123 
G01 X-14.4865 Y43.9761 
G01 X-14.5620 Y44.1582 
G01 X-14.6004 Y44.3515 
G01 X-14.6004 Y44.5485 
G01 X-14.5620 Y44.7418 
G01 X-14.4865 Y44.9239 
G01 X-14.3771 Y45.0877 
G00 Z3.0000  
G00 X-16.1029 Y45.0823 
G01 Z-0.0800 F254   
G01 X-16.2423 Y44.9429 F508   
G01 X-16.4061 Y44.8335 
G01 X-16.5882 Y44.7580 
G01 X-16.7815 Y44.7196 
G01 X-18.7785 Y44.7196 
G01 X-18.9718 Y44.7580 
G01 X-19.1539 Y44.8335 
G01 X-19.3177 Y44.9429 
G01 X-19.4571 Y45.0823 
G01 X-19.5665 Y45.2461 
G01 X-19.6420 Y45.4282 
G01 X-19.6804 Y45.6215 
G01 X-19.6804 Y45.8185 
G01 X-19.6420 Y46.0118 
G01 X-19.5665 Y46.1939 
G01 X-19.4571 Y46.3577 
G01 X-19.3177 Y46.4971 
G01 X-19.1539 Y46.6065 
G01 X-18.9718 Y46.6820 
G01 X-18.7785 Y46.7204 
G01 X-16.7815 Y46.7204 
G01 X-16.5882 Y46.6820 
G01 X-16.4061 Y46.6065 
G01 X-16.2423 Y46.4971 
G01 X-16.1029 Y46.3577 
G01 X-15.9935 Y46.1939 
G01 X-15.9180 Y46.0118 
G01 X-15.8796 Y45.8185 
G01 X-15.8796 Y45.6215 
G01 X-15.9180 Y45.4282 
G01 X-15.9935 Y45.2461 
G01 X-16.1029 Y45.0823 
G00 Z3.0000  
G00 X-16.2423 Y43.9571 
G01 Z-0.0800 F254   
G01 X-16.1029 Y43.8177 F508   
G01 X-15.9935 Y43.6539 
G01 X-15.9180 Y43.4718 
G01 X-15.8796 Y43.2785 
G01 X-15.8796 Y43.0815 
G01 X-15.9180 Y42.8882 
G01 X-15.9935 Y42.7061 
G01 X-16.1029 Y42.5423 
G01 X-16.2423 Y42.4029 
G01 X-16.4061 Y42.2935 
G01 X-16.5882 Y42.2180 
G01 X-16.7815 Y42.1796 
G01 X-18.7785 Y42.1796 
G01 X-18.9718 Y42.2180 
G01 X-19.1539 Y42.2935 
G01 X-19.3177 Y42.4029 
G01 X-19.4571 Y42.5423 
G01 X-19.5665 Y42.7061 
G01 X-19.6420 Y42.8882 
G01 X-19.6804 Y43.0815 
G01 X-19.6804 Y43.2785 
G01 X-19.6420 Y43.4718 
G01 X-19.5665 Y43.6539 
G01 X-19.4571 Y43.8177 
G01 X-19.3177 Y43.9571 
G01 X-19.1539 Y44.0665 
G01 X-18.9718 Y44.1420 
G01 X-18.7785 Y44.1804 
G01 X-16.7815 Y44.1804 
G01 X-16.5882 Y44.1420 
G01 X-16.4061 Y44.0665 
G01 X-16.2423 Y43.9571 
G00 Z3.0000  
G00 X-47.6617 Y36.2891 
G01 Z-0.0800 F254   
G01 X-47.5309 Y36.1583 F508   
G01 X-47.4282 Y36.0046 
G01 X-47.3575 Y35.8338 
G01 X-47.3214 Y35.6524 
G01 X-47.3214 Y35.4676 
G01 X-47.3575 Y35.2862 
G01 X-47.4282 Y35.1154 
G01 X-47.5309 Y34.9617 
G01 X-47.6617 Y34.8309 
G01 X-47.8154 Y34.7282 
G01 X-47.9862 Y34.6575 
G01 X-48.1676 Y34.6214 
G01 X-48.3524 Y34.6214 
G01 X-48.5338 Y34.6575 
G01 X-48.7046 Y34.7282 
G01 X-48.8583 Y34.8309 
G01 X-48.9891 Y34.9617 
G01 X-49.0918 Y35.1154 
G01 X-49.1625 Y35.2862 
G01 X-49.1986 Y35.4676 
G01 X-49.1986 Y35.6524 
G01 X-49.1625 Y35.8338 
G01 X-49.0918 Y36.0046 
G01 X-48.9891 Y36.1583 
G01 X-48.8583 Y36.2891 
G01 X-48.7046 Y36.3918 
G01 X-48.5338 Y36.4625 
G01 X-48.3524 Y36.4986 
G01 X-48.1676 Y36.4986 
G01 X-47.9862 Y36.4625 
G01 X-47.8154 Y36.3918 
G01 X-47.6617 Y36.2891 
G00 Z3.0000  
G00 X-47.6617 Y33.7491 
G01 Z-0.0800 F254   
G01 X-47.5309 Y33.6183 F508   
G01 X-47.4282 Y33.4646 
G01 X-47.3575 Y33.2938 
G01 X-47.3214 Y33.1124 
G01 X-47.3214 Y32.9276 
G01 X-47.3575 Y32.7462 
G01 X-47.4282 Y32.5754 
G01 X-47.5309 Y32.4217 
G01 X-47.6617 Y32.2909 
G01 X-47.8154 Y32.1882 
G01 X-47.9862 Y32.1175 
G01 X-48.1676 Y32.0814 
G01 X-48.3524 Y32.0814 
G01 X-48.5338 Y32.1175 
G01 X-48.7046 Y32.1882 
G01 X-48.8583 Y32.2909 
G01 X-48.9891 Y32.4217 
G01 X-49.0918 Y32.5754 
G01 X-49.1625 Y32.7462 
G01 X-49.1986 Y32.9276 
G01 X-49.1986 Y33.1124 
G01 X-49.1625 Y33.2938 
G01 X-49.0918 Y33.4646 
G01 X-48.9891 Y33.6183 
G01 X-48.8583 Y33.7491 
G01 X-48.7046 Y33.8518 
G01 X-48.5338 Y33.9225 
G01 X-48.3524 Y33.9586 
G01 X-48.1676 Y33.9586 
G01 X-47.9862 Y33.9225 
G01 X-47.8154 Y33.8518 
G01 X-47.6617 Y33.7491 
G00 Z3.0000  
G00 X-47.6617 Y26.1291 
G01 Z-0.0800 F254   
G01 X-47.5309 Y25.9983 F508   
G01 X-47.4282 Y25.8446 
G01 X-47.3575 Y25.6738 
G01 X-47.3214 Y25.4924 
G01 X-47.3214 Y25.3076 
G01 X-47.3575 Y25.1262 
G01 X-47.4282 Y24.9554 
G01 X-47.5309 Y24.8017 
G01 X-47.6617 Y24.6709 
G01 X-47.8154 Y24.5682 
G01 X-47.9862 Y24.4975 
G01 X-48.1676 Y24.4614 
G01 X-48.3524 Y24.4614 
G01 X-48.5338 Y24.4975 
G01 X-48.7046 Y24.5682 
G01 X-48.8583 Y24.6709 
G01 X-48.9891 Y24.8017 
G01 X-49.0918 Y24.9554 
G01 X-49.1625 Y25.1262 
G01 X-49.1986 Y25.3076 
G01 X-49.1986 Y25.4924 
G01 X-49.1625 Y25.6738 
G01 X-49.0918 Y25.8446 
G01 X-48.9891 Y25.9983 
G01 X-48.8583 Y26.1291 
G01 X-48.7046 Y26.2318 
G01 X-48.5338 Y26.3025 
G01 X-48.3524 Y26.3386 
G01 X-48.1676 Y26.3386 
G01 X-47.9862 Y26.3025 
G01 X-47.8154 Y26.2318 
G01 X-47.6617 Y26.1291 
G00 Z3.0000  
G00 X-47.6617 Y23.5891 
G01 Z-0.0800 F254   
G01 X-47.5309 Y23.4583 F508   
G01 X-47.4282 Y23.3046 
G01 X-47.3575 Y23.1338 
G01 X-47.3214 Y22.9524 
G01 X-47.3214 Y22.7676 
G01 X-47.3575 Y22.5862 
G01 X-47.4282 Y22.4154 
G01 X-47.5309 Y22.2617 
G01 X-47.6617 Y22.1309 
G01 X-47.8154 Y22.0282 
G01 X-47.9862 Y21.9575 
G01 X-48.1676 Y21.9214 
G01 X-48.3524 Y21.9214 
G01 X-48.5338 Y21.9575 
G01 X-48.7046 Y22.0282 
G01 X-48.8583 Y22.1309 
G01 X-48.9891 Y22.2617 
G01 X-49.0918 Y22.4154 
G01 X-49.1625 Y22.5862 
G01 X-49.1986 Y22.7676 
G01 X-49.1986 Y22.9524 
G01 X-49.1625 Y23.1338 
G01 X-49.0918 Y23.3046 
G01 X-48.9891 Y23.4583 
G01 X-48.8583 Y23.5891 
G01 X-48.7046 Y23.6918 
G01 X-48.5338 Y23.7625 
G01 X-48.3524 Y23.7986 
G01 X-48.1676 Y23.7986 
G01 X-47.9862 Y23.7625 
G01 X-47.8154 Y23.6918 
G01 X-47.6617 Y23.5891 
G00 Z3.0000  
G00 X-83.0846 Y20.2476 
G01 Z-0.0800 F254   
G01 X-83.1129 Y20.1055 F508   
G01 X-83.1683 Y19.9717 
G01 X-83.2488 Y19.8512 
G01 X-83.3512 Y19.7488 
G01 X-83.4717 Y19.6683 
G01 X-83.6055 Y19.6129 
G01 X-83.7476 Y19.5846 
G01 X-83.8924 Y19.5846 
G01 X-84.0345 Y19.6129 
G01 X-84.1683 Y19.6683 
G01 X-84.2888 Y19.7488 
G01 X-84.3912 Y19.8512 
G01 X-84.4717 Y19.9717 
G01 X-84.5271 Y20.1055 
G01 X-84.5554 Y20.2476 
G01 X-84.5554 Y39.4263 
G01 X-84.5842 Y39.4695 
G01 X-84.6493 Y39.6264 
G01 X-84.6824 Y39.7931 
G01 X-84.6824 Y41.4869 
G01 X-84.6493 Y41.6536 
G01 X-84.5842 Y41.8105 
G01 X-84.4899 Y41.9517 
G01 X-84.3697 Y42.0719 
G01 X-84.2285 Y42.1662 
G01 X-84.0716 Y42.2313 
G01 X-83.9049 Y42.2644 
G01 X-83.7351 Y42.2644 
G01 X-83.5684 Y42.2313 
G01 X-83.4115 Y42.1662 
G01 X-83.2703 Y42.0719 
G01 X-83.1501 Y41.9517 
G01 X-83.0558 Y41.8105 
G01 X-82.9907 Y41.6536 
G01 X-82.9576 Y41.4869 
G01 X-82.9576 Y39.7931 
G01 X-82.9907 Y39.6264 
G01 X-83.0558 Y39.4695 
G01 X-83.0846 Y39.4263 
G01 X-83.0846 Y20.2476 
G00 Z3.0000  
G00 X-83.0847 Y18.5408 
G01 Z-0.0800 F254   
G01 X-82.9377 Y18.5116 F508   
G01 X-82.7992 Y18.4542 
G01 X-82.6746 Y18.3710 
G01 X-82.5686 Y18.2650 
G01 X-82.4854 Y18.1404 
G01 X-82.4280 Y18.0019 
G01 X-82.3988 Y17.8549 
G01 X-82.3988 Y17.7051 
G01 X-82.4280 Y17.5581 
G01 X-82.4854 Y17.4196 
G01 X-82.5686 Y17.2950 
G01 X-82.6746 Y17.1890 
G01 X-82.7992 Y17.1058 
G01 X-82.9377 Y17.0484 
G01 X-83.0847 Y17.0192 
G01 X-84.5553 Y17.0192 
G01 X-84.7023 Y17.0484 
G01 X-84.8408 Y17.1058 
G01 X-84.9654 Y17.1890 
G01 X-85.0713 Y17.2950 
G01 X-85.1546 Y17.4196 
G01 X-85.2120 Y17.5581 
G01 X-85.2412 Y17.7051 
G01 X-85.2412 Y17.8549 
G01 X-85.2120 Y18.0019 
G01 X-85.1546 Y18.1404 
G01 X-85.0713 Y18.2650 
G01 X-84.9654 Y18.3710 
G01 X-84.8408 Y18.4542 
G01 X-84.7023 Y18.5116 
G01 X-84.5553 Y18.5408 
G01 X-83.0847 Y18.5408 
G00 Z3.0000  
G00 X-83.0847 Y16.0008 
G01 Z-0.0800 F254   
G01 X-82.9377 Y15.9716 F508   
G01 X-82.7992 Y15.9142 
G01 X-82.6746 Y15.8309 
G01 X-82.5686 Y15.7250 
G01 X-82.4854 Y15.6004 
G01 X-82.4280 Y15.4619 
G01 X-82.3988 Y15.3149 
G01 X-82.3988 Y15.1651 
G01 X-82.4280 Y15.0181 
G01 X-82.4854 Y14.8796 
G01 X-82.5686 Y14.7550 
G01 X-82.6746 Y14.6490 
G01 X-82.7992 Y14.5658 
G01 X-82.9377 Y14.5084 
G01 X-83.0847 Y14.4792 
G01 X-84.5553 Y14.4792 
G01 X-84.7023 Y14.5084 
G01 X-84.8408 Y14.5658 
G01 X-84.9654 Y14.6490 
G01 X-85.0713 Y14.7550 
G01 X-85.1546 Y14.8796 
G01 X-85.2120 Y15.0181 
G01 X-85.2412 Y15.1651 
G01 X-85.2412 Y15.3149 
G01 X-85.2120 Y15.4619 
G01 X-85.1546 Y15.6004 
G01 X-85.0713 Y15.7250 
G01 X-84.9654 Y15.8309 
G01 X-84.8408 Y15.9142 
G01 X-84.7023 Y15.9716 
G01 X-84.5553 Y16.0008 
G01 X-83.0847 Y16.0008 
G00 Z3.0000  
G00 X-83.0847 Y13.4608 
G01 Z-0.0800 F254   
G01 X-82.9377 Y13.4316 F508   
G01 X-82.7992 Y13.3742 
G01 X-82.6746 Y13.2910 
G01 X-82.5686 Y13.1850 
G01 X-82.4854 Y13.0604 
G01 X-82.4280 Y12.9219 
G01 X-82.3988 Y12.7749 
G01 X-82.3988 Y12.6251 
G01 X-82.4280 Y12.4781 
G01 X-82.4854 Y12.3396 
G01 X-82.5686 Y12.2150 
G01 X-82.6746 Y12.1090 
G01 X-82.7992 Y12.0258 
G01 X-82.9377 Y11.9684 
G01 X-83.0847 Y11.9392 
G01 X-84.5553 Y11.9392 
G01 X-84.7023 Y11.9684 
G01 X-84.8408 Y12.0258 
G01 X-84.9654 Y12.1090 
G01 X-85.0713 Y12.2150 
G01 X-85.1546 Y12.3396 
G01 X-85.2120 Y12.4781 
G01 X-85.2412 Y12.6251 
G01 X-85.2412 Y12.7749 
G01 X-85.2120 Y12.9219 
G01 X-85.1546 Y13.0604 
G01 X-85.0713 Y13.1850 
G01 X-84.9654 Y13.2910 
G01 X-84.8408 Y13.3742 
G01 X-84.7023 Y13.4316 
G01 X-84.5553 Y13.4608 
G01 X-83.0847 Y13.4608 
G00 Z3.0000  
G00 X-83.0847 Y10.9208 
G01 Z-0.0800 F254   
G01 X-82.9377 Y10.8916 F508   
G01 X-82.7992 Y10.8342 
G01 X-82.6746 Y10.7509 
G01 X-82.5686 Y10.6450 
G01 X-82.4854 Y10.5204 
G01 X-82.4280 Y10.3819 
G01 X-82.3988 Y10.2349 
G01 X-82.3988 Y10.0851 
G01 X-82.4280 Y9.9381  
G01 X-82.4854 Y9.7996  
G01 X-82.5686 Y9.6750  
G01 X-82.6746 Y9.5690  
G01 X-82.7992 Y9.4858  
G01 X-82.9377 Y9.4284  
G01 X-83.0847 Y9.3992  
G01 X-84.5553 Y9.3992  
G01 X-84.7023 Y9.4284  
G01 X-84.8408 Y9.4858  
G01 X-84.9654 Y9.5690  
G01 X-85.0713 Y9.6750  
