(.../EAGLE-7.7.0/pcbgcode/pcb-gcode.ulp)
(Copyright 2005 - 2012 by John Johnson)
(See readme.txt for licensing terms.)
(This file generated from the board:)
(.../Documents/eagle/CR01/final v1.brd)
(Current profile is .../EAGLE 8.0/pcbgcode/profiles/mach.pp  )
(This file generated 24.10.2017 18:10)
(Settings from pcb-machine.h)
(spindle on time = 1.0000)
(spindle speed = 25000.0000)
(text depth = -0.1270)
(tool change at 0.0000  0.0000  25.4000 )
(feed rate xy = F254   )
(feed rate z  = F254   )
(Z Axis Settings)
(  High     Up        Down     Drill)
(12.0000 	3.0000  	-0.0800 	-1.7500 )
(Settings from pcb-defaults.h)
(isolate min = 0.0254)
(isolate max = 0.5080)
(isolate step = 0.1000)
(Generated top outlines, top drill, bottom outlines, bottom drill, )
(Unit of measure: mm)
(Metric Mode)
G21
(Absolute Coordinates)
G90
S25000
G00 Z12.0000 
G00 X0.0000  Y0.0000  
M03
G04 P1.000000
G00 Z3.0000  
G00 X39.3985 Y15.4484 
G01 Z-0.1270 F254   
G01 X39.1273 Y15.1772 F254   
G01 X39.1273 Y14.6349 
G01 X39.3985 Y14.3637 
G01 X40.4831 Y14.3637 
G01 X40.7543 Y14.6349 
G01 X40.7543 Y15.1772 
G01 X40.4831 Y15.4484 
G00 Z3.0000  
G00 X39.1273 Y16.8144 
G01 Z-0.1270 F254   
G01 X39.1273 Y16.2720 F254   
G01 X39.3985 Y16.0009 
G01 X40.4831 Y16.0009 
G01 X40.7543 Y16.2720 
G01 X40.7543 Y16.8144 
G01 X40.4831 Y17.0855 
G01 X39.3985 Y17.0855 
G01 X39.1273 Y16.8144 
G00 Z3.0000  
G00 X39.1273 Y17.6380 
G01 Z-0.1270 F254   
G01 X40.7543 Y17.6380 F254   
G01 X40.7543 Y18.7227 
G00 Z3.0000  
G00 X39.1273 Y19.2752 
G01 Z-0.1270 F254   
G01 X40.4831 Y19.2752 F254   
G01 X40.7543 Y19.5463 
G01 X40.7543 Y20.0887 
G01 X40.4831 Y20.3598 
G01 X39.1273 Y20.3598 
G00 Z3.0000  
G00 X40.7543 Y20.9123 
G01 Z-0.1270 F254   
G01 X39.1273 Y20.9123 F254   
G01 X39.6696 Y21.4547 
G01 X39.1273 Y21.9970 
G01 X40.7543 Y21.9970 
G00 Z3.0000  
G00 X40.7543 Y22.5495 
G01 Z-0.1270 F254   
G01 X39.1273 Y22.5495 F254   
G01 X39.1273 Y23.3630 
G01 X39.3985 Y23.6341 
G01 X39.6696 Y23.6341 
G01 X39.9408 Y23.3630 
G01 X40.2120 Y23.6341 
G01 X40.4831 Y23.6341 
G01 X40.7543 Y23.3630 
G01 X40.7543 Y22.5495 
G00 Z3.0000  
G00 X39.9408 Y22.5495 
G01 Z-0.1270 F254   
G01 X39.9408 Y23.3630 F254   
G00 Z3.0000  
G00 X40.7543 Y24.1866 
G01 Z-0.1270 F254   
G01 X39.6696 Y24.1866 F254   
G01 X39.1273 Y24.7290 
G01 X39.6696 Y25.2713 
G01 X40.7543 Y25.2713 
G00 Z3.0000  
G00 X39.9408 Y24.1866 
G01 Z-0.1270 F254   
G01 X39.9408 Y25.2713 F254   
G00 Z3.0000  
G00 X43.4213 Y16.0009 
G01 Z-0.1270 F254   
G01 X41.7943 Y16.0009 F254   
G01 X41.7943 Y16.8144 
G01 X42.0655 Y17.0855 
G01 X42.6078 Y17.0855 
G01 X42.8790 Y16.8144 
G01 X42.8790 Y16.0009 
G00 Z3.0000  
G00 X42.8790 Y16.5432 
G01 Z-0.1270 F254   
G01 X43.4213 Y17.0855 F254   
G00 Z3.0000  
G00 X43.4213 Y17.6380 
G01 Z-0.1270 F254   
G01 X42.3366 Y17.6380 F254   
G01 X41.7943 Y18.1803 
G01 X42.3366 Y18.7227 
G01 X43.4213 Y18.7227 
G00 Z3.0000  
G00 X42.6078 Y17.6380 
G01 Z-0.1270 F254   
G01 X42.6078 Y18.7227 F254   
G00 Z3.0000  
G00 X42.0655 Y20.3598 
G01 Z-0.1270 F254   
G01 X41.7943 Y20.0887 F254   
G01 X41.7943 Y19.5463 
G01 X42.0655 Y19.2752 
G01 X43.1501 Y19.2752 
G01 X43.4213 Y19.5463 
G01 X43.4213 Y20.0887 
G01 X43.1501 Y20.3598 
G00 Z3.0000  
G00 X43.4213 Y20.9123 
G01 Z-0.1270 F254   
G01 X43.4213 Y21.4547 F254   
G00 Z3.0000  
G00 X43.4213 Y21.1835 
G01 Z-0.1270 F254   
G01 X41.7943 Y21.1835 F254   
G00 Z3.0000  
G00 X41.7943 Y20.9123 
G01 Z-0.1270 F254   
G01 X41.7943 Y21.4547 F254   
G00 Z3.0000  
G00 X43.4213 Y22.0038 
G01 Z-0.1270 F254   
G01 X41.7943 Y22.0038 F254   
G01 X43.4213 Y23.0884 
G01 X41.7943 Y23.0884 
G00 Z3.0000  
G00 X42.0655 Y24.7256 
G01 Z-0.1270 F254   
G01 X41.7943 Y24.4544 F254   
G01 X41.7943 Y23.9121 
G01 X42.0655 Y23.6409 
G01 X43.1501 Y23.6409 
G01 X43.4213 Y23.9121 
G01 X43.4213 Y24.4544 
G01 X43.1501 Y24.7256 
G01 X42.6078 Y24.7256 
G01 X42.6078 Y24.1832 
G00 Z3.0000  
G00 X21.0161 Y10.0852 
G01 Z-0.1270 F254   
G01 X21.0161 Y9.0005  F254   
G01 X21.5585 Y8.4582  
G01 X22.1008 Y9.0005  
G01 X22.1008 Y10.0852 
G00 Z3.0000  
G00 X23.7380 Y8.4582  
G01 Z-0.1270 F254   
G01 X22.6533 Y8.4582  F254   
G01 X23.7380 Y9.5429  
G01 X23.7380 Y9.8140  
G01 X23.4668 Y10.0852 
G01 X22.9245 Y10.0852 
G01 X22.6533 Y9.8140  
G00 Z3.0000  
G00 X24.2905 Y8.4582  
G01 Z-0.1270 F254   
G01 X24.2905 Y8.7294  F254   
G01 X24.5616 Y8.7294  
G01 X24.5616 Y8.4582  
G01 X24.2905 Y8.4582  
G00 Z3.0000  
G00 X25.1090 Y8.7294  
G01 Z-0.1270 F254   
G01 X25.1090 Y9.8140  F254   
G01 X25.3802 Y10.0852 
G01 X25.9225 Y10.0852 
G01 X26.1937 Y9.8140  
G01 X26.1937 Y8.7294  
G01 X25.9225 Y8.4582  
G01 X25.3802 Y8.4582  
G01 X25.1090 Y8.7294  
G01 X26.1937 Y9.8140  
G00 Z3.0000  
G00 X33.6319 Y10.0457 
G01 Z-0.1270 F254   
G01 X33.6319 Y11.6727 F254   
G01 X34.1742 Y11.1304 
G01 X34.7165 Y11.6727 
G01 X34.7165 Y10.0457 
G00 Z3.0000  
G00 X35.2690 Y10.0457 
G01 Z-0.1270 F254   
G01 X35.2690 Y11.6727 F254   
G00 Z3.0000  
G00 X35.2690 Y10.8592 
G01 Z-0.1270 F254   
G01 X36.3537 Y10.8592 F254   
G00 Z3.0000  
G00 X36.3537 Y11.6727 
G01 Z-0.1270 F254   
G01 X36.3537 Y10.0457 F254   
G00 Z12.0000 
M05
M02
