(.../EAGLE-7.7.0/pcbgcode/pcb-gcode.ulp)
(Copyright 2005 - 2012 by John Johnson)
(See readme.txt for licensing terms.)
(This file generated from the board:)
(.../Documents/eagle/CR01/final v1.brd)
(Current profile is .../EAGLE 8.0/pcbgcode/profiles/mach.pp  )
(This file generated 24.10.2017 18:10)
(Settings from pcb-machine.h)
(spindle on time = 1.0000)
(  Tool Size)
(0.1750  )
(spindle speed = 30000.0000)
(tool change at 0.0000  0.0000  25.4000 )
(feed rate xy = F508   )
(feed rate z  = F254   )
(Z Axis Settings)
(  High     Up        Down     Drill)
(12.0000 	3.0000  	-0.0800 	-1.7500 )
(Settings from pcb-defaults.h)
(isolate min = 0.0254)
(isolate max = 0.5080)
(isolate step = 0.1000)
(Generated top outlines, top drill, bottom outlines, bottom drill, )
(Unit of measure: mm)
(Metric Mode)
G21
(Absolute Coordinates)
G90
S30000
G00 Z12.0000 
G00 X0.0000  Y0.0000  
M03
G04 P1.000000
G00 Z3.0000  
G00 X0.9586  Y1.0104  
G01 Z-0.0800 F254   
G01 X0.9220  Y1.0737  F508   
G01 X0.9031  Y1.1444  
G01 X0.9031  Y69.9656 
G01 X0.9220  Y70.0363 
G01 X0.9586  Y70.0996 
G01 X1.0104  Y70.1514 
G01 X1.0737  Y70.1880 
G01 X1.1444  Y70.2069 
G01 X42.1741 Y70.2069 
G01 X42.2448 Y70.1880 
G01 X42.3081 Y70.1514 
G01 X42.3599 Y70.0996 
G01 X42.3834 Y70.0589 
G01 X42.3965 Y70.0363 
G01 X42.4146 Y69.9686 
G01 X42.4154 Y69.9656 
G01 X42.4154 Y69.8924 
G01 X42.3965 Y69.8217 
G01 X42.3599 Y69.7584 
G01 X42.0770 Y69.4755 
G01 X41.7607 Y68.9276 
G01 X41.5969 Y68.3164 
G01 X41.5969 Y67.6836 
G01 X41.7607 Y67.0724 
G01 X42.0770 Y66.5245 
G01 X42.5245 Y66.0770 
G01 X43.0724 Y65.7607 
G01 X43.6836 Y65.5969 
G01 X44.3164 Y65.5969 
G01 X44.9276 Y65.7607 
G01 X45.3708 Y66.0166 
G01 X45.3747 Y66.0179 
G01 X45.4424 Y66.0361 
G01 X45.5156 Y66.0361 
G01 X45.5863 Y66.0171 
G01 X45.6100 Y66.0034 
G01 X45.6496 Y65.9805 
G01 X45.7014 Y65.9288 
G01 X45.7372 Y65.8668 
G01 X45.7388 Y65.8624 
G01 X45.7569 Y65.7947 
G01 X45.7569 Y45.2053 
G01 X45.7380 Y45.1346 
G01 X45.7097 Y45.0857 
G01 X45.7014 Y45.0712 
G01 X45.6496 Y45.0195 
G01 X45.6273 Y45.0066 
G01 X45.5863 Y44.9829 
G01 X45.5156 Y44.9639 
G01 X45.4424 Y44.9639 
G01 X45.3717 Y44.9829 
G01 X45.3409 Y45.0007 
G01 X44.9276 Y45.2393 
G01 X44.3164 Y45.4031 
G01 X43.6836 Y45.4031 
G01 X43.0724 Y45.2393 
G01 X42.5245 Y44.9230 
G01 X42.0770 Y44.4755 
G01 X41.7607 Y43.9276 
G01 X41.5969 Y43.3164 
G01 X41.5969 Y42.6836 
G01 X41.6637 Y42.4342 
G01 X41.6708 Y42.4173 
G01 X41.6731 Y42.3991 
G01 X41.6779 Y42.3813 
G01 X41.6779 Y42.3629 
G01 X41.6803 Y42.3447 
G01 X41.6779 Y42.3265 
G01 X41.6779 Y42.3081 
G01 X41.6732 Y42.2904 
G01 X41.6708 Y42.2722 
G01 X41.6637 Y42.2552 
G01 X41.6590 Y42.2374 
G01 X41.6498 Y42.2215 
G01 X41.6428 Y42.2046 
G01 X41.6316 Y42.1900 
G01 X41.6224 Y42.1741 
G01 X41.6094 Y42.1611 
G01 X41.5982 Y42.1465 
G01 X41.5836 Y42.1353 
G01 X41.5706 Y42.1223 
G01 X41.5547 Y42.1131 
G01 X41.5402 Y42.1020 
G01 X41.5232 Y42.0949 
G01 X41.5073 Y42.0857 
G01 X41.4895 Y42.0810 
G01 X41.4726 Y42.0740 
G01 X41.4544 Y42.0716 
G01 X41.4366 Y42.0668 
G01 X41.4182 Y42.0668 
G01 X41.4000 Y42.0644 
G01 X41.3818 Y42.0668 
G01 X41.3634 Y42.0668 
G01 X41.3457 Y42.0716 
G01 X41.3275 Y42.0740 
G01 X41.3105 Y42.0810 
G01 X41.2927 Y42.0857 
G01 X41.2768 Y42.0949 
G01 X41.2699 Y42.0978 
G01 X40.0101 Y42.0978 
G01 X39.7759 Y42.0008 
G01 X39.5967 Y41.8216 
G01 X39.4997 Y41.5874 
G01 X39.4997 Y40.3131 
G01 X39.5029 Y40.3012 
G01 X39.5029 Y40.2828 
G01 X39.5053 Y40.2646 
G01 X39.5029 Y40.2464 
G01 X39.5029 Y40.2186 
G01 X39.5053 Y40.2004 
G01 X39.5029 Y40.1822 
G01 X39.5029 Y40.1638 
G01 X39.4981 Y40.1460 
G01 X39.4957 Y40.1278 
G01 X39.4887 Y40.1109 
G01 X39.4840 Y40.0931 
G01 X39.4748 Y40.0772 
G01 X39.4677 Y40.0602 
G01 X39.4566 Y40.0456 
G01 X39.4474 Y40.0297 
G01 X39.4344 Y40.0168 
G01 X39.4232 Y40.0022 
G01 X39.4086 Y39.9910 
G01 X39.3956 Y39.9780 
G01 X39.3797 Y39.9688 
G01 X39.3651 Y39.9576 
G01 X39.3482 Y39.9506 
G01 X39.3323 Y39.9414 
G01 X39.3145 Y39.9367 
G01 X39.2504 Y39.9101 
G01 X39.0712 Y39.7309 
G01 X38.9742 Y39.4967 
G01 X38.9742 Y35.4040 
G01 X38.9553 Y35.3334 
G01 X38.9187 Y35.2700 
G01 X38.0380 Y34.3894 
G01 X38.0081 Y34.3172 
G01 X37.9411 Y34.2168 
G01 X36.3536 Y32.6293 
G01 X36.2682 Y32.5439 
G01 X36.1678 Y32.4769 
G01 X36.0956 Y32.4470 
G01 X35.8763 Y32.2277 
G01 X35.8246 Y32.1759 
G01 X35.7612 Y32.1393 
G01 X35.6905 Y32.1204 
G01 X35.6194 Y32.1204 
G01 X35.1425 Y31.9229 
G01 X34.7775 Y31.5579 
G01 X34.6070 Y31.1462 
G01 X34.6047 Y31.1354 
G01 X34.5931 Y31.1125 
G01 X34.5832 Y31.0888 
G01 X34.5765 Y31.0800 
G01 X34.5715 Y31.0702 
G01 X34.5543 Y31.0511 
G01 X34.5387 Y31.0308 
G01 X34.5299 Y31.0240 
G01 X34.5225 Y31.0158 
G01 X34.5010 Y31.0018 
G01 X34.4806 Y30.9862 
G01 X34.4704 Y30.9820 
G01 X34.4612 Y30.9760 
G01 X34.4367 Y30.9680 
G01 X34.4130 Y30.9582 
G01 X34.4021 Y30.9568 
G01 X34.3916 Y30.9534 
G01 X34.3659 Y30.9520 
G01 X34.3405 Y30.9487 
G01 X34.3296 Y30.9501 
G01 X34.3185 Y30.9495 
G01 X34.2934 Y30.9549 
G01 X34.2680 Y30.9582 
G01 X34.2577 Y30.9625 
G01 X34.2469 Y30.9648 
G01 X34.2241 Y30.9764 
G01 X34.2004 Y30.9862 
G01 X34.1916 Y30.9930 
G01 X34.1817 Y30.9980 
G01 X34.1627 Y31.0151 
G01 X34.1423 Y31.0308 
G01 X34.1356 Y31.0395 
G01 X34.1274 Y31.0469 
G01 X34.1134 Y31.0685 
G01 X34.0978 Y31.0888 
G01 X34.0935 Y31.0990 
G01 X34.0875 Y31.1083 
G01 X34.0803 Y31.1306 
G01 X34.0230 Y31.2430 
G01 X33.9504 Y31.3429 
G01 X33.9504 Y31.2975 
G01 X34.0228 Y31.1892 
G01 X34.0811 Y31.0485 
G01 X34.1108 Y30.8991 
G01 X34.1108 Y29.4259 
G01 X34.0811 Y29.2765 
G01 X34.0228 Y29.1358 
G01 X33.9504 Y29.0275 
G01 X33.9504 Y28.9821 
G01 X34.0230 Y29.0820 
G01 X34.0803 Y29.1944 
G01 X34.0875 Y29.2167 
G01 X34.0935 Y29.2260 
G01 X34.0978 Y29.2362 
G01 X34.1134 Y29.2565 
G01 X34.1274 Y29.2781 
G01 X34.1356 Y29.2854 
G01 X34.1423 Y29.2942 
G01 X34.1627 Y29.3099 
G01 X34.1817 Y29.3270 
G01 X34.1916 Y29.3320 
G01 X34.2004 Y29.3388 
G01 X34.2241 Y29.3486 
G01 X34.2469 Y29.3602 
G01 X34.2577 Y29.3625 
G01 X34.2680 Y29.3668 
G01 X34.2934 Y29.3701 
G01 X34.3185 Y29.3755 
G01 X34.3296 Y29.3749 
G01 X34.3405 Y29.3763 
G01 X34.3659 Y29.3730 
G01 X34.3916 Y29.3716 
G01 X34.4021 Y29.3682 
G01 X34.4130 Y29.3668 
G01 X34.4367 Y29.3570 
G01 X34.4612 Y29.3490 
G01 X34.4704 Y29.3430 
G01 X34.4807 Y29.3388 
G01 X34.5010 Y29.3231 
G01 X34.5225 Y29.3092 
G01 X34.5299 Y29.3010 
G01 X34.5387 Y29.2942 
G01 X34.5543 Y29.2738 
G01 X34.5715 Y29.2548 
G01 X34.5765 Y29.2449 
G01 X34.5832 Y29.2362 
G01 X34.5931 Y29.2124 
G01 X34.6047 Y29.1896 
G01 X34.6070 Y29.1788 
G01 X34.7123 Y28.9247 
G01 X34.7215 Y28.9088 
G01 X34.7262 Y28.8910 
G01 X34.7332 Y28.8740 
G01 X34.7356 Y28.8558 
G01 X34.7404 Y28.8381 
G01 X34.7404 Y28.8197 
G01 X34.7428 Y28.8015 
G01 X34.7404 Y28.7833 
G01 X34.7404 Y28.5874 
G01 X34.7215 Y28.5167 
G01 X34.6849 Y28.4534 
G01 X34.6331 Y28.4016 
G01 X34.5698 Y28.3650 
G01 X34.4991 Y28.3461 
G01 X34.2854 Y28.3461 
G01 X34.2854 Y28.3179 
G01 X34.6650 Y28.3179 
G01 X34.7064 Y28.3007 
G01 X34.7382 Y28.2690 
G01 X34.7554 Y28.2275 
G01 X34.7554 Y26.3825 
G01 X34.7382 Y26.3410 
G01 X34.7064 Y26.3093 
G01 X34.6650 Y26.2921 
G01 X34.2854 Y26.2921 
G01 X34.2854 Y26.2639 
G01 X34.6611 Y26.2639 
G01 X34.6970 Y26.2735 
G01 X34.7291 Y26.2921 
G01 X34.7549 Y26.3178 
G01 X34.7661 Y26.3324 
G01 X34.7806 Y26.3436 
G01 X34.7936 Y26.3566 
G01 X34.8095 Y26.3658 
G01 X34.8241 Y26.3770 
G01 X34.8411 Y26.3840 
G01 X34.8570 Y26.3932 
G01 X34.8748 Y26.3979 
G01 X34.8917 Y26.4050 
G01 X34.9099 Y26.4074 
G01 X34.9277 Y26.4121 
G01 X34.9461 Y26.4121 
G01 X34.9643 Y26.4145 
G01 X34.9825 Y26.4121 
G01 X35.0008 Y26.4121 
G01 X35.0186 Y26.4074 
G01 X35.0368 Y26.4050 
G01 X35.0538 Y26.3979 
G01 X35.0715 Y26.3932 
G01 X35.0875 Y26.3840 
G01 X35.1044 Y26.3770 
G01 X35.1190 Y26.3658 
G01 X35.1349 Y26.3566 
G01 X35.1479 Y26.3436 
G01 X35.1625 Y26.3324 
G01 X35.1737 Y26.3178 
G01 X35.1866 Y26.3049 
G01 X35.1958 Y26.2889 
G01 X35.2070 Y26.2744 
G01 X35.2140 Y26.2574 
G01 X35.2232 Y26.2415 
G01 X35.2280 Y26.2237 
G01 X35.3024 Y26.0441 
G01 X35.4816 Y25.8649 
G01 X35.7158 Y25.7679 
G01 X37.5692 Y25.7679 
G01 X37.8034 Y25.8649 
G01 X37.9826 Y26.0441 
G01 X38.0796 Y26.2783 
G01 X38.0796 Y27.9633 
G01 X38.0985 Y28.0340 
G01 X38.1351 Y28.0973 
G01 X38.1869 Y28.1491 
G01 X38.2502 Y28.1857 
G01 X38.3209 Y28.2046 
G01 X38.6756 Y28.2046 
G01 X39.1525 Y28.4021 
G01 X39.4651 Y28.7148 
G01 X39.5169 Y28.7665 
G01 X39.5575 Y28.7900 
G01 X39.5802 Y28.8031 
G01 X39.6479 Y28.8212 
G01 X39.6509 Y28.8220 
G01 X39.7241 Y28.8220 
G01 X39.7948 Y28.8031 
G01 X39.8581 Y28.7665 
G01 X40.2225 Y28.4021 
G01 X40.6994 Y28.2046 
G01 X41.2156 Y28.2046 
G01 X41.6925 Y28.4021 
G01 X42.0051 Y28.7148 
G01 X42.0569 Y28.7665 
G01 X42.0975 Y28.7900 
G01 X42.1202 Y28.8031 
G01 X42.1879 Y28.8212 
G01 X42.1909 Y28.8220 
G01 X42.2641 Y28.8220 
G01 X42.3348 Y28.8031 
G01 X42.3981 Y28.7665 
G01 X42.7625 Y28.4021 
G01 X43.2394 Y28.2046 
G01 X43.7556 Y28.2046 
G01 X44.2325 Y28.4021 
G01 X44.5975 Y28.7671 
G01 X44.7950 Y29.2440 
G01 X44.7950 Y31.0810 
G01 X44.5975 Y31.5579 
G01 X44.2325 Y31.9229 
G01 X43.7556 Y32.1204 
G01 X43.2394 Y32.1204 
G01 X42.7625 Y31.9229 
G01 X42.3981 Y31.5585 
G01 X42.3362 Y31.5227 
G01 X42.3318 Y31.5211 
G01 X42.2641 Y31.5029 
G01 X42.1909 Y31.5029 
G01 X42.1202 Y31.5219 
G01 X42.0965 Y31.5356 
G01 X42.0569 Y31.5585 
G01 X42.0051 Y31.6102 
G01 X41.6925 Y31.9229 
G01 X41.2156 Y32.1204 
G01 X40.6994 Y32.1204 
G01 X40.2225 Y31.9229 
G01 X39.8581 Y31.5585 
G01 X39.7962 Y31.5227 
G01 X39.7918 Y31.5211 
G01 X39.7241 Y31.5029 
G01 X39.6509 Y31.5029 
G01 X39.5802 Y31.5219 
G01 X39.5565 Y31.5356 
G01 X39.5169 Y31.5585 
G01 X39.4651 Y31.6102 
G01 X39.1525 Y31.9229 
G01 X39.0456 Y31.9671 
G01 X39.0279 Y31.9719 
G01 X39.0120 Y31.9811 
G01 X38.9950 Y31.9881 
G01 X38.9804 Y31.9993 
G01 X38.9645 Y32.0085 
G01 X38.9515 Y32.0214 
G01 X38.9370 Y32.0326 
G01 X38.9258 Y32.0472 
G01 X38.9128 Y32.0602 
G01 X38.9036 Y32.0761 
G01 X38.8924 Y32.0907 
G01 X38.8854 Y32.1077 
G01 X38.8762 Y32.1236 
G01 X38.8714 Y32.1413 
G01 X38.8644 Y32.1583 
G01 X38.8620 Y32.1765 
G01 X38.8573 Y32.1942 
G01 X38.8573 Y32.2126 
G01 X38.8549 Y32.2308 
G01 X38.8573 Y32.2490 
G01 X38.8573 Y32.2674 
G01 X38.8620 Y32.2852 
G01 X38.8644 Y32.3034 
G01 X38.8714 Y32.3203 
G01 X38.8762 Y32.3381 
G01 X38.8854 Y32.3540 
G01 X38.8924 Y32.3710 
G01 X38.9036 Y32.3856 
G01 X38.9128 Y32.4015 
G01 X38.9258 Y32.4145 
G01 X38.9370 Y32.4290 
G01 X38.9515 Y32.4402 
G01 X41.3595 Y34.8482 
G01 X41.3787 Y34.8674 
G01 X41.4421 Y34.9040 
G01 X41.5127 Y34.9229 
G01 X41.7446 Y34.9229 
G01 X41.9788 Y35.0199 
G01 X42.1580 Y35.1991 
G01 X42.2550 Y35.4333 
G01 X42.2550 Y39.4967 
G01 X42.1580 Y39.7309 
G01 X41.9788 Y39.9101 
G01 X41.9655 Y39.9156 
G01 X41.9477 Y39.9204 
G01 X41.9318 Y39.9296 
G01 X41.9149 Y39.9366 
G01 X41.9003 Y39.9478 
G01 X41.8844 Y39.9570 
G01 X41.8714 Y39.9699 
G01 X41.8568 Y39.9811 
G01 X41.8456 Y39.9957 
G01 X41.8326 Y40.0087 
G01 X41.8234 Y40.0246 
G01 X41.8123 Y40.0392 
G01 X41.8052 Y40.0561 
G01 X41.7960 Y40.0721 
G01 X41.7913 Y40.0898 
G01 X41.7843 Y40.1068 
G01 X41.7818 Y40.1250 
G01 X41.7771 Y40.1427 
G01 X41.7771 Y40.1611 
G01 X41.7747 Y40.1793 
G01 X41.7771 Y40.1975 
G01 X41.7771 Y40.2464 
G01 X41.7747 Y40.2646 
G01 X41.7771 Y40.2828 
G01 X41.7771 Y40.3012 
G01 X41.7803 Y40.3131 
G01 X41.7803 Y41.1869 
G01 X41.7992 Y41.2576 
G01 X41.8358 Y41.3209 
G01 X41.8876 Y41.3727 
G01 X41.9282 Y41.3962 
G01 X41.9509 Y41.4093 
G01 X42.0186 Y41.4274 
G01 X42.0216 Y41.4282 
G01 X42.0948 Y41.4282 
G01 X42.1655 Y41.4093 
G01 X42.2288 Y41.3727 
G01 X42.5245 Y41.0770 
G01 X43.0724 Y40.7607 
G01 X43.6836 Y40.5969 
G01 X44.3164 Y40.5969 
G01 X44.9276 Y40.7607 
G01 X45.3709 Y41.0166 
G01 X45.3747 Y41.0179 
G01 X45.4424 Y41.0361 
G01 X45.5156 Y41.0361 
G01 X45.5863 Y41.0171 
G01 X45.6100 Y41.0034 
G01 X45.6496 Y40.9805 
G01 X45.7014 Y40.9288 
G01 X45.7372 Y40.8668 
G01 X45.7388 Y40.8624 
G01 X45.7569 Y40.7947 
G01 X45.7569 Y13.2053 
G01 X45.7380 Y13.1346 
G01 X45.7014 Y13.0712 
G01 X45.6496 Y13.0195 
G01 X45.6089 Y12.9960 
G01 X45.5863 Y12.9829 
G01 X45.5186 Y12.9648 
G01 X45.5156 Y12.9639 
G01 X45.4424 Y12.9639 
G01 X45.3717 Y12.9829 
G01 X44.9276 Y13.2393 
G01 X44.3164 Y13.4031 
G01 X43.6836 Y13.4031 
G01 X43.0724 Y13.2393 
G01 X42.5245 Y12.9230 
G01 X42.0770 Y12.4755 
G01 X41.7607 Y11.9276 
G01 X41.5969 Y11.3164 
G01 X41.5969 Y10.6836 
G01 X41.7607 Y10.0724 
G01 X42.0770 Y9.5244  
G01 X42.5245 Y9.0770  
G01 X43.0724 Y8.7607  
G01 X43.6836 Y8.5969  
G01 X44.3164 Y8.5969  
G01 X44.9276 Y8.7607  
G01 X45.3708 Y9.0166  
G01 X45.3747 Y9.0179  
G01 X45.4424 Y9.0360  
G01 X45.5156 Y9.0360  
G01 X45.5863 Y9.0171  
G01 X45.6100 Y9.0034  
G01 X45.6496 Y8.9805  
G01 X45.7014 Y8.9288  
G01 X45.7372 Y8.8668  
G01 X45.7388 Y8.8624  
G01 X45.7569 Y8.7947  
G01 X45.7569 Y1.1444  
G01 X45.7380 Y1.0737  
G01 X45.7014 Y1.0104  
G01 X45.6496 Y0.9586  
G01 X45.5863 Y0.9220  
G01 X45.5156 Y0.9031  
G01 X1.1444  Y0.9031  
G01 X1.0737  Y0.9220  
G01 X1.0104  Y0.9586  
G01 X0.9586  Y1.0104  
G00 Z3.0000  
G00 X3.2789  Y2.6176  
G01 Z-0.0800 F254   
G01 X3.3110  Y2.5990  F508   
G01 X3.3469  Y2.5894  
G01 X3.7606  Y2.5894  
G01 X3.7606  Y2.6176  
G01 X3.3430  Y2.6176  
G01 X3.3015  Y2.6348  
G01 X3.2698  Y2.6665  
G01 X3.2526  Y2.7080  
G01 X3.2526  Y3.1256  
G01 X3.2244  Y3.1256  
G01 X3.2244  Y2.7119  
G01 X3.2340  Y2.6760  
G01 X3.2526  Y2.6439  
G01 X3.2789  Y2.6176  
G00 Z3.0000  
G00 X4.4944  Y2.6176  
G01 Z-0.0800 F254   
G01 X4.4944  Y2.5894  F508   
G01 X4.9081  Y2.5894  
G01 X4.9386  Y2.5976  
G01 X4.9487  Y2.6018  
G01 X4.9646  Y2.6109  
G01 X4.9824  Y2.6157  
G01 X4.9993  Y2.6227  
G01 X5.0176  Y2.6251  
G01 X5.0353  Y2.6299  
G01 X5.0537  Y2.6299  
G01 X5.0719  Y2.6323  
G01 X5.0901  Y2.6299  
G01 X5.1085  Y2.6299  
G01 X5.1262  Y2.6251  
G01 X5.1444  Y2.6227  
G01 X5.1614  Y2.6157  
G01 X5.1791  Y2.6109  
G01 X5.1951  Y2.6018  
G01 X5.2120  Y2.5947  
G01 X5.2266  Y2.5835  
G01 X5.2425  Y2.5744  
G01 X5.2555  Y2.5614  
G01 X5.2701  Y2.5502  
G01 X5.2813  Y2.5356  
G01 X5.2943  Y2.5226  
G01 X5.3034  Y2.5067  
G01 X5.3146  Y2.4921  
G01 X5.3217  Y2.4752  
G01 X5.3308  Y2.4593  
G01 X5.3356  Y2.4415  
G01 X5.3654  Y2.3696  
G01 X5.5446  Y2.1904  
G01 X5.7788  Y2.0934  
G01 X7.5562  Y2.0934  
G01 X7.8639  Y2.2208  
G01 X7.9375  Y2.2308  
G01 X7.9436  Y2.2300  
G01 X8.0100  Y2.2213  
G01 X8.0776  Y2.1933  
G01 X8.3188  Y2.0934  
G01 X10.0962 Y2.0934  
G01 X10.4039 Y2.2208  
G01 X10.4775 Y2.2308  
G01 X10.4836 Y2.2300  
G01 X10.5500 Y2.2213  
G01 X10.6176 Y2.1933  
G01 X10.8588 Y2.0934  
G01 X12.6362 Y2.0934  
G01 X12.8704 Y2.1904  
G01 X13.0496 Y2.3696  
G01 X13.1466 Y2.6038  
G01 X13.1466 Y3.4878  
G01 X13.1655 Y3.5585  
G01 X13.2021 Y3.6219  
G01 X17.3044 Y7.7242  
G01 X17.4471 Y8.0686  
G01 X17.4471 Y10.0108 
G01 X17.4479 Y10.0138 
G01 X17.4660 Y10.0815 
G01 X17.5018 Y10.1435 
G01 X18.7428 Y11.3851 
G01 X18.8048 Y11.4209 
G01 X18.8092 Y11.4225 
G01 X18.8769 Y11.4406 
G01 X20.0022 Y11.4406 
G01 X20.2364 Y11.5376 
G01 X20.4156 Y11.7168 
G01 X20.5126 Y11.9510 
G01 X20.5126 Y12.8140 
G01 X20.4864 Y12.8773 
G01 X20.4640 Y12.9314 
G01 X20.4584 Y12.9449 
G01 X20.4525 Y12.9897 
G01 X20.4488 Y13.0175 
G01 X20.4584 Y13.0900 
G01 X20.5126 Y13.2210 
G01 X20.5126 Y14.0840 
G01 X20.4864 Y14.1473 
G01 X20.4640 Y14.2013 
G01 X20.4584 Y14.2149 
G01 X20.4525 Y14.2597 
G01 X20.4488 Y14.2875 
G01 X20.4584 Y14.3600 
G01 X20.5126 Y14.4910 
G01 X20.5126 Y15.3810 
G01 X20.5315 Y15.4517 
G01 X20.5681 Y15.5151 
G01 X20.6199 Y15.5668 
G01 X20.6832 Y15.6034 
G01 X20.7509 Y15.6215 
G01 X20.7539 Y15.6223 
G01 X20.8271 Y15.6223 
G01 X20.8978 Y15.6034 
G01 X20.9611 Y15.5668 
G01 X22.0859 Y14.4420 
G01 X22.3575 Y14.1705 
G01 X22.6835 Y14.0354 
G01 X22.9341 Y14.0354 
G01 X23.0048 Y14.0165 
G01 X23.0681 Y13.9799 
G01 X23.1199 Y13.9281 
G01 X23.1565 Y13.8648 
G01 X23.1754 Y13.7941 
G01 X23.1754 Y13.2210 
G01 X23.2724 Y12.9868 
G01 X23.4516 Y12.8076 
G01 X23.4830 Y12.7946 
G01 X23.5008 Y12.7898 
G01 X23.5167 Y12.7806 
G01 X23.5336 Y12.7736 
G01 X23.5482 Y12.7624 
G01 X23.5641 Y12.7532 
G01 X23.5771 Y12.7402 
G01 X23.5917 Y12.7291 
G01 X23.6029 Y12.7145 
G01 X23.6159 Y12.7015 
G01 X23.6251 Y12.6856 
G01 X23.6362 Y12.6710 
G01 X23.6406 Y12.6604 
G01 X23.6996 Y12.6604 
G01 X23.6996 Y12.7098 
G01 X23.7168 Y12.7513 
G01 X23.7485 Y12.7830 
G01 X23.7900 Y12.8002 
G01 X25.3590 Y12.8002 
G01 X25.4004 Y12.7830 
G01 X25.4322 Y12.7513 
G01 X25.4346 Y12.7454 
G01 X27.6703 Y12.7454 
G01 X27.7133 Y12.7884 
G01 X27.8103 Y13.0226 
G01 X27.8103 Y13.7941 
G01 X27.8292 Y13.8648 
G01 X27.8658 Y13.9281 
G01 X27.9176 Y13.9799 
G01 X27.9809 Y14.0165 
G01 X28.0516 Y14.0354 
G01 X31.6090 Y14.0354 
G01 X31.9350 Y14.1705 
G01 X32.1978 Y14.4332 
G01 X33.0857 Y15.3211 
G01 X33.1374 Y15.3729 
G01 X33.2008 Y15.4095 
G01 X33.2715 Y15.4284 
G01 X34.2345 Y15.4284 
G01 X35.0541 Y16.2480 
G01 X35.0541 Y17.4070 
G01 X34.2168 Y18.2443 
G01 X34.1996 Y18.2582 
G01 X34.1910 Y18.2701 
G01 X34.1806 Y18.2805 
G01 X34.1696 Y18.2996 
G01 X34.1566 Y18.3174 
G01 X34.1514 Y18.3311 
G01 X34.1440 Y18.3439 
G01 X34.1383 Y18.3652 
G01 X34.1347 Y18.3746 
G01 X33.9617 Y18.5476 
G01 X33.9102 Y18.5262 
G01 X33.7412 Y18.4926 
G01 X33.5688 Y18.4926 
G01 X33.3998 Y18.5262 
G01 X33.2406 Y18.5922 
G01 X33.0973 Y18.6879 
G01 X32.9754 Y18.8098 
G01 X32.8797 Y18.9531 
G01 X32.8137 Y19.1123 
G01 X32.7801 Y19.2813 
G01 X32.7801 Y19.4537 
G01 X32.8137 Y19.6227 
G01 X32.8351 Y19.6742 
G01 X32.6621 Y19.8472 
G01 X32.6527 Y19.8508 
G01 X32.6314 Y19.8565 
G01 X32.6186 Y19.8639 
G01 X32.6049 Y19.8691 
G01 X32.5871 Y19.8821 
G01 X32.5680 Y19.8931 
G01 X32.5576 Y19.9035 
G01 X32.5457 Y19.9122 
G01 X32.5318 Y19.9293 
G01 X31.8690 Y20.5921 
G01 X28.0903 Y20.5921 
G01 X27.1759 Y19.6777 
G01 X27.1759 Y18.9840 
G01 X27.1570 Y18.9133 
G01 X27.1204 Y18.8499 
G01 X26.6756 Y18.4051 
G01 X26.6359 Y18.3822 
G01 X26.6122 Y18.3685 
G01 X26.5415 Y18.3496 
G01 X25.7189 Y18.3496 
G01 X25.6482 Y18.3685 
G01 X25.4346 Y18.3696 
G01 X25.4322 Y18.3637 
G01 X25.4004 Y18.3320 
G01 X25.3590 Y18.3148 
G01 X23.7900 Y18.3148 
G01 X23.7485 Y18.3320 
G01 X23.7168 Y18.3637 
G01 X23.6996 Y18.4052 
G01 X23.6996 Y19.0598 
G01 X23.7168 Y19.1013 
G01 X23.7485 Y19.1330 
G01 X23.7900 Y19.1502 
G01 X25.3590 Y19.1502 
G01 X25.4004 Y19.1330 
G01 X25.4322 Y19.1013 
G01 X25.4346 Y19.0954 
G01 X25.5672 Y19.0954 
G01 X25.9247 Y19.4529 
G01 X25.9736 Y19.5710 
G01 X25.9736 Y20.4340 
G01 X25.9474 Y20.4973 
G01 X25.9250 Y20.5513 
G01 X25.9194 Y20.5649 
G01 X25.9135 Y20.6097 
G01 X25.9098 Y20.6375 
G01 X25.9194 Y20.7100 
G01 X25.9736 Y20.8410 
G01 X25.9736 Y21.0966 
G01 X25.9925 Y21.1673 
G01 X26.0291 Y21.2306 
G01 X26.0809 Y21.2824 
G01 X26.1442 Y21.3190 
G01 X26.2149 Y21.3379 
G01 X28.3917 Y21.3379 
G01 X28.4287 Y21.3379 
G01 X28.4781 Y21.3246 
G01 X28.4993 Y21.3190 
G01 X30.5278 Y21.3179 
G01 X30.5708 Y21.3609 
G01 X30.6414 Y21.5313 
G01 X30.6461 Y21.5491 
G01 X30.6553 Y21.5650 
G01 X30.6624 Y21.5819 
G01 X30.6736 Y21.5965 
G01 X30.6827 Y21.6124 
G01 X30.6957 Y21.6254 
G01 X30.7069 Y21.6400 
G01 X30.7215 Y21.6512 
G01 X30.7345 Y21.6642 
G01 X30.7504 Y21.6734 
G01 X30.7650 Y21.6845 
G01 X30.7819 Y21.6916 
G01 X30.7978 Y21.7008 
G01 X30.8156 Y21.7055 
G01 X30.8326 Y21.7125 
G01 X30.8508 Y21.7149 
G01 X30.8685 Y21.7197 
G01 X30.8869 Y21.7197 
G01 X30.9051 Y21.7221 
G01 X30.9233 Y21.7197 
G01 X32.0624 Y21.7197 
G01 X32.2966 Y21.8167 
G01 X32.4758 Y21.9959 
G01 X32.5728 Y22.2301 
G01 X32.5728 Y23.4899 
G01 X32.4758 Y23.7241 
G01 X32.2966 Y23.9033 
G01 X32.0624 Y24.0003 
G01 X31.7292 Y24.0003 
G01 X31.6917 Y24.0103 
G01 X31.6585 Y24.0192 
G01 X31.6135 Y24.0452 
G01 X31.5951 Y24.0558 
G01 X31.5434 Y24.1076 
G01 X31.5101 Y24.1652 
G01 X31.5068 Y24.1709 
G01 X31.4978 Y24.2045 
G01 X31.4879 Y24.2416 
G01 X31.4879 Y24.3148 
G01 X31.4979 Y24.3523 
G01 X31.5068 Y24.3855 
G01 X31.5362 Y24.4363 
G01 X31.5415 Y24.4455 
G01 X31.5511 Y24.4814 
G01 X31.5511 Y24.9571 
G01 X31.5229 Y24.9571 
G01 X31.5229 Y24.4775 
G01 X31.5057 Y24.4360 
G01 X31.4739 Y24.4043 
G01 X31.4325 Y24.3871 
G01 X29.7875 Y24.3871 
G01 X29.7460 Y24.4043 
G01 X29.7143 Y24.4360 
G01 X29.6971 Y24.4775 
G01 X29.6971 Y26.3225 
G01 X29.7143 Y26.3639 
G01 X29.7460 Y26.3957 
G01 X29.7875 Y26.4129 
G01 X30.1671 Y26.4129 
G01 X30.1671 Y26.5339 
G01 X30.1526 Y26.5484 
G01 X30.1160 Y26.6117 
G01 X30.0971 Y26.6824 
G01 X30.0971 Y27.1639 
G01 X29.9620 Y27.4900 
G01 X27.9819 Y29.4702 
G01 X27.9301 Y29.5219 
G01 X27.8935 Y29.5853 
G01 X27.8746 Y29.6560 
G01 X27.8746 Y32.2439 
G01 X27.7395 Y32.5700 
G01 X27.0174 Y33.2921 
G01 X26.9397 Y33.2921 
G01 X26.8474 Y33.3168 
G01 X26.7647 Y33.3646 
G01 X25.8122 Y34.3171 
G01 X25.7446 Y34.3847 
G01 X25.6968 Y34.4674 
G01 X25.6721 Y34.5597 
G01 X25.6721 Y34.6374 
G01 X25.6564 Y34.6498 
G01 X25.6452 Y34.6644 
G01 X25.6322 Y34.6773 
G01 X25.6230 Y34.6932 
G01 X25.6118 Y34.7078 
G01 X25.6048 Y34.7248 
G01 X25.5956 Y34.7407 
G01 X25.5909 Y34.7585 
G01 X25.5838 Y34.7754 
G01 X25.5814 Y34.7936 
G01 X25.5767 Y34.8114 
G01 X25.5767 Y34.8298 
G01 X25.5743 Y34.8480 
G01 X25.5767 Y34.8662 
G01 X25.5767 Y34.8846 
G01 X25.5814 Y34.9023 
G01 X25.5838 Y34.9205 
G01 X25.5878 Y34.9301 
G01 X25.5878 Y35.8115 
G01 X24.8497 Y36.5496 
G01 X23.5297 Y36.5496 
G01 X23.4723 Y36.4922 
G01 X23.4611 Y36.4776 
G01 X23.4465 Y36.4664 
G01 X23.4335 Y36.4534 
G01 X23.4176 Y36.4442 
G01 X23.4030 Y36.4330 
G01 X23.3861 Y36.4260 
G01 X23.3702 Y36.4168 
G01 X23.3524 Y36.4121 
G01 X23.3354 Y36.4050 
G01 X23.3172 Y36.4027 
G01 X23.2995 Y36.3979 
G01 X23.2811 Y36.3979 
G01 X23.2629 Y36.3955 
G01 X23.2447 Y36.3979 
G01 X23.2263 Y36.3979 
G01 X23.2086 Y36.4027 
G01 X23.1903 Y36.4050 
G01 X23.1734 Y36.4121 
G01 X23.1556 Y36.4168 
G01 X23.1397 Y36.4260 
G01 X23.1227 Y36.4331 
G01 X23.1082 Y36.4442 
G01 X23.0923 Y36.4534 
G01 X23.0793 Y36.4664 
G01 X23.0647 Y36.4776 
G01 X23.0535 Y36.4922 
G01 X23.0405 Y36.5052 
G01 X23.0313 Y36.5211 
G01 X23.0201 Y36.5356 
G01 X23.0144 Y36.5496 
G01 X22.4663 Y36.5496 
G01 X22.4540 Y36.5374 
G01 X22.4126 Y36.5202 
G01 X21.0976 Y36.5202 
G01 X21.0561 Y36.5374 
G01 X21.0439 Y36.5496 
G01 X20.4958 Y36.5496 
G01 X20.4830 Y36.5186 
G01 X20.4830 Y35.6409 
G01 X20.4641 Y35.5702 
G01 X20.4275 Y35.5069 
G01 X20.3757 Y35.4551 
G01 X20.3124 Y35.4185 
G01 X20.2417 Y35.3996 
G01 X18.3210 Y35.3996 
G01 X18.2503 Y35.4185 
G01 X18.1869 Y35.4551 
G01 X17.8924 Y35.7496 
G01 X13.8811 Y35.7496 
G01 X13.8689 Y35.7374 
G01 X13.8274 Y35.7202 
G01 X12.5124 Y35.7202 
G01 X12.4709 Y35.7374 
G01 X12.4392 Y35.7691 
G01 X12.4220 Y35.8106 
G01 X12.4220 Y36.4144 
G01 X12.4392 Y36.4558 
G01 X12.4709 Y36.4876 
G01 X12.5124 Y36.5048 
G01 X13.8274 Y36.5048 
G01 X13.8689 Y36.4876 
G01 X13.8811 Y36.4754 
G01 X14.4420 Y36.4754 
G01 X14.4420 Y37.3186 
G01 X14.4292 Y37.3496 
G01 X13.8811 Y37.3496 
G01 X13.8689 Y37.3374 
G01 X13.8274 Y37.3202 
G01 X12.5124 Y37.3202 
G01 X12.4709 Y37.3374 
G01 X12.4587 Y37.3496 
G01 X11.7743 Y37.3496 
G01 X11.7590 Y37.3343 
G01 X11.7175 Y37.3171 
G01 X9.8725  Y37.3171 
G01 X9.8310  Y37.3343 
G01 X9.7993  Y37.3660 
G01 X9.7821  Y37.4075 
G01 X9.7821  Y37.7871 
G01 X9.7539  Y37.7871 
G01 X9.7539  Y37.4114 
G01 X9.7635  Y37.3755 
G01 X9.7821  Y37.3434 
G01 X9.8079  Y37.3176 
G01 X9.8224  Y37.3064 
G01 X9.8336  Y37.2919 
G01 X9.8466  Y37.2789 
G01 X9.8558  Y37.2629 
G01 X9.8670  Y37.2484 
G01 X9.8740  Y37.2314 
G01 X9.8832  Y37.2155 
G01 X9.8879  Y37.1977 
G01 X9.8950  Y37.1808 
G01 X9.8974  Y37.1626 
G01 X9.9021  Y37.1448 
G01 X9.9021  Y37.1264 
G01 X9.9045  Y37.1082 
G01 X9.9021  Y37.0900 
G01 X9.9021  Y37.0716 
G01 X9.8974  Y37.0539 
G01 X9.8950  Y37.0357 
G01 X9.8879  Y37.0187 
G01 X9.8832  Y37.0010 
G01 X9.8740  Y36.9850 
G01 X9.8670  Y36.9681 
G01 X9.8558  Y36.9535 
G01 X9.8466  Y36.9376 
G01 X9.8336  Y36.9246 
G01 X9.8224  Y36.9100 
G01 X9.8079  Y36.8989 
G01 X9.7949  Y36.8859 
G01 X9.7789  Y36.8767 
G01 X9.7644  Y36.8655 
G01 X9.7474  Y36.8584 
G01 X9.7315  Y36.8493 
G01 X9.7137  Y36.8445 
G01 X9.5230  Y36.7655 
G01 X9.5071  Y36.7563 
G01 X9.4893  Y36.7515 
G01 X9.4723  Y36.7445 
G01 X9.4541  Y36.7421 
G01 X9.4364  Y36.7374 
G01 X9.4180  Y36.7374 
G01 X9.3998  Y36.7350 
G01 X9.3816  Y36.7374 
G01 X9.3632  Y36.7374 
G01 X9.3455  Y36.7421 
G01 X9.3272  Y36.7445 
G01 X9.3103  Y36.7515 
G01 X9.2925  Y36.7563 
G01 X9.2766  Y36.7655 
G01 X9.2596  Y36.7725 
G01 X9.2451  Y36.7837 
G01 X9.2292  Y36.7929 
G01 X9.2162  Y36.8059 
G01 X9.2016  Y36.8171 
G01 X9.1904  Y36.8316 
G01 X9.1264  Y36.8957 
G01 X9.0746  Y36.9474 
G01 X9.0380  Y37.0108 
G01 X9.0191  Y37.0815 
G01 X9.0191  Y38.1878 
G01 X8.8061  Y38.7020 
G01 X8.4125  Y39.0956 
G01 X7.8983  Y39.3086 
G01 X7.3417  Y39.3086 
G01 X6.8275  Y39.0956 
G01 X6.5724  Y38.8405 
G01 X6.5206  Y38.7888 
G01 X6.4799  Y38.7653 
G01 X6.4573  Y38.7522 
G01 X6.3896  Y38.7340 
G01 X6.3866  Y38.7332 
G01 X6.3134  Y38.7332 
G01 X6.2427  Y38.7522 
G01 X6.1794  Y38.7888 
G01 X5.8725  Y39.0956 
G01 X5.3583  Y39.3086 
G01 X4.8017  Y39.3086 
G01 X4.2875  Y39.0956 
G01 X3.8939  Y38.7020 
G01 X3.8010  Y38.4778 
G01 X3.8005  Y38.4742 
G01 X3.7870  Y38.4440 
G01 X3.7744  Y38.4136 
G01 X3.7722  Y38.4107 
G01 X3.7707  Y38.4073 
G01 X3.7500  Y38.3817 
G01 X3.7299  Y38.3556 
G01 X3.7270  Y38.3533 
G01 X3.7246  Y38.3505 
G01 X3.6980  Y38.3311 
G01 X3.6718  Y38.3110 
G01 X3.6684  Y38.3096 
G01 X3.6654  Y38.3074 
G01 X3.6347  Y38.2956 
G01 X3.6042  Y38.2830 
G01 X3.6006  Y38.2825 
G01 X3.5971  Y38.2812 
G01 X3.5643  Y38.2778 
G01 X3.5317  Y38.2735 
G01 X3.5280  Y38.2740 
G01 X3.5244  Y38.2736 
G01 X3.4917  Y38.2787 
G01 X3.4592  Y38.2830 
G01 X3.4557  Y38.2844 
G01 X3.4521  Y38.2850 
G01 X3.4219  Y38.2984 
G01 X3.3915  Y38.3110 
G01 X3.3886  Y38.3133 
G01 X3.3852  Y38.3148 
G01 X3.3596  Y38.3355 
G01 X3.3335  Y38.3556 
G01 X3.3312  Y38.3585 
G01 X3.3284  Y38.3608 
G01 X3.3090  Y38.3875 
G01 X3.2890  Y38.4136 
G01 X3.2875  Y38.4170 
G01 X3.2288  Y38.4978 
G01 X3.1992  Y38.5275 
G01 X3.1793  Y38.5075 
G01 X3.2196  Y38.4672 
G01 X3.3153  Y38.3239 
G01 X3.3813  Y38.1647 
G01 X3.4149  Y37.9957 
G01 X3.4149  Y36.2993 
G01 X3.3813  Y36.1303 
G01 X3.3153  Y35.9711 
G01 X3.2196  Y35.8278 
G01 X3.0977  Y35.7059 
G01 X2.9544  Y35.6102 
G01 X2.9069  Y35.5905 
G01 X2.9069  Y35.2120 
G01 X2.9544  Y35.1923 
G01 X3.0977  Y35.0966 
G01 X3.2196  Y34.9747 
G01 X3.3153  Y34.8314 
G01 X3.3813  Y34.6722 
G01 X3.4149  Y34.5032 
G01 X3.4149  Y32.8068 
G01 X3.3813  Y32.6378 
G01 X3.3153  Y32.4786 
G01 X3.2196  Y32.3353 
G01 X3.1529  Y32.2686 
G01 X3.1529  Y32.2287 
G01 X3.2288  Y32.3047 
G01 X3.2875  Y32.3855 
G01 X3.2890  Y32.3889 
G01 X3.3090  Y32.4150 
G01 X3.3284  Y32.4417 
G01 X3.3312  Y32.4440 
G01 X3.3335  Y32.4469 
G01 X3.3596  Y32.4670 
G01 X3.3852  Y32.4877 
G01 X3.3886  Y32.4892 
G01 X3.3915  Y32.4915 
G01 X3.4219  Y32.5041 
G01 X3.4521  Y32.5175 
G01 X3.4557  Y32.5181 
G01 X3.4592  Y32.5195 
G01 X3.4917  Y32.5238 
G01 X3.5244  Y32.5289 
G01 X3.5280  Y32.5285 
G01 X3.5317  Y32.5290 
G01 X3.5643  Y32.5247 
G01 X3.5971  Y32.5213 
G01 X3.6006  Y32.5199 
G01 X3.6042  Y32.5195 
G01 X3.6347  Y32.5069 
G01 X3.6654  Y32.4950 
G01 X3.6684  Y32.4929 
G01 X3.6718  Y32.4915 
G01 X3.6980  Y32.4714 
G01 X3.7246  Y32.4520 
G01 X3.7270  Y32.4492 
G01 X3.7299  Y32.4469 
G01 X3.7500  Y32.4208 
G01 X3.7707  Y32.3952 
G01 X3.7722  Y32.3918 
G01 X3.7744  Y32.3889 
G01 X3.7870  Y32.3584 
G01 X3.8005  Y32.3283 
G01 X3.8010  Y32.3247 
G01 X3.9052  Y32.0732 
G01 X3.9199  Y32.0478 
G01 X3.9275  Y32.0192 
G01 X3.9291  Y32.0156 
G01 X3.9296  Y32.0117 
G01 X3.9388  Y31.9771 
G01 X3.9389  Y31.9405 
G01 X3.9389  Y31.9040 
G01 X3.9294  Y31.8684 
G01 X3.9200  Y31.8333 
G01 X3.9017  Y31.8016 
G01 X3.8834  Y31.7699 
G01 X3.8589  Y31.7453 
G01 X3.8317  Y31.7181 
G01 X3.7999  Y31.6997 
G01 X3.7684  Y31.6815 
G01 X3.7331  Y31.6720 
G01 X3.6977  Y31.6625 
G01 X3.6611  Y31.6625 
G01 X3.6467  Y31.6625 
G01 X3.6749  Y31.6343 
G01 X4.6707  Y31.6343 
G01 X4.7122  Y31.6171 
G01 X4.7439  Y31.5853 
G01 X4.7611  Y31.5439 
G01 X4.7611  Y29.2637 
G01 X4.7439  Y29.2222 
G01 X4.7122  Y29.1905 
G01 X4.6707  Y29.1733 
G01 X4.6515  Y29.1733 
G01 X4.6515  Y29.1451 
G01 X4.6668  Y29.1451 
G01 X4.7027  Y29.1547 
G01 X4.7374  Y29.1747 
G01 X4.7519  Y29.1859 
G01 X4.7689  Y29.1930 
G01 X4.7848  Y29.2021 
G01 X4.8026  Y29.2069 
G01 X4.8195  Y29.2139 
G01 X4.8377  Y29.2163 
G01 X4.8555  Y29.2211 
G01 X4.8739  Y29.2211 
G01 X4.8921  Y29.2235 
G01 X4.9103  Y29.2211 
G01 X4.9287  Y29.2211 
G01 X4.9464  Y29.2163 
G01 X4.9646  Y29.2139 
G01 X4.9816  Y29.2069 
G01 X4.9993  Y29.2022 
G01 X5.0153  Y29.1930 
G01 X5.0322  Y29.1859 
G01 X5.0468  Y29.1747 
G01 X5.0627  Y29.1656 
G01 X5.0757  Y29.1526 
G01 X5.0903  Y29.1414 
G01 X5.1015  Y29.1268 
G01 X5.1145  Y29.1138 
G01 X5.1236  Y29.0979 
G01 X5.1348  Y29.0833 
G01 X5.1419  Y29.0664 
G01 X5.1510  Y29.0505 
G01 X5.1558  Y29.0327 
G01 X5.2003  Y28.9253 
G01 X5.3795  Y28.7461 
G01 X5.6137  Y28.6491 
G01 X7.0863  Y28.6491 
G01 X7.3205  Y28.7461 
G01 X7.3351  Y28.7607 
G01 X7.3633  Y28.7770 
G01 X7.3984  Y28.7973 
G01 X7.4459  Y28.8100 
G01 X7.4691  Y28.8162 
G01 X7.5061  Y28.8162 
G01 X7.5423  Y28.8162 
G01 X7.5619  Y28.8109 
G01 X7.6130  Y28.7973 
G01 X7.6334  Y28.7855 
G01 X7.6763  Y28.7607 
G01 X7.6909  Y28.7461 
G01 X7.9251  Y28.6491 
G01 X9.2668  Y28.6491 
G01 X9.2850  Y28.6515 
G01 X9.3032  Y28.6491 
G01 X9.3216  Y28.6491 
G01 X9.3393  Y28.6443 
G01 X9.3575  Y28.6419 
G01 X9.3613  Y28.6404 
G01 X11.3621 Y28.6404 
G01 X11.3914 Y28.6419 
G01 X11.3986 Y28.6404 
G01 X11.4060 Y28.6404 
G01 X11.4343 Y28.6328 
G01 X11.4629 Y28.6267 
G01 X11.4695 Y28.6234 
G01 X11.4766 Y28.6215 
G01 X11.5020 Y28.6068 
G01 X11.5281 Y28.5935 
G01 X11.5336 Y28.5886 
G01 X11.5400 Y28.5849 
G01 X11.5607 Y28.5642 
G01 X11.5825 Y28.5445 
G01 X11.5865 Y28.5383 
G01 X11.5917 Y28.5331 
G01 X11.6064 Y28.5077 
G01 X11.6224 Y28.4832 
G01 X11.6246 Y28.4762 
G01 X11.6283 Y28.4698 
G01 X11.6359 Y28.4414 
G01 X11.6450 Y28.4136 
G01 X11.6454 Y28.4062 
G01 X11.6473 Y28.3991 
G01 X11.6473 Y28.3698 
G01 X11.6488 Y28.3405 
G01 X11.6473 Y28.3333 
G01 X11.6473 Y28.3259 
G01 X11.6397 Y28.2976 
G01 X11.6336 Y28.2689 
G01 X11.6302 Y28.2624 
G01 X11.6283 Y28.2552 
G01 X11.6137 Y28.2298 
G01 X11.5456 Y28.0962 
G01 X11.5016 Y27.9610 
G01 X11.4794 Y27.8206 
G01 X11.4794 Y27.3544 
G01 X11.5076 Y27.3544 
G01 X11.5076 Y27.8357 
G01 X11.5412 Y28.0047 
G01 X11.6072 Y28.1639 
G01 X11.7029 Y28.3072 
G01 X11.8248 Y28.4291 
G01 X11.9681 Y28.5248 
G01 X12.1273 Y28.5908 
G01 X12.2963 Y28.6244 
G01 X12.4687 Y28.6244 
G01 X12.6377 Y28.5908 
G01 X12.7969 Y28.5248 
G01 X12.9402 Y28.4291 
G01 X13.0621 Y28.3072 
G01 X13.1578 Y28.1639 
G01 X13.2238 Y28.0047 
G01 X13.2574 Y27.8357 
G01 X13.2574 Y26.1393 
G01 X13.2238 Y25.9703 
G01 X13.1578 Y25.8111 
G01 X13.0621 Y25.6678 
G01 X12.9402 Y25.5459 
G01 X12.7969 Y25.4502 
G01 X12.7494 Y25.4305 
G01 X12.7494 Y25.3989 
G01 X12.8558 Y25.4531 
G01 X12.9708 Y25.5367 
G01 X13.0713 Y25.6372 
G01 X13.1300 Y25.7180 
G01 X13.1315 Y25.7214 
G01 X13.1515 Y25.7475 
G01 X13.1709 Y25.7742 
G01 X13.1737 Y25.7765 
G01 X13.1760 Y25.7794 
G01 X13.2021 Y25.7995 
G01 X13.2277 Y25.8202 
G01 X13.2311 Y25.8217 
G01 X13.2340 Y25.8240 
G01 X13.2645 Y25.8366 
G01 X13.2946 Y25.8500 
G01 X13.2982 Y25.8506 
G01 X13.3017 Y25.8520 
G01 X13.3342 Y25.8563 
G01 X13.3669 Y25.8614 
G01 X13.3705 Y25.8610 
G01 X13.3742 Y25.8615 
G01 X13.4068 Y25.8572 
G01 X13.4396 Y25.8538 
G01 X13.4431 Y25.8524 
G01 X13.4467 Y25.8520 
G01 X13.4772 Y25.8393 
G01 X13.5079 Y25.8275 
G01 X13.5109 Y25.8254 
G01 X13.5143 Y25.8240 
G01 X13.5405 Y25.8039 
G01 X13.5671 Y25.7845 
G01 X13.5695 Y25.7817 
G01 X13.5724 Y25.7794 
G01 X13.5925 Y25.7533 
G01 X13.6132 Y25.7277 
G01 X13.6147 Y25.7243 
G01 X13.6169 Y25.7214 
G01 X13.6295 Y25.6909 
G01 X13.6430 Y25.6608 
G01 X13.6435 Y25.6572 
G01 X13.7364 Y25.4330 
G01 X14.1300 Y25.0394 
G01 X14.6442 Y24.8264 
G01 X15.2008 Y24.8264 
G01 X15.5393 Y24.9666 
G01 X15.5552 Y24.9758 
G01 X15.5730 Y24.9806 
G01 X15.5899 Y24.9876 
G01 X15.6082 Y24.9900 
G01 X15.6259 Y24.9947 
G01 X15.6443 Y24.9947 
G01 X15.6625 Y24.9971 
G01 X15.6807 Y24.9947 
G01 X15.6991 Y24.9947 
G01 X15.7168 Y24.9900 
G01 X15.7350 Y24.9876 
G01 X15.7520 Y24.9806 
G01 X15.7698 Y24.9758 
G01 X15.7857 Y24.9666 
G01 X15.8026 Y24.9596 
G01 X15.8172 Y24.9484 
G01 X15.8331 Y24.9392 
G01 X15.8461 Y24.9262 
G01 X15.8607 Y24.9150 
G01 X15.8719 Y24.9005 
G01 X15.8849 Y24.8875 
G01 X15.8941 Y24.8716 
G01 X15.9052 Y24.8570 
G01 X15.9123 Y24.8400 
G01 X15.9215 Y24.8241 
G01 X15.9262 Y24.8064 
G01 X15.9332 Y24.7894 
G01 X15.9356 Y24.7712 
G01 X15.9404 Y24.7534 
G01 X15.9404 Y24.7351 
G01 X15.9428 Y24.7168 
G01 X15.9404 Y24.6986 
G01 X15.9404 Y23.9535 
G01 X16.0755 Y23.6275 
G01 X16.8499 Y22.8530 
G01 X16.9017 Y22.8013 
G01 X16.9383 Y22.7379 
G01 X16.9572 Y22.6672 
G01 X16.9572 Y22.4509 
G01 X16.9383 Y22.3802 
G01 X16.9017 Y22.3169 
G01 X16.8499 Y22.2651 
G01 X16.7866 Y22.2285 
G01 X16.7159 Y22.2096 
G01 X13.3305 Y22.2096 
G01 X13.3122 Y22.2072 
G01 X13.2940 Y22.2096 
G01 X13.2757 Y22.2096 
G01 X13.2579 Y22.2144 
G01 X13.2397 Y22.2168 
G01 X13.2227 Y22.2238 
G01 X13.2050 Y22.2285 
G01 X13.1891 Y22.2377 
G01 X13.1721 Y22.2448 
G01 X13.1575 Y22.2559 
G01 X13.1416 Y22.2651 
G01 X13.1286 Y22.2781 
G01 X13.1140 Y22.2893 
G01 X13.1029 Y22.3039 
G01 X13.0899 Y22.3169 
G01 X13.0807 Y22.3328 
G01 X13.0695 Y22.3473 
G01 X13.0625 Y22.3643 
G01 X13.0533 Y22.3802 
G01 X13.0491 Y22.3959 
G01 X12.8704 Y22.5746 
G01 X12.6362 Y22.6716 
G01 X10.8588 Y22.6716 
G01 X10.6176 Y22.5717 
G01 X10.5500 Y22.5437 
G01 X10.4775 Y22.5342 
G01 X10.4049 Y22.5437 
G01 X10.0962 Y22.6716 
G01 X9.0284  Y22.6716 
G01 X8.9577  Y22.6905 
G01 X8.8944  Y22.7271 
G01 X8.8426  Y22.7789 
G01 X8.8060  Y22.8422 
G01 X8.7871  Y22.9129 
G01 X8.7871  Y25.4327 
G01 X8.6901  Y25.6669 
G01 X8.5109  Y25.8461 
G01 X8.2767  Y25.9431 
G01 X4.4233  Y25.9431 
G01 X4.1891  Y25.8461 
G01 X4.1054  Y25.7624 
G01 X4.1054  Y22.6496 
G01 X4.1309  Y22.6241 
G01 X4.1515  Y22.5883 
G01 X4.1675  Y22.5608 
G01 X4.1815  Y22.5082 
G01 X4.1864  Y22.4901 
G01 X4.1864  Y22.4169 
G01 X4.1675  Y22.3462 
G01 X4.1538  Y22.3225 
G01 X4.1309  Y22.2829 
G01 X4.1054  Y22.2574 
G01 X4.1054  Y22.1614 
G01 X4.1194  Y22.1474 
G01 X4.9120  Y22.1474 
G01 X4.9535  Y22.1302 
G01 X4.9852  Y22.0984 
G01 X5.0024  Y22.0570 
G01 X5.0024  Y20.4880 
G01 X4.9852  Y20.4465 
G01 X4.9535  Y20.4148 
G01 X4.9120  Y20.3976 
G01 X4.7404  Y20.3976 
G01 X4.7404  Y20.3694 
G01 X4.9081  Y20.3694 
G01 X4.9387  Y20.3776 
G01 X4.9487  Y20.3818 
G01 X4.9646  Y20.3909 
G01 X4.9824  Y20.3957 
G01 X4.9993  Y20.4027 
G01 X5.0176  Y20.4051 
G01 X5.0353  Y20.4099 
G01 X5.0537  Y20.4099 
G01 X5.0719  Y20.4123 
G01 X5.0901  Y20.4099 
G01 X5.1085  Y20.4099 
G01 X5.1262  Y20.4051 
G01 X5.1444  Y20.4027 
G01 X5.1614  Y20.3957 
G01 X5.1791  Y20.3910 
G01 X5.1951  Y20.3818 
G01 X5.2120  Y20.3747 
G01 X5.2266  Y20.3635 
G01 X5.2425  Y20.3544 
G01 X5.2555  Y20.3414 
G01 X5.2701  Y20.3302 
G01 X5.2813  Y20.3156 
G01 X5.2943  Y20.3026 
G01 X5.3035  Y20.2867 
G01 X5.3146  Y20.2721 
G01 X5.3217  Y20.2552 
G01 X5.3308  Y20.2393 
G01 X5.3356  Y20.2215 
G01 X5.3683  Y20.1426 
G01 X5.3700  Y20.1384 
G01 X5.3963  Y20.0750 
G01 X5.4058  Y20.0025 
G01 X5.3963  Y19.9299 
G01 X5.3759  Y19.8808 
G01 X5.3683  Y19.8623 
G01 X5.3356  Y19.7835 
G01 X5.3308  Y19.7657 
G01 X5.3217  Y19.7498 
G01 X5.3146  Y19.7329 
G01 X5.3035  Y19.7183 
G01 X5.2943  Y19.7024 
G01 X5.2813  Y19.6894 
G01 X5.2701  Y19.6748 
G01 X5.2555  Y19.6636 
G01 X5.2425  Y19.6506 
G01 X5.2266  Y19.6414 
G01 X5.2120  Y19.6303 
G01 X5.1951  Y19.6232 
G01 X5.1791  Y19.6140 
G01 X5.1614  Y19.6093 
G01 X5.1444  Y19.6023 
G01 X5.1262  Y19.5999 
G01 X5.1085  Y19.5951 
G01 X5.0901  Y19.5951 
G01 X5.0719  Y19.5927 
G01 X5.0537  Y19.5951 
G01 X5.0353  Y19.5951 
G01 X5.0176  Y19.5999 
G01 X4.9993  Y19.6023 
G01 X4.9824  Y19.6093 
G01 X4.9646  Y19.6141 
G01 X4.9487  Y19.6232 
G01 X4.9387  Y19.6274 
G01 X4.9081  Y19.6356 
G01 X4.7404  Y19.6356 
G01 X4.7404  Y19.6074 
G01 X4.9120  Y19.6074 
G01 X4.9535  Y19.5902 
G01 X4.9852  Y19.5585 
G01 X5.0024  Y19.5170 
G01 X5.0024  Y17.9480 
G01 X4.9852  Y17.9065 
G01 X4.9535  Y17.8748 
G01 X4.9120  Y17.8576 
G01 X4.7404  Y17.8576 
G01 X4.7404  Y17.8294 
G01 X4.9081  Y17.8294 
G01 X4.9386  Y17.8376 
G01 X4.9487  Y17.8418 
G01 X4.9646  Y17.8509 
G01 X4.9824  Y17.8557 
G01 X4.9993  Y17.8627 
G01 X5.0176  Y17.8651 
G01 X5.0353  Y17.8699 
G01 X5.0537  Y17.8699 
G01 X5.0719  Y17.8723 
G01 X5.0901  Y17.8699 
G01 X5.1085  Y17.8699 
G01 X5.1262  Y17.8651 
G01 X5.1444  Y17.8627 
G01 X5.1614  Y17.8557 
G01 X5.1791  Y17.8510 
G01 X5.1951  Y17.8418 
G01 X5.2120  Y17.8347 
G01 X5.2266  Y17.8236 
G01 X5.2425  Y17.8144 
G01 X5.2555  Y17.8014 
G01 X5.2701  Y17.7902 
G01 X5.2813  Y17.7756 
G01 X5.2943  Y17.7626 
G01 X5.3035  Y17.7467 
G01 X5.3146  Y17.7321 
G01 X5.3217  Y17.7152 
G01 X5.3308  Y17.6993 
G01 X5.3356  Y17.6815 
G01 X5.3683  Y17.6027 
G01 X5.3765  Y17.5828 
G01 X5.3963  Y17.5350 
G01 X5.4058  Y17.4625 
G01 X5.3963  Y17.3899 
G01 X5.3693  Y17.3247 
G01 X5.3356  Y17.2435 
G01 X5.3308  Y17.2257 
G01 X5.3217  Y17.2098 
G01 X5.3146  Y17.1929 
G01 X5.3035  Y17.1783 
G01 X5.2943  Y17.1624 
G01 X5.2813  Y17.1494 
G01 X5.2701  Y17.1348 
G01 X5.2555  Y17.1236 
G01 X5.2425  Y17.1106 
G01 X5.2266  Y17.1014 
G01 X5.2120  Y17.0903 
G01 X5.1951  Y17.0832 
G01 X5.1791  Y17.0740 
G01 X5.1614  Y17.0693 
G01 X5.1444  Y17.0623 
G01 X5.1262  Y17.0599 
G01 X5.1085  Y17.0551 
G01 X5.0901  Y17.0551 
G01 X5.0719  Y17.0527 
G01 X5.0537  Y17.0551 
G01 X5.0353  Y17.0551 
G01 X5.0176  Y17.0599 
G01 X4.9993  Y17.0623 
G01 X4.9824  Y17.0693 
G01 X4.9646  Y17.0741 
G01 X4.9487  Y17.0832 
G01 X4.9387  Y17.0874 
G01 X4.9081  Y17.0956 
G01 X4.7404  Y17.0956 
G01 X4.7404  Y17.0674 
G01 X4.9120  Y17.0674 
G01 X4.9535  Y17.0502 
G01 X4.9852  Y17.0185 
G01 X5.0024  Y16.9770 
G01 X5.0024  Y15.4080 
G01 X4.9852  Y15.3665 
G01 X4.9535  Y15.3348 
G01 X4.9120  Y15.3176 
G01 X4.7404  Y15.3176 
G01 X4.7404  Y15.2894 
G01 X4.9081  Y15.2894 
G01 X4.9386  Y15.2976 
G01 X4.9487  Y15.3018 
G01 X4.9646  Y15.3109 
G01 X4.9824  Y15.3157 
G01 X4.9993  Y15.3227 
G01 X5.0176  Y15.3251 
G01 X5.0353  Y15.3299 
G01 X5.0537  Y15.3299 
G01 X5.0719  Y15.3323 
G01 X5.0901  Y15.3299 
G01 X5.1085  Y15.3299 
G01 X5.1262  Y15.3251 
G01 X5.1444  Y15.3227 
G01 X5.1614  Y15.3157 
G01 X5.1791  Y15.3110 
G01 X5.1951  Y15.3018 
G01 X5.2120  Y15.2947 
G01 X5.2266  Y15.2836 
G01 X5.2425  Y15.2744 
G01 X5.2555  Y15.2614 
G01 X5.2701  Y15.2502 
G01 X5.2813  Y15.2356 
G01 X5.2943  Y15.2226 
G01 X5.3035  Y15.2067 
G01 X5.3146  Y15.1921 
G01 X5.3217  Y15.1752 
G01 X5.3308  Y15.1593 
G01 X5.3356  Y15.1415 
G01 X5.3683  Y15.0626 
G01 X5.3765  Y15.0428 
G01 X5.3963  Y14.9951 
G01 X5.4058  Y14.9225 
G01 X5.3963  Y14.8499 
G01 X5.3693  Y14.7847 
G01 X5.3356  Y14.7035 
G01 X5.3308  Y14.6857 
G01 X5.3217  Y14.6698 
G01 X5.3146  Y14.6529 
G01 X5.3035  Y14.6383 
G01 X5.2943  Y14.6224 
G01 X5.2813  Y14.6094 
G01 X5.2701  Y14.5948 
G01 X5.2555  Y14.5836 
G01 X5.2425  Y14.5706 
G01 X5.2266  Y14.5614 
G01 X5.2120  Y14.5503 
G01 X5.1951  Y14.5432 
G01 X5.1791  Y14.5340 
G01 X5.1614  Y14.5293 
G01 X5.1444  Y14.5223 
G01 X5.1262  Y14.5199 
G01 X5.1085  Y14.5151 
G01 X5.0901  Y14.5151 
G01 X5.0719  Y14.5127 
G01 X5.0537  Y14.5151 
G01 X5.0353  Y14.5151 
G01 X5.0176  Y14.5199 
G01 X4.9993  Y14.5223 
G01 X4.9824  Y14.5293 
G01 X4.9646  Y14.5341 
G01 X4.9487  Y14.5432 
G01 X4.9387  Y14.5474 
G01 X4.9081  Y14.5556 
G01 X4.7404  Y14.5556 
G01 X4.7404  Y14.5274 
G01 X4.9120  Y14.5274 
G01 X4.9535  Y14.5102 
G01 X4.9852  Y14.4785 
G01 X5.0024  Y14.4370 
G01 X5.0024  Y12.8680 
G01 X4.9852  Y12.8265 
G01 X4.9535  Y12.7948 
G01 X4.9120  Y12.7776 
G01 X4.7404  Y12.7776 
G01 X4.7404  Y12.7494 
G01 X4.9081  Y12.7494 
G01 X4.9387  Y12.7576 
G01 X4.9487  Y12.7618 
G01 X4.9646  Y12.7709 
G01 X4.9824  Y12.7757 
G01 X4.9993  Y12.7827 
G01 X5.0176  Y12.7851 
G01 X5.0353  Y12.7899 
G01 X5.0537  Y12.7899 
G01 X5.0719  Y12.7923 
G01 X5.0901  Y12.7899 
G01 X5.1085  Y12.7899 
G01 X5.1262  Y12.7851 
G01 X5.1444  Y12.7827 
G01 X5.1614  Y12.7757 
G01 X5.1791  Y12.7709 
G01 X5.1951  Y12.7618 
G01 X5.2120  Y12.7547 
G01 X5.2266  Y12.7435 
G01 X5.2425  Y12.7344 
G01 X5.2555  Y12.7214 
G01 X5.2701  Y12.7102 
G01 X5.2813  Y12.6956 
G01 X5.2943  Y12.6826 
G01 X5.3035  Y12.6667 
G01 X5.3146  Y12.6521 
G01 X5.3217  Y12.6352 
G01 X5.3308  Y12.6193 
G01 X5.3356  Y12.6015 
G01 X5.3683  Y12.5226 
G01 X5.3833  Y12.4863 
G01 X5.3963  Y12.4550 
G01 X5.4050  Y12.3886 
G01 X5.4058  Y12.3825 
G01 X5.3963  Y12.3099 
G01 X5.3826  Y12.2769 
G01 X5.3683  Y12.2423 
G01 X5.3356  Y12.1635 
G01 X5.3308  Y12.1457 
G01 X5.3217  Y12.1298 
G01 X5.3146  Y12.1129 
G01 X5.3034  Y12.0983 
G01 X5.2942  Y12.0823 
G01 X5.2813  Y12.0694 
G01 X5.2701  Y12.0548 
G01 X5.2555  Y12.0436 
G01 X5.2425  Y12.0306 
G01 X5.2266  Y12.0214 
G01 X5.2120  Y12.0103 
G01 X5.1950  Y12.0032 
G01 X5.1791  Y11.9940 
G01 X5.1614  Y11.9893 
G01 X5.1444  Y11.9823 
G01 X5.1262  Y11.9799 
G01 X5.1084  Y11.9751 
G01 X5.0901  Y11.9751 
G01 X5.0719  Y11.9727 
G01 X5.0537  Y11.9751 
G01 X5.0353  Y11.9751 
G01 X5.0175  Y11.9799 
G01 X4.9993  Y11.9823 
G01 X4.9824  Y11.9893 
G01 X4.9646  Y11.9941 
G01 X4.9487  Y12.0032 
G01 X4.9386  Y12.0074 
G01 X4.9081  Y12.0156 
G01 X4.7404  Y12.0156 
G01 X4.7404  Y11.9874 
G01 X4.9120  Y11.9874 
G01 X4.9535  Y11.9702 
G01 X4.9852  Y11.9384 
G01 X5.0024  Y11.8970 
G01 X5.0024  Y10.3280 
G01 X4.9852  Y10.2865 
G01 X4.9535  Y10.2548 
G01 X4.9120  Y10.2376 
G01 X4.7404  Y10.2376 
G01 X4.7404  Y10.2094 
G01 X4.9081  Y10.2094 
G01 X4.9386  Y10.2176 
G01 X4.9487  Y10.2218 
G01 X4.9646  Y10.2309 
G01 X4.9824  Y10.2357 
G01 X4.9993  Y10.2427 
G01 X5.0176  Y10.2451 
G01 X5.0353  Y10.2499 
G01 X5.0537  Y10.2499 
G01 X5.0719  Y10.2523 
G01 X5.0901  Y10.2499 
G01 X5.1085  Y10.2499 
G01 X5.1262  Y10.2451 
G01 X5.1444  Y10.2427 
G01 X5.1614  Y10.2357 
G01 X5.1791  Y10.2309 
G01 X5.1951  Y10.2218 
G01 X5.2120  Y10.2147 
G01 X5.2266  Y10.2036 
G01 X5.2425  Y10.1944 
G01 X5.2555  Y10.1814 
G01 X5.2701  Y10.1702 
G01 X5.2813  Y10.1556 
G01 X5.2943  Y10.1426 
G01 X5.3035  Y10.1267 
G01 X5.3146  Y10.1121 
G01 X5.3217  Y10.0952 
G01 X5.3308  Y10.0793 
G01 X5.3356  Y10.0615 
G01 X5.3683  Y9.9826  
G01 X5.3765  Y9.9628  
G01 X5.3963  Y9.9151  
G01 X5.4058  Y9.8425  
G01 X5.3963  Y9.7699  
G01 X5.3693  Y9.7047  
G01 X5.3356  Y9.6235  
G01 X5.3308  Y9.6057  
G01 X5.3217  Y9.5898  
G01 X5.3146  Y9.5729  
G01 X5.3035  Y9.5583  
G01 X5.2943  Y9.5424  
G01 X5.2813  Y9.5294  
G01 X5.2701  Y9.5148  
G01 X5.2555  Y9.5036  
G01 X5.2425  Y9.4906  
G01 X5.2266  Y9.4814  
G01 X5.2120  Y9.4703  
G01 X5.1951  Y9.4632  
G01 X5.1791  Y9.4540  
G01 X5.1614  Y9.4493  
G01 X5.1444  Y9.4423  
G01 X5.1262  Y9.4399  
G01 X5.1085  Y9.4351  
G01 X5.0901  Y9.4351  
G01 X5.0719  Y9.4327  
G01 X5.0537  Y9.4351  
G01 X5.0353  Y9.4351  
G01 X5.0176  Y9.4399  
G01 X4.9993  Y9.4423  
G01 X4.9824  Y9.4493  
G01 X4.9646  Y9.4541  
G01 X4.9487  Y9.4632  
G01 X4.9387  Y9.4674  
G01 X4.9081  Y9.4756  
G01 X4.7404  Y9.4756  
G01 X4.7404  Y9.4474  
G01 X4.9120  Y9.4474  
G01 X4.9535  Y9.4302  
G01 X4.9852  Y9.3985  
G01 X5.0024  Y9.3570  
G01 X5.0024  Y7.7880  
G01 X4.9852  Y7.7465  
G01 X4.9535  Y7.7148  
G01 X4.9120  Y7.6976  
G01 X4.7404  Y7.6976  
G01 X4.7404  Y7.6694  
G01 X4.9081  Y7.6694  
G01 X4.9386  Y7.6776  
G01 X4.9487  Y7.6818  
G01 X4.9646  Y7.6909  
G01 X4.9824  Y7.6957  
G01 X4.9993  Y7.7027  
G01 X5.0176  Y7.7051  
G01 X5.0353  Y7.7099  
G01 X5.0537  Y7.7099  
G01 X5.0719  Y7.7123  
G01 X5.0901  Y7.7099  
G01 X5.1085  Y7.7099  
G01 X5.1262  Y7.7051  
G01 X5.1444  Y7.7027  
G01 X5.1614  Y7.6957  
G01 X5.1791  Y7.6909  
G01 X5.1951  Y7.6818  
G01 X5.2120  Y7.6747  
G01 X5.2266  Y7.6636  
G01 X5.2425  Y7.6544  
G01 X5.2555  Y7.6414  
G01 X5.2701  Y7.6302  
G01 X5.2813  Y7.6156  
G01 X5.2943  Y7.6026  
G01 X5.3035  Y7.5867  
G01 X5.3146  Y7.5721  
G01 X5.3217  Y7.5552  
G01 X5.3308  Y7.5393  
G01 X5.3356  Y7.5215  
G01 X5.3683  Y7.4427  
G01 X5.3765  Y7.4228  
G01 X5.3963  Y7.3750  
G01 X5.4058  Y7.3025  
G01 X5.3963  Y7.2299  
G01 X5.3693  Y7.1647  
G01 X5.3356  Y7.0835  
G01 X5.3308  Y7.0657  
G01 X5.3217  Y7.0498  
G01 X5.3146  Y7.0329  
G01 X5.3035  Y7.0183  
G01 X5.2943  Y7.0024  
G01 X5.2813  Y6.9894  
G01 X5.2701  Y6.9748  
G01 X5.2555  Y6.9636  
G01 X5.2425  Y6.9506  
G01 X5.2266  Y6.9414  
G01 X5.2120  Y6.9303  
G01 X5.1951  Y6.9232  
G01 X5.1791  Y6.9140  
G01 X5.1614  Y6.9093  
G01 X5.1444  Y6.9023  
G01 X5.1262  Y6.8999  
G01 X5.1085  Y6.8951  
G01 X5.0901  Y6.8951  
G01 X5.0719  Y6.8927  
G01 X5.0537  Y6.8951  
G01 X5.0353  Y6.8951  
G01 X5.0176  Y6.8999  
G01 X4.9993  Y6.9023  
G01 X4.9824  Y6.9093  
G01 X4.9646  Y6.9141  
G01 X4.9487  Y6.9232  
G01 X4.9387  Y6.9274  
G01 X4.9081  Y6.9356  
G01 X4.7404  Y6.9356  
G01 X4.7404  Y6.9074  
G01 X4.9120  Y6.9074  
G01 X4.9535  Y6.8902  
G01 X4.9852  Y6.8585  
G01 X5.0024  Y6.8170  
G01 X5.0024  Y5.2480  
G01 X4.9852  Y5.2065  
G01 X4.9535  Y5.1748  
G01 X4.9120  Y5.1576  
G01 X4.7404  Y5.1576  
G01 X4.7404  Y5.1294  
G01 X4.9081  Y5.1294  
G01 X4.9386  Y5.1376  
G01 X4.9487  Y5.1418  
G01 X4.9646  Y5.1509  
G01 X4.9824  Y5.1557  
G01 X4.9993  Y5.1627  
G01 X5.0176  Y5.1651  
G01 X5.0353  Y5.1699  
G01 X5.0537  Y5.1699  
G01 X5.0719  Y5.1723  
G01 X5.0901  Y5.1699  
G01 X5.1085  Y5.1699  
G01 X5.1262  Y5.1651  
G01 X5.1444  Y5.1627  
G01 X5.1614  Y5.1557  
G01 X5.1791  Y5.1509  
G01 X5.1951  Y5.1418  
G01 X5.2120  Y5.1347  
G01 X5.2266  Y5.1236  
G01 X5.2425  Y5.1144  
G01 X5.2555  Y5.1014  
G01 X5.2701  Y5.0902  
G01 X5.2813  Y5.0756  
G01 X5.2943  Y5.0626  
G01 X5.3035  Y5.0467  
G01 X5.3146  Y5.0321  
G01 X5.3217  Y5.0152  
G01 X5.3308  Y4.9993  
G01 X5.3356  Y4.9815  
G01 X5.3683  Y4.9027  
G01 X5.3765  Y4.8828  
G01 X5.3963  Y4.8350  
G01 X5.4058  Y4.7625  
G01 X5.3963  Y4.6899  
G01 X5.3693  Y4.6247  
G01 X5.3356  Y4.5435  
G01 X5.3308  Y4.5257  
G01 X5.3217  Y4.5098  
G01 X5.3146  Y4.4929  
G01 X5.3035  Y4.4783  
G01 X5.2943  Y4.4624  
G01 X5.2813  Y4.4494  
G01 X5.2701  Y4.4348  
G01 X5.2555  Y4.4236  
G01 X5.2425  Y4.4106  
G01 X5.2266  Y4.4014  
G01 X5.2120  Y4.3903  
G01 X5.1951  Y4.3832  
G01 X5.1791  Y4.3740  
G01 X5.1614  Y4.3693  
G01 X5.1444  Y4.3623  
G01 X5.1262  Y4.3599  
G01 X5.1085  Y4.3551  
G01 X5.0901  Y4.3551  
G01 X5.0719  Y4.3527  
G01 X5.0537  Y4.3551  
G01 X5.0353  Y4.3551  
G01 X5.0176  Y4.3599  
G01 X4.9993  Y4.3623  
G01 X4.9824  Y4.3693  
G01 X4.9646  Y4.3741  
G01 X4.9487  Y4.3832  
G01 X4.9387  Y4.3874  
G01 X4.9081  Y4.3956  
G01 X4.7404  Y4.3956  
G01 X4.7404  Y4.3674  
G01 X4.9120  Y4.3674  
G01 X4.9535  Y4.3502  
G01 X4.9852  Y4.3185  
G01 X5.0024  Y4.2770  
G01 X5.0024  Y2.7080  
G01 X4.9852  Y2.6665  
G01 X4.9535  Y2.6348  
G01 X4.9120  Y2.6176  
G01 X4.4944  Y2.6176  
G00 Z3.0000  
G00 X5.8098  Y2.6665  
G01 Z-0.0800 F254   
G01 X5.7926  Y2.7080  F508   
G01 X5.7926  Y4.2770  
G01 X5.8098  Y4.3185  
G01 X5.8415  Y4.3502  
G01 X5.8830  Y4.3674  
G01 X6.0546  Y4.3674  
G01 X6.0546  Y5.1576  
G01 X5.8830  Y5.1576  
G01 X5.8415  Y5.1748  
G01 X5.8098  Y5.2065  
G01 X5.7926  Y5.2480  
G01 X5.7926  Y6.8170  
G01 X5.8098  Y6.8585  
G01 X5.8415  Y6.8902  
G01 X5.8830  Y6.9074  
G01 X6.0546  Y6.9074  
G01 X6.0546  Y7.6976  
G01 X5.8830  Y7.6976  
G01 X5.8415  Y7.7148  
G01 X5.8098  Y7.7465  
G01 X5.7926  Y7.7880  
G01 X5.7926  Y9.3570  
G01 X5.8098  Y9.3985  
G01 X5.8415  Y9.4302  
G01 X5.8830  Y9.4474  
G01 X6.0546  Y9.4474  
G01 X6.0546  Y10.2376 
G01 X5.8830  Y10.2376 
G01 X5.8415  Y10.2548 
G01 X5.8098  Y10.2865 
G01 X5.7926  Y10.3280 
G01 X5.7926  Y11.8970 
G01 X5.8098  Y11.9384 
G01 X5.8415  Y11.9702 
G01 X5.8830  Y11.9874 
G01 X6.0546  Y11.9874 
G01 X6.0546  Y12.7776 
G01 X5.8830  Y12.7776 
G01 X5.8415  Y12.7948 
G01 X5.8098  Y12.8265 
G01 X5.7926  Y12.8680 
G01 X5.7926  Y14.4370 
G01 X5.8098  Y14.4785 
G01 X5.8415  Y14.5102 
G01 X5.8830  Y14.5274 
G01 X6.0546  Y14.5274 
G01 X6.0546  Y15.3176 
G01 X5.8830  Y15.3176 
G01 X5.8415  Y15.3348 
G01 X5.8098  Y15.3665 
G01 X5.7926  Y15.4080 
G01 X5.7926  Y16.9770 
G01 X5.8098  Y17.0185 
G01 X5.8415  Y17.0502 
G01 X5.8830  Y17.0674 
G01 X6.0546  Y17.0674 
G01 X6.0546  Y17.8576 
G01 X5.8830  Y17.8576 
G01 X5.8415  Y17.8748 
G01 X5.8098  Y17.9065 
G01 X5.7926  Y17.9480 
G01 X5.7926  Y19.5170 
G01 X5.8098  Y19.5585 
G01 X5.8415  Y19.5902 
G01 X5.8830  Y19.6074 
G01 X6.0546  Y19.6074 
G01 X6.0546  Y20.3976 
G01 X5.8830  Y20.3976 
G01 X5.8415  Y20.4148 
G01 X5.8098  Y20.4465 
G01 X5.7926  Y20.4880 
G01 X5.7926  Y22.0570 
G01 X5.8098  Y22.0984 
G01 X5.8415  Y22.1302 
G01 X5.8830  Y22.1474 
G01 X6.0546  Y22.1474 
G01 X6.0546  Y22.9931 
G01 X4.5275  Y22.9931 
G01 X4.4860  Y23.0103 
G01 X4.4543  Y23.0420 
G01 X4.4371  Y23.0835 
G01 X4.4371  Y25.3285 
G01 X4.4543  Y25.3699 
G01 X4.4860  Y25.4017 
G01 X4.5275  Y25.4189 
G01 X8.1725  Y25.4189 
G01 X8.2140  Y25.4017 
G01 X8.2457  Y25.3699 
G01 X8.2629  Y25.3285 
G01 X8.2629  Y23.0835 
G01 X8.2457  Y23.0420 
G01 X8.2140  Y23.0103 
G01 X8.1725  Y22.9931 
G01 X7.2804  Y22.9931 
G01 X7.2804  Y22.1474 
G01 X7.4520  Y22.1474 
G01 X7.4935  Y22.1302 
G01 X7.5252  Y22.0984 
G01 X7.5424  Y22.0570 
G01 X7.5424  Y20.4880 
G01 X7.5252  Y20.4465 
G01 X7.4935  Y20.4148 
G01 X7.4520  Y20.3976 
G01 X7.2804  Y20.3976 
G01 X7.2804  Y19.6074 
G01 X7.4520  Y19.6074 
G01 X7.4935  Y19.5902 
G01 X7.5252  Y19.5585 
G01 X7.5424  Y19.5170 
G01 X7.5424  Y17.9480 
G01 X7.5252  Y17.9065 
G01 X7.4935  Y17.8748 
G01 X7.4520  Y17.8576 
G01 X7.2804  Y17.8576 
G01 X7.2804  Y17.0674 
G01 X7.4520  Y17.0674 
G01 X7.4935  Y17.0502 
G01 X7.5252  Y17.0185 
G01 X7.5424  Y16.9770 
G01 X7.5424  Y15.4080 
G01 X7.5252  Y15.3665 
G01 X7.4935  Y15.3348 
G01 X7.4520  Y15.3176 
G01 X7.2804  Y15.3176 
G01 X7.2804  Y14.5274 
G01 X7.4520  Y14.5274 
G01 X7.4935  Y14.5102 
G01 X7.5252  Y14.4785 
G01 X7.5424  Y14.4370 
G01 X7.5424  Y12.8680 
G01 X7.5252  Y12.8265 
G01 X7.4935  Y12.7948 
G01 X7.4520  Y12.7776 
G01 X7.2804  Y12.7776 
G01 X7.2804  Y11.9874 
G01 X7.4520  Y11.9874 
G01 X7.4935  Y11.9702 
G01 X7.5252  Y11.9384 
G01 X7.5424  Y11.8970 
G01 X7.5424  Y10.3280 
G01 X7.5252  Y10.2865 
G01 X7.4935  Y10.2548 
G01 X7.4520  Y10.2376 
G01 X7.2804  Y10.2376 
G01 X7.2804  Y9.4474  
G01 X7.4520  Y9.4474  
G01 X7.4935  Y9.4302  
G01 X7.5252  Y9.3985  
G01 X7.5424  Y9.3570  
G01 X7.5424  Y7.7880  
G01 X7.5252  Y7.7465  
G01 X7.4935  Y7.7148  
G01 X7.4520  Y7.6976  
G01 X7.2804  Y7.6976  
G01 X7.2804  Y6.9074  
G01 X7.4520  Y6.9074  
G01 X7.4935  Y6.8902  
G01 X7.5252  Y6.8585  
G01 X7.5424  Y6.8170  
G01 X7.5424  Y5.2480  
G01 X7.5252  Y5.2065  
G01 X7.4935  Y5.1748  
G01 X7.4520  Y5.1576  
G01 X7.2804  Y5.1576  
G01 X7.2804  Y4.3674  
G01 X7.4520  Y4.3674  
G01 X7.4935  Y4.3502  
G01 X7.5252  Y4.3185  
G01 X7.5424  Y4.2770  
G01 X7.5424  Y2.7080  
G01 X7.5252  Y2.6665  
G01 X7.4935  Y2.6348  
G01 X7.4520  Y2.6176  
G01 X5.8830  Y2.6176  
G01 X5.8415  Y2.6348  
G01 X5.8098  Y2.6665  
G00 Z3.0000  
G00 X8.3498  Y2.6665  
G01 Z-0.0800 F254   
G01 X8.3326  Y2.7080  F508   
G01 X8.3326  Y4.2770  
G01 X8.3498  Y4.3185  
G01 X8.3815  Y4.3502  
G01 X8.4230  Y4.3674  
G01 X8.5946  Y4.3674  
G01 X8.5946  Y5.1576  
G01 X8.4230  Y5.1576  
G01 X8.3815  Y5.1748  
G01 X8.3498  Y5.2065  
G01 X8.3326  Y5.2480  
G01 X8.3326  Y6.8170  
G01 X8.3498  Y6.8585  
G01 X8.3815  Y6.8902  
G01 X8.4230  Y6.9074  
G01 X8.5946  Y6.9074  
G01 X8.5946  Y7.6976  
G01 X8.4230  Y7.6976  
G01 X8.3815  Y7.7148  
G01 X8.3498  Y7.7465  
G01 X8.3326  Y7.7880  
G01 X8.3326  Y9.3570  
G01 X8.3498  Y9.3985  
G01 X8.3815  Y9.4302  
G01 X8.4230  Y9.4474  
G01 X8.5946  Y9.4474  
G01 X8.5946  Y10.2376 
G01 X8.4230  Y10.2376 
G01 X8.3815  Y10.2548 
G01 X8.3498  Y10.2865 
G01 X8.3326  Y10.3280 
G01 X8.3326  Y11.8970 
G01 X8.3498  Y11.9384 
G01 X8.3815  Y11.9702 
G01 X8.4230  Y11.9874 
G01 X8.5946  Y11.9874 
G01 X8.5946  Y12.7776 
G01 X8.4230  Y12.7776 
G01 X8.3815  Y12.7948 
G01 X8.3498  Y12.8265 
G01 X8.3326  Y12.8680 
G01 X8.3326  Y14.4370 
G01 X8.3498  Y14.4785 
G01 X8.3815  Y14.5102 
G01 X8.4230  Y14.5274 
G01 X8.5946  Y14.5274 
G01 X8.5946  Y15.3176 
G01 X8.4230  Y15.3176 
G01 X8.3815  Y15.3348 
G01 X8.3498  Y15.3665 
G01 X8.3326  Y15.4080 
G01 X8.3326  Y16.9770 
G01 X8.3498  Y17.0185 
G01 X8.3815  Y17.0502 
G01 X8.4230  Y17.0674 
G01 X8.5946  Y17.0674 
G01 X8.5946  Y17.8576 
G01 X8.4230  Y17.8576 
G01 X8.3815  Y17.8748 
G01 X8.3498  Y17.9065 
G01 X8.3326  Y17.9480 
G01 X8.3326  Y19.5170 
G01 X8.3498  Y19.5585 
G01 X8.3815  Y19.5902 
G01 X8.4230  Y19.6074 
G01 X8.5946  Y19.6074 
G01 X8.5946  Y20.3976 
G01 X8.4230  Y20.3976 
G01 X8.3815  Y20.4148 
G01 X8.3498  Y20.4465 
G01 X8.3326  Y20.4880 
G01 X8.3326  Y22.0570 
G01 X8.3498  Y22.0984 
G01 X8.3815  Y22.1302 
G01 X8.4230  Y22.1474 
G01 X9.9920  Y22.1474 
G01 X10.0335 Y22.1302 
G01 X10.0652 Y22.0984 
G01 X10.0824 Y22.0570 
G01 X10.0824 Y20.4880 
G01 X10.0652 Y20.4465 
G01 X10.0335 Y20.4148 
G01 X9.9920  Y20.3976 
G01 X9.8204  Y20.3976 
G01 X9.8204  Y19.6074 
G01 X9.9920  Y19.6074 
G01 X10.0335 Y19.5902 
G01 X10.0652 Y19.5585 
G01 X10.0824 Y19.5170 
G01 X10.0824 Y17.9480 
G01 X10.0652 Y17.9065 
G01 X10.0335 Y17.8748 
G01 X9.9920  Y17.8576 
G01 X9.8204  Y17.8576 
G01 X9.8204  Y17.0674 
G01 X9.9920  Y17.0674 
G01 X10.0335 Y17.0502 
G01 X10.0652 Y17.0185 
G01 X10.0824 Y16.9770 
G01 X10.0824 Y15.4080 
G01 X10.0652 Y15.3665 
G01 X10.0335 Y15.3348 
G01 X9.9920  Y15.3176 
G01 X9.8204  Y15.3176 
G01 X9.8204  Y14.5274 
G01 X9.9920  Y14.5274 
G01 X10.0335 Y14.5102 
G01 X10.0652 Y14.4785 
G01 X10.0824 Y14.4370 
G01 X10.0824 Y12.8680 
G01 X10.0652 Y12.8265 
G01 X10.0335 Y12.7948 
G01 X9.9920  Y12.7776 
G01 X9.8204  Y12.7776 
G01 X9.8204  Y11.9874 
G01 X9.9920  Y11.9874 
G01 X10.0335 Y11.9702 
G01 X10.0652 Y11.9384 
G01 X10.0824 Y11.8970 
G01 X10.0824 Y10.3280 
G01 X10.0652 Y10.2865 
G01 X10.0335 Y10.2548 
G01 X9.9920  Y10.2376 
G01 X9.8204  Y10.2376 
G01 X9.8204  Y9.4474  
G01 X9.9920  Y9.4474  
G01 X10.0335 Y9.4302  
G01 X10.0652 Y9.3985  
G01 X10.0824 Y9.3570  
G01 X10.0824 Y7.7880  
G01 X10.0652 Y7.7465  
G01 X10.0335 Y7.7148  
G01 X9.9920  Y7.6976  
G01 X9.8204  Y7.6976  
G01 X9.8204  Y6.9074  
G01 X9.9920  Y6.9074  
G01 X10.0335 Y6.8902  
G01 X10.0652 Y6.8585  
G01 X10.0824 Y6.8170  
G01 X10.0824 Y5.2480  
G01 X10.0652 Y5.2065  
G01 X10.0335 Y5.1748  
G01 X9.9920  Y5.1576  
G01 X9.8204  Y5.1576  
G01 X9.8204  Y4.3674  
G01 X9.9920  Y4.3674  
G01 X10.0335 Y4.3502  
G01 X10.0652 Y4.3185  
G01 X10.0824 Y4.2770  
G01 X10.0824 Y2.7080  
G01 X10.0652 Y2.6665  
G01 X10.0335 Y2.6348  
G01 X9.9920  Y2.6176  
G01 X8.4230  Y2.6176  
G01 X8.3815  Y2.6348  
G01 X8.3498  Y2.6665  
G00 Z3.0000  
G00 X10.8898 Y2.6665  
G01 Z-0.0800 F254   
G01 X10.8726 Y2.7080  F508   
G01 X10.8726 Y4.2770  
G01 X10.8898 Y4.3185  
G01 X10.9215 Y4.3502  
G01 X10.9630 Y4.3674  
G01 X12.0385 Y4.3674  
G01 X16.0971 Y8.4260  
G01 X16.0971 Y10.5319 
G01 X16.1252 Y10.6369 
G01 X16.1796 Y10.7310 
G01 X16.2565 Y10.8079 
G01 X18.1615 Y12.7129 
G01 X18.2556 Y12.7673 
G01 X18.2777 Y12.7732 
G01 X18.2875 Y12.7830 
G01 X18.3290 Y12.8002 
G01 X19.8980 Y12.8002 
G01 X19.9395 Y12.7830 
G01 X19.9712 Y12.7513 
G01 X19.9884 Y12.7098 
G01 X19.9884 Y12.0552 
G01 X19.9712 Y12.0137 
G01 X19.9395 Y11.9820 
G01 X19.8980 Y11.9648 
G01 X18.5812 Y11.9648 
G01 X16.9229 Y10.3065 
G01 X16.9229 Y8.2006  
G01 X16.8948 Y8.0956  
G01 X16.8404 Y8.0015  
G01 X12.6224 Y3.7835  
G01 X12.6224 Y2.7080  
G01 X12.6052 Y2.6665  
G01 X12.5734 Y2.6348  
G01 X12.5320 Y2.6176  
G01 X10.9630 Y2.6176  
G01 X10.9215 Y2.6348  
G01 X10.8898 Y2.6665  
G00 Z3.0000  
G00 X10.8898 Y5.2065  
G01 Z-0.0800 F254   
G01 X10.8726 Y5.2480  F508   
G01 X10.8726 Y6.8170  
G01 X10.8898 Y6.8585  
G01 X10.9215 Y6.8902  
G01 X10.9630 Y6.9074  
G01 X12.0385 Y6.9074  
G01 X14.5096 Y9.3785  
G01 X14.5096 Y10.8494 
G01 X14.5377 Y10.9544 
G01 X14.5921 Y11.0485 
G01 X14.6690 Y11.1254 
G01 X17.4496 Y13.9060 
G01 X17.5265 Y13.9829 
G01 X17.6206 Y14.0373 
G01 X17.7256 Y14.0654 
G01 X18.3175 Y14.0654 
G01 X18.3290 Y14.0702 
G01 X19.8980 Y14.0702 
G01 X19.9395 Y14.0530 
G01 X19.9712 Y14.0213 
G01 X19.9884 Y13.9798 
G01 X19.9884 Y13.3252 
G01 X19.9712 Y13.2837 
G01 X19.9395 Y13.2520 
G01 X19.8980 Y13.2348 
G01 X18.3290 Y13.2348 
G01 X18.3175 Y13.2396 
G01 X17.9510 Y13.2396 
G01 X15.3354 Y10.6240 
G01 X15.3354 Y9.1531  
G01 X15.3073 Y9.0481  
G01 X15.2529 Y8.9540  
G01 X12.6224 Y6.3235  
G01 X12.6224 Y5.2480  
G01 X12.6052 Y5.2065  
G01 X12.5734 Y5.1748  
G01 X12.5320 Y5.1576  
G01 X10.9630 Y5.1576  
G01 X10.9215 Y5.1748  
G01 X10.8898 Y5.2065  
G00 Z3.0000  
G00 X10.8898 Y7.7465  
G01 Z-0.0800 F254   
G01 X10.8726 Y7.7880  F508   
G01 X10.8726 Y9.3570  
G01 X10.8898 Y9.3985  
G01 X10.9215 Y9.4302  
G01 X10.9630 Y9.4474  
G01 X12.0385 Y9.4474  
G01 X13.2396 Y10.6485 
G01 X13.2396 Y11.1669 
G01 X13.2677 Y11.2719 
G01 X13.3221 Y11.3660 
G01 X13.3990 Y11.4429 
G01 X17.2090 Y15.2529 
G01 X17.3031 Y15.3073 
G01 X17.4081 Y15.3354 
G01 X18.3175 Y15.3354 
G01 X18.3290 Y15.3402 
G01 X19.8980 Y15.3402 
G01 X19.9395 Y15.3230 
G01 X19.9712 Y15.2912 
G01 X19.9884 Y15.2498 
G01 X19.9884 Y14.5952 
G01 X19.9712 Y14.5537 
G01 X19.9395 Y14.5220 
G01 X19.8980 Y14.5048 
G01 X18.3290 Y14.5048 
G01 X18.3175 Y14.5096 
G01 X17.6335 Y14.5096 
G01 X14.0654 Y10.9415 
G01 X14.0654 Y10.4231 
G01 X14.0373 Y10.3181 
G01 X13.9829 Y10.2240 
G01 X12.6224 Y8.8635  
G01 X12.6224 Y7.7880  
G01 X12.6052 Y7.7465  
G01 X12.5734 Y7.7148  
G01 X12.5320 Y7.6976  
G01 X10.9630 Y7.6976  
G01 X10.9215 Y7.7148  
G01 X10.8898 Y7.7465  
G00 Z3.0000  
G00 X10.8898 Y10.2865 
G01 Z-0.0800 F254   
G01 X10.8726 Y10.3280 F508   
G01 X10.8726 Y11.8970 
G01 X10.8898 Y11.9384 
G01 X10.9215 Y11.9702 
G01 X10.9630 Y11.9874 
G01 X12.0385 Y11.9874 
G01 X16.5740 Y16.5229 
G01 X16.6681 Y16.5773 
G01 X16.7731 Y16.6054 
G01 X18.3175 Y16.6054 
G01 X18.3290 Y16.6102 
G01 X19.8980 Y16.6102 
G01 X19.9395 Y16.5930 
G01 X19.9712 Y16.5613 
G01 X19.9884 Y16.5198 
G01 X19.9884 Y15.8652 
G01 X19.9712 Y15.8237 
G01 X19.9395 Y15.7920 
G01 X19.8980 Y15.7748 
G01 X18.3290 Y15.7748 
G01 X18.3175 Y15.7796 
G01 X16.9985 Y15.7796 
G01 X12.6224 Y11.4035 
G01 X12.6224 Y10.3280 
G01 X12.6052 Y10.2865 
G01 X12.5734 Y10.2548 
G01 X12.5320 Y10.2376 
G01 X10.9630 Y10.2376 
G01 X10.9215 Y10.2548 
G01 X10.8898 Y10.2865 
G00 Z3.0000  
G00 X10.8898 Y12.8265 
G01 Z-0.0800 F254   
G01 X10.8726 Y12.8680 F508   
G01 X10.8726 Y14.4370 
G01 X10.8898 Y14.4785 
G01 X10.9215 Y14.5102 
G01 X10.9630 Y14.5274 
G01 X12.0385 Y14.5274 
G01 X15.3040 Y17.7929 
G01 X15.3981 Y17.8473 
G01 X15.5031 Y17.8754 
G01 X18.3175 Y17.8754 
G01 X18.3290 Y17.8802 
G01 X19.8980 Y17.8802 
G01 X19.9395 Y17.8630 
G01 X19.9712 Y17.8313 
G01 X19.9884 Y17.7898 
G01 X19.9884 Y17.1352 
G01 X19.9712 Y17.0937 
G01 X19.9395 Y17.0620 
G01 X19.8980 Y17.0448 
G01 X18.3290 Y17.0448 
G01 X18.3175 Y17.0496 
G01 X15.7285 Y17.0496 
G01 X12.6224 Y13.9435 
G01 X12.6224 Y12.8680 
G01 X12.6052 Y12.8265 
G01 X12.5734 Y12.7948 
G01 X12.5320 Y12.7776 
G01 X10.9630 Y12.7776 
G01 X10.9215 Y12.7948 
G01 X10.8898 Y12.8265 
G00 Z3.0000  
G00 X10.8898 Y15.3665 
G01 Z-0.0800 F254   
G01 X10.8726 Y15.4080 F508   
G01 X10.8726 Y16.9770 
G01 X10.8898 Y17.0185 
G01 X10.9215 Y17.0502 
G01 X10.9630 Y17.0674 
G01 X12.0385 Y17.0674 
G01 X14.0340 Y19.0629 
G01 X14.1281 Y19.1173 
G01 X14.2331 Y19.1454 
G01 X18.3175 Y19.1454 
G01 X18.3290 Y19.1502 
G01 X19.8980 Y19.1502 
G01 X19.9395 Y19.1330 
G01 X19.9712 Y19.1013 
G01 X19.9884 Y19.0598 
G01 X19.9884 Y18.4052 
G01 X19.9712 Y18.3637 
G01 X19.9395 Y18.3320 
G01 X19.8980 Y18.3148 
G01 X18.3290 Y18.3148 
G01 X18.3175 Y18.3196 
G01 X14.4585 Y18.3196 
G01 X12.6224 Y16.4835 
G01 X12.6224 Y15.4080 
G01 X12.6052 Y15.3665 
G01 X12.5734 Y15.3348 
G01 X12.5320 Y15.3176 
G01 X10.9630 Y15.3176 
G01 X10.9215 Y15.3348 
G01 X10.8898 Y15.3665 
G00 Z3.0000  
G00 X10.8898 Y17.9065 
G01 Z-0.0800 F254   
G01 X10.8726 Y17.9480 F508   
G01 X10.8726 Y19.5170 
G01 X10.8898 Y19.5585 
G01 X10.9215 Y19.5902 
G01 X10.9630 Y19.6074 
G01 X12.0385 Y19.6074 
G01 X12.7640 Y20.3329 
G01 X12.8581 Y20.3873 
G01 X12.9631 Y20.4154 
G01 X18.3175 Y20.4154 
G01 X18.3290 Y20.4202 
G01 X19.8980 Y20.4202 
G01 X19.9395 Y20.4030 
G01 X19.9712 Y20.3712 
G01 X19.9884 Y20.3298 
G01 X19.9884 Y19.6752 
G01 X19.9712 Y19.6337 
G01 X19.9395 Y19.6020 
G01 X19.8980 Y19.5848 
G01 X18.3290 Y19.5848 
G01 X18.3175 Y19.5896 
G01 X13.1885 Y19.5896 
G01 X12.6224 Y19.0235 
G01 X12.6224 Y17.9480 
G01 X12.6052 Y17.9065 
G01 X12.5734 Y17.8748 
G01 X12.5320 Y17.8576 
G01 X10.9630 Y17.8576 
G01 X10.9215 Y17.8748 
G01 X10.8898 Y17.9065 
G00 Z3.0000  
G00 X10.8898 Y20.4465 
G01 Z-0.0800 F254   
G01 X10.8726 Y20.4880 F508   
G01 X10.8726 Y22.0570 
G01 X10.8898 Y22.0984 
G01 X10.9215 Y22.1302 
G01 X10.9630 Y22.1474 
G01 X12.5320 Y22.1474 
G01 X12.5734 Y22.1302 
G01 X12.6052 Y22.0984 
G01 X12.6224 Y22.0570 
G01 X12.6224 Y21.6854 
G01 X18.3175 Y21.6854 
G01 X18.3290 Y21.6902 
G01 X19.8980 Y21.6902 
G01 X19.9395 Y21.6730 
G01 X19.9712 Y21.6412 
G01 X19.9884 Y21.5998 
G01 X19.9884 Y20.9452 
G01 X19.9712 Y20.9037 
G01 X19.9395 Y20.8720 
G01 X19.8980 Y20.8548 
G01 X18.3290 Y20.8548 
G01 X18.3175 Y20.8596 
G01 X12.6224 Y20.8596 
G01 X12.6224 Y20.4880 
G01 X12.6052 Y20.4465 
G01 X12.5734 Y20.4148 
G01 X12.5320 Y20.3976 
G01 X10.9630 Y20.3976 
G01 X10.9215 Y20.4148 
G01 X10.8898 Y20.4465 
G00 Z3.0000  
G00 X11.7942 Y25.5367 
G01 Z-0.0800 F254   
G01 X11.9092 Y25.4531 F508   
G01 X12.0156 Y25.3989 
G01 X12.0156 Y25.4305 
G01 X11.9681 Y25.4502 
G01 X11.8248 Y25.5459 
G01 X11.7029 Y25.6678 
G01 X11.6072 Y25.8111 
G01 X11.5412 Y25.9703 
G01 X11.5076 Y26.1393 
G01 X11.5076 Y26.6206 
G01 X11.4794 Y26.6206 
G01 X11.4794 Y26.1544 
G01 X11.5016 Y26.0140 
G01 X11.5456 Y25.8788 
G01 X11.6101 Y25.7522 
G01 X11.6937 Y25.6371 
G01 X11.7942 Y25.5367 
G00 Z3.0000  
G00 X14.2429 Y25.6678 
G01 Z-0.0800 F254   
G01 X14.1472 Y25.8111 F508   
G01 X14.0812 Y25.9703 
G01 X14.0476 Y26.1393 
G01 X14.0476 Y27.8357 
G01 X14.0812 Y28.0047 
G01 X14.1472 Y28.1639 
G01 X14.2429 Y28.3072 
G01 X14.3648 Y28.4291 
G01 X14.5081 Y28.5248 
G01 X14.6673 Y28.5908 
G01 X14.8363 Y28.6244 
G01 X15.0087 Y28.6244 
G01 X15.1777 Y28.5908 
G01 X15.3369 Y28.5248 
G01 X15.4802 Y28.4291 
G01 X15.6021 Y28.3072 
G01 X15.6529 Y28.2311 
G01 X16.6996 Y29.2778 
G01 X16.6996 Y31.5087 
G01 X16.6874 Y31.5209 
G01 X16.6702 Y31.5624 
G01 X16.6702 Y32.8774 
G01 X16.6874 Y32.9188 
G01 X16.7191 Y32.9506 
G01 X16.7606 Y32.9678 
G01 X17.3644 Y32.9678 
G01 X17.4059 Y32.9506 
G01 X17.4376 Y32.9188 
G01 X17.4548 Y32.8774 
G01 X17.4548 Y31.5624 
G01 X17.4376 Y31.5209 
G01 X17.4254 Y31.5087 
G01 X17.4254 Y29.0797 
G01 X17.4007 Y28.9874 
G01 X17.3529 Y28.9047 
G01 X15.7974 Y27.3492 
G01 X15.7974 Y26.1393 
G01 X15.7638 Y25.9703 
G01 X15.6978 Y25.8111 
G01 X15.6021 Y25.6678 
G01 X15.4802 Y25.5459 
G01 X15.3369 Y25.4502 
G01 X15.1777 Y25.3842 
G01 X15.0087 Y25.3506 
G01 X14.8363 Y25.3506 
G01 X14.6673 Y25.3842 
G01 X14.5081 Y25.4502 
G01 X14.3648 Y25.5459 
G01 X14.2429 Y25.6678 
G00 Z3.0000  
G00 X16.5371 Y25.6228 
G01 Z-0.0800 F254   
G01 X16.6047 Y25.6904 F508   
G01 X17.4996 Y26.5853 
G01 X17.4996 Y31.5087 
G01 X17.4874 Y31.5209 
G01 X17.4702 Y31.5624 
G01 X17.4702 Y32.8774 
G01 X17.4874 Y32.9188 
G01 X17.5191 Y32.9506 
G01 X17.5606 Y32.9678 
G01 X18.1644 Y32.9678 
G01 X18.2059 Y32.9506 
G01 X18.2376 Y32.9188 
G01 X18.2548 Y32.8774 
G01 X18.2548 Y31.5624 
G01 X18.2376 Y31.5209 
G01 X18.2254 Y31.5087 
G01 X18.2254 Y26.3872 
G01 X18.2007 Y26.2949 
G01 X18.1529 Y26.2122 
G01 X17.1904 Y25.2497 
G01 X17.1904 Y24.2803 
G01 X17.9946 Y23.4761 
G01 X18.6232 Y23.4761 
G01 X18.6647 Y23.4589 
G01 X18.6964 Y23.4272 
G01 X18.7136 Y23.3857 
G01 X18.7136 Y22.3343 
G01 X18.6964 Y22.2928 
G01 X18.6647 Y22.2611 
G01 X18.6232 Y22.2439 
G01 X17.5718 Y22.2439 
G01 X17.5303 Y22.2611 
G01 X17.4986 Y22.2928 
G01 X17.4814 Y22.3343 
G01 X17.4814 Y22.9629 
G01 X16.5371 Y23.9072 
G01 X16.4893 Y23.9899 
G01 X16.4646 Y24.0822 
G01 X16.4646 Y25.4478 
G01 X16.4893 Y25.5401 
G01 X16.5371 Y25.6228 
G00 Z3.0000  
G00 X17.5303 Y25.3639 
G01 Z-0.0800 F254   
G01 X17.5718 Y25.3811 F508   
G01 X18.2004 Y25.3811 
G01 X18.2996 Y25.4803 
G01 X18.2996 Y31.5087 
G01 X18.2874 Y31.5209 
G01 X18.2702 Y31.5624 
G01 X18.2702 Y32.8774 
G01 X18.2874 Y32.9188 
G01 X18.3191 Y32.9506 
G01 X18.3606 Y32.9678 
G01 X18.9644 Y32.9678 
G01 X19.0058 Y32.9506 
G01 X19.0376 Y32.9188 
G01 X19.0548 Y32.8774 
G01 X19.0548 Y31.5624 
G01 X19.0376 Y31.5209 
G01 X19.0254 Y31.5087 
G01 X19.0254 Y25.2822 
G01 X19.0007 Y25.1899 
G01 X18.9529 Y25.1072 
G01 X18.8853 Y25.0396 
G01 X18.7136 Y24.8679 
G01 X18.7136 Y24.2393 
G01 X18.6964 Y24.1978 
G01 X18.6647 Y24.1661 
G01 X18.6232 Y24.1489 
G01 X17.5718 Y24.1489 
G01 X17.5303 Y24.1661 
G01 X17.4986 Y24.1978 
G01 X17.4814 Y24.2393 
G01 X17.4814 Y25.2907 
G01 X17.4986 Y25.3321 
G01 X17.5303 Y25.3639 
G00 Z3.0000  
G00 X19.0996 Y23.6697 
G01 Z-0.0800 F254   
G01 X19.0996 Y31.5087 F508   
G01 X19.0874 Y31.5209 
G01 X19.0702 Y31.5624 
G01 X19.0702 Y32.8774 
G01 X19.0874 Y32.9188 
G01 X19.1191 Y32.9506 
G01 X19.1606 Y32.9678 
G01 X19.7644 Y32.9678 
G01 X19.8058 Y32.9506 
G01 X19.8376 Y32.9188 
G01 X19.8548 Y32.8774 
G01 X19.8548 Y31.5624 
G01 X19.8376 Y31.5209 
G01 X19.8254 Y31.5087 
G01 X19.8254 Y23.8678 
G01 X21.1778 Y22.5154 
G01 X21.2454 Y22.4478 
G01 X21.2932 Y22.3651 
G01 X21.3179 Y22.2728 
G01 X21.3179 Y16.9778 
G01 X23.0103 Y15.2854 
G01 X23.7144 Y15.2854 
G01 X23.7168 Y15.2912 
G01 X23.7485 Y15.3230 
G01 X23.7900 Y15.3402 
G01 X25.3590 Y15.3402 
G01 X25.4004 Y15.3230 
G01 X25.4322 Y15.2912 
G01 X25.4346 Y15.2854 
G01 X31.2822 Y15.2854 
G01 X32.0221 Y16.0253 
G01 X32.0221 Y17.9472 
G01 X31.4767 Y18.4926 
G01 X30.7526 Y18.4926 
G01 X30.2401 Y19.0051 
G01 X30.2401 Y19.7299 
G01 X30.7526 Y20.2424 
G01 X31.4774 Y20.2424 
G01 X31.9899 Y19.7299 
G01 X31.9899 Y19.0058 
G01 X32.6078 Y18.3879 
G01 X32.6754 Y18.3203 
G01 X32.7232 Y18.2376 
G01 X32.7479 Y18.1453 
G01 X32.7479 Y15.8272 
G01 X32.7232 Y15.7349 
G01 X32.6754 Y15.6522 
G01 X31.7229 Y14.6997 
G01 X31.6553 Y14.6321 
G01 X31.5726 Y14.5843 
G01 X31.4803 Y14.5596 
G01 X25.4346 Y14.5596 
G01 X25.4322 Y14.5537 
G01 X25.4004 Y14.5220 
G01 X25.3590 Y14.5048 
G01 X23.7900 Y14.5048 
G01 X23.7485 Y14.5220 
G01 X23.7168 Y14.5537 
G01 X23.7144 Y14.5596 
G01 X22.8122 Y14.5596 
G01 X22.7199 Y14.5843 
G01 X22.6372 Y14.6321 
G01 X22.5696 Y14.6997 
G01 X20.6646 Y16.6047 
G01 X20.6168 Y16.6874 
G01 X20.5921 Y16.7797 
G01 X20.5921 Y22.0747 
G01 X19.1721 Y23.4947 
G01 X19.1243 Y23.5774 
G01 X19.0996 Y23.6697 
G00 Z3.0000  
G00 X19.9721 Y23.9647 
G01 Z-0.0800 F254   
G01 X19.9243 Y24.0474 F508   
G01 X19.8996 Y24.1397 
G01 X19.8996 Y31.5087 
G01 X19.8874 Y31.5209 
G01 X19.8702 Y31.5624 
G01 X19.8702 Y32.8774 
G01 X19.8874 Y32.9188 
G01 X19.9191 Y32.9506 
G01 X19.9606 Y32.9678 
G01 X20.5644 Y32.9678 
G01 X20.6059 Y32.9506 
G01 X20.6376 Y32.9188 
G01 X20.6548 Y32.8774 
G01 X20.6548 Y31.5624 
G01 X20.6376 Y31.5209 
G01 X20.6254 Y31.5087 
G01 X20.6254 Y24.3378 
G01 X22.1303 Y22.8329 
G01 X22.1979 Y22.7653 
G01 X22.2457 Y22.6826 
G01 X22.2704 Y22.5903 
G01 X22.2704 Y17.6128 
G01 X23.3278 Y16.5554 
G01 X23.7144 Y16.5554 
G01 X23.7168 Y16.5613 
G01 X23.7485 Y16.5930 
G01 X23.7900 Y16.6102 
G01 X25.3590 Y16.6102 
G01 X25.4004 Y16.5930 
G01 X25.4322 Y16.5613 
G01 X25.4346 Y16.5554 
G01 X27.7001 Y16.5554 
G01 X27.7001 Y17.1899 
G01 X28.2126 Y17.7024 
G01 X28.9374 Y17.7024 
G01 X29.4499 Y17.1899 
G01 X29.4499 Y16.4651 
G01 X28.9374 Y15.9526 
G01 X28.2133 Y15.9526 
G01 X28.1628 Y15.9021 
G01 X28.0801 Y15.8543 
G01 X27.9878 Y15.8296 
G01 X25.4346 Y15.8296 
G01 X25.4322 Y15.8237 
G01 X25.4004 Y15.7920 
G01 X25.3590 Y15.7748 
G01 X23.7900 Y15.7748 
G01 X23.7485 Y15.7920 
G01 X23.7168 Y15.8237 
G01 X23.7144 Y15.8296 
G01 X23.1297 Y15.8296 
G01 X23.0374 Y15.8543 
G01 X22.9547 Y15.9021 
G01 X22.8871 Y15.9697 
G01 X21.6171 Y17.2397 
G01 X21.5693 Y17.3224 
G01 X21.5446 Y17.4147 
G01 X21.5446 Y22.3922 
G01 X19.9721 Y23.9647 
G00 Z3.0000  
G00 X23.7485 Y21.6730 
G01 Z-0.0800 F254   
G01 X23.7900 Y21.6902 F508   
G01 X24.4790 Y21.6902 
G01 X24.7196 Y21.9308 
G01 X24.7196 Y29.5464 
G01 X24.5568 Y29.5464 
G01 X24.5153 Y29.5636 
G01 X24.4836 Y29.5953 
G01 X24.4664 Y29.6368 
G01 X24.4664 Y30.2654 
G01 X23.9072 Y30.8246 
G01 X23.8396 Y30.8922 
G01 X23.7918 Y30.9749 
G01 X23.7671 Y31.0672 
G01 X23.7671 Y33.1872 
G01 X22.8047 Y34.1496 
G01 X22.4663 Y34.1496 
G01 X22.4540 Y34.1374 
G01 X22.4126 Y34.1202 
G01 X21.0976 Y34.1202 
G01 X21.0561 Y34.1374 
G01 X21.0439 Y34.1496 
G01 X17.8272 Y34.1496 
G01 X17.7349 Y34.1743 
G01 X17.6522 Y34.2221 
G01 X17.5846 Y34.2897 
G01 X16.9247 Y34.9496 
G01 X13.8811 Y34.9496 
G01 X13.8689 Y34.9374 
G01 X13.8274 Y34.9202 
G01 X12.5124 Y34.9202 
G01 X12.4709 Y34.9374 
G01 X12.4587 Y34.9496 
G01 X11.8079 Y34.9496 
G01 X11.8079 Y34.6075 
G01 X11.8000 Y34.5886 
G01 X11.9557 Y34.5886 
G01 X11.9971 Y34.5714 
G01 X12.0289 Y34.5397 
G01 X12.0461 Y34.4982 
G01 X12.0461 Y33.4468 
G01 X12.0289 Y33.4053 
G01 X11.9971 Y33.3736 
G01 X11.9557 Y33.3564 
G01 X10.9043 Y33.3564 
G01 X10.8628 Y33.3736 
G01 X10.8311 Y33.4053 
G01 X10.8139 Y33.4468 
G01 X10.8139 Y34.0754 
G01 X10.5722 Y34.3171 
G01 X10.5046 Y34.3847 
G01 X10.4568 Y34.4674 
G01 X10.4435 Y34.5171 
G01 X9.8725  Y34.5171 
G01 X9.8310  Y34.5343 
G01 X9.7993  Y34.5660 
G01 X9.7821  Y34.6075 
G01 X9.7821  Y36.2525 
G01 X9.7993  Y36.2940 
G01 X9.8310  Y36.3257 
G01 X9.8725  Y36.3429 
G01 X10.4321 Y36.3429 
G01 X10.4321 Y36.5603 
G01 X10.4568 Y36.6526 
G01 X10.5046 Y36.7353 
G01 X10.5722 Y36.8029 
G01 X10.9722 Y37.2029 
G01 X11.0549 Y37.2507 
G01 X11.1472 Y37.2754 
G01 X12.4587 Y37.2754 
G01 X12.4709 Y37.2876 
G01 X12.5124 Y37.3048 
G01 X13.8274 Y37.3048 
G01 X13.8689 Y37.2876 
G01 X13.9006 Y37.2559 
G01 X13.9178 Y37.2144 
G01 X13.9178 Y36.6106 
G01 X13.9006 Y36.5691 
G01 X13.8689 Y36.5374 
G01 X13.8274 Y36.5202 
G01 X12.5124 Y36.5202 
G01 X12.4709 Y36.5374 
G01 X12.4587 Y36.5496 
G01 X11.3453 Y36.5496 
G01 X11.1579 Y36.3622 
G01 X11.1579 Y36.3429 
G01 X11.7175 Y36.3429 
G01 X11.7590 Y36.3257 
G01 X11.7907 Y36.2940 
G01 X11.8079 Y36.2525 
G01 X11.8079 Y35.6754 
G01 X12.4587 Y35.6754 
G01 X12.4709 Y35.6876 
G01 X12.5124 Y35.7048 
G01 X13.8274 Y35.7048 
G01 X13.8689 Y35.6876 
G01 X13.8811 Y35.6754 
G01 X17.1228 Y35.6754 
G01 X17.2151 Y35.6507 
G01 X17.2978 Y35.6029 
G01 X17.3654 Y35.5353 
G01 X18.0253 Y34.8754 
G01 X21.0439 Y34.8754 
G01 X21.0561 Y34.8876 
G01 X21.0976 Y34.9048 
G01 X22.4126 Y34.9048 
G01 X22.4540 Y34.8876 
G01 X22.4663 Y34.8754 
G01 X23.0028 Y34.8754 
G01 X23.0951 Y34.8507 
G01 X23.1778 Y34.8029 
G01 X24.4204 Y33.5603 
G01 X24.4682 Y33.4776 
G01 X24.4929 Y33.3853 
G01 X24.4929 Y31.2653 
G01 X24.9796 Y30.7786 
G01 X25.6082 Y30.7786 
G01 X25.6497 Y30.7614 
G01 X25.6814 Y30.7296 
G01 X25.6986 Y30.6882 
G01 X25.6986 Y29.6368 
G01 X25.6814 Y29.5953 
G01 X25.6497 Y29.5636 
G01 X25.6082 Y29.5464 
G01 X25.4454 Y29.5464 
G01 X25.4454 Y25.7629 
G01 X26.8971 Y25.7629 
G01 X26.8971 Y26.3225 
G01 X26.9143 Y26.3639 
G01 X26.9460 Y26.3957 
G01 X26.9875 Y26.4129 
G01 X28.6325 Y26.4129 
G01 X28.6740 Y26.3957 
G01 X28.7057 Y26.3639 
G01 X28.7229 Y26.3225 
G01 X28.7229 Y24.4775 
G01 X28.7057 Y24.4360 
G01 X28.6740 Y24.4043 
G01 X28.6325 Y24.3871 
G01 X26.9875 Y24.3871 
G01 X26.9460 Y24.4043 
G01 X26.9143 Y24.4360 
G01 X26.8971 Y24.4775 
G01 X26.8971 Y25.0371 
G01 X25.4454 Y25.0371 
G01 X25.4454 Y22.5879 
G01 X28.9114 Y22.5879 
G01 X28.9114 Y22.7507 
G01 X28.9286 Y22.7921 
G01 X28.9603 Y22.8239 
G01 X29.0018 Y22.8411 
G01 X30.0532 Y22.8411 
G01 X30.0947 Y22.8239 
G01 X30.1264 Y22.7921 
G01 X30.1436 Y22.7507 
G01 X30.1436 Y21.6993 
G01 X30.1264 Y21.6578 
G01 X30.0947 Y21.6261 
G01 X30.0532 Y21.6089 
G01 X29.0018 Y21.6089 
G01 X28.9603 Y21.6261 
G01 X28.9286 Y21.6578 
G01 X28.9114 Y21.6993 
G01 X28.9114 Y21.8621 
G01 X25.4454 Y21.8621 
G01 X25.4454 Y21.7327 
G01 X25.4233 Y21.6502 
G01 X25.4322 Y21.6412 
G01 X25.4494 Y21.5998 
G01 X25.4494 Y20.9452 
G01 X25.4322 Y20.9037 
G01 X25.4004 Y20.8720 
G01 X25.3590 Y20.8548 
G01 X24.9374 Y20.8548 
G01 X24.9374 Y20.4202 
G01 X25.3590 Y20.4202 
G01 X25.4004 Y20.4030 
G01 X25.4322 Y20.3712 
G01 X25.4494 Y20.3298 
G01 X25.4494 Y19.6752 
G01 X25.4322 Y19.6337 
G01 X25.4004 Y19.6020 
G01 X25.3590 Y19.5848 
G01 X23.7900 Y19.5848 
G01 X23.7485 Y19.6020 
G01 X23.7168 Y19.6337 
G01 X23.6996 Y19.6752 
G01 X23.6996 Y20.3298 
G01 X23.7168 Y20.3712 
G01 X23.7485 Y20.4030 
G01 X23.7900 Y20.4202 
G01 X24.2116 Y20.4202 
G01 X24.2116 Y20.8548 
G01 X23.7900 Y20.8548 
G01 X23.7485 Y20.8720 
G01 X23.7168 Y20.9037 
G01 X23.6996 Y20.9452 
G01 X23.6996 Y21.5998 
G01 X23.7168 Y21.6412 
G01 X23.7485 Y21.6730 
G00 Z3.0000  
G00 X23.7485 Y17.8630 
G01 Z-0.0800 F254   
G01 X23.7900 Y17.8802 F508   
G01 X25.3590 Y17.8802 
G01 X25.4004 Y17.8630 
G01 X25.4322 Y17.8313 
G01 X25.4346 Y17.8254 
G01 X26.8372 Y17.8254 
G01 X27.3997 Y18.3879 
G01 X27.4824 Y18.4357 
G01 X27.5747 Y18.4604 
G01 X29.8928 Y18.4604 
G01 X29.9851 Y18.4357 
G01 X30.0678 Y18.3879 
G01 X30.1354 Y18.3203 
G01 X30.7533 Y17.7024 
G01 X31.4774 Y17.7024 
G01 X31.9899 Y17.1899 
G01 X31.9899 Y16.4651 
G01 X31.4774 Y15.9526 
G01 X30.7526 Y15.9526 
G01 X30.2401 Y16.4651 
G01 X30.2401 Y17.1892 
G01 X29.6947 Y17.7346 
G01 X27.7728 Y17.7346 
G01 X27.2103 Y17.1721 
G01 X27.1276 Y17.1243 
G01 X27.0353 Y17.0996 
G01 X25.4346 Y17.0996 
G01 X25.4322 Y17.0937 
G01 X25.4004 Y17.0620 
G01 X25.3590 Y17.0448 
G01 X23.7900 Y17.0448 
G01 X23.7485 Y17.0620 
G01 X23.7168 Y17.0937 
G01 X23.7144 Y17.0996 
G01 X23.4472 Y17.0996 
G01 X23.3549 Y17.1243 
G01 X23.2722 Y17.1721 
G01 X23.2046 Y17.2397 
G01 X22.5696 Y17.8747 
G01 X22.5218 Y17.9574 
G01 X22.4971 Y18.0497 
G01 X22.4971 Y33.2045 
G01 X22.3991 Y33.3202 
G01 X21.0976 Y33.3202 
G01 X21.0561 Y33.3374 
G01 X21.0244 Y33.3691 
G01 X21.0072 Y33.4106 
G01 X21.0072 Y34.0144 
G01 X21.0244 Y34.0558 
G01 X21.0561 Y34.0876 
G01 X21.0976 Y34.1048 
G01 X22.4126 Y34.1048 
G01 X22.4540 Y34.0876 
G01 X22.4663 Y34.0754 
G01 X22.5099 Y34.0754 
G01 X22.5249 Y34.0781 
G01 X22.5575 Y34.0754 
G01 X22.5903 Y34.0754 
G01 X22.6050 Y34.0715 
G01 X22.6201 Y34.0702 
G01 X22.6510 Y34.0591 
G01 X22.6826 Y34.0507 
G01 X22.6957 Y34.0431 
G01 X22.7101 Y34.0379 
G01 X22.7370 Y34.0193 
G01 X22.7653 Y34.0029 
G01 X22.7761 Y33.9921 
G01 X22.7886 Y33.9835 
G01 X22.8097 Y33.9585 
G01 X22.8329 Y33.9353 
G01 X22.8405 Y33.9221 
G01 X23.1272 Y33.5835 
G01 X23.1504 Y33.5603 
G01 X23.1580 Y33.5471 
G01 X23.1678 Y33.5355 
G01 X23.1818 Y33.5059 
G01 X23.1982 Y33.4776 
G01 X23.2021 Y33.4629 
G01 X23.2086 Y33.4491 
G01 X23.2144 Y33.4169 
G01 X23.2229 Y33.3853 
G01 X23.2229 Y33.3701 
G01 X23.2256 Y33.3551 
G01 X23.2229 Y33.3225 
G01 X23.2229 Y18.2478 
G01 X23.6453 Y17.8254 
G01 X23.7144 Y17.8254 
G01 X23.7168 Y17.8313 
G01 X23.7485 Y17.8630 
G00 Z3.0000  
G00 X23.7485 Y14.0530 
G01 Z-0.0800 F254   
G01 X23.7900 Y14.0702 F508   
G01 X25.3590 Y14.0702 
G01 X25.4004 Y14.0530 
G01 X25.4322 Y14.0213 
G01 X25.4346 Y14.0154 
G01 X26.0539 Y14.0154 
G01 X26.0539 Y14.1782 
G01 X26.0711 Y14.2196 
G01 X26.1028 Y14.2514 
G01 X26.1443 Y14.2686 
G01 X27.1957 Y14.2686 
G01 X27.2371 Y14.2514 
G01 X27.2689 Y14.2196 
G01 X27.2861 Y14.1782 
G01 X27.2861 Y13.1268 
G01 X27.2689 Y13.0853 
G01 X27.2371 Y13.0536 
G01 X27.1957 Y13.0364 
G01 X26.1443 Y13.0364 
G01 X26.1028 Y13.0536 
G01 X26.0711 Y13.0853 
G01 X26.0539 Y13.1268 
G01 X26.0539 Y13.2896 
G01 X25.4346 Y13.2896 
G01 X25.4322 Y13.2837 
G01 X25.4004 Y13.2520 
G01 X25.3590 Y13.2348 
G01 X23.7900 Y13.2348 
G01 X23.7485 Y13.2520 
G01 X23.7168 Y13.2837 
G01 X23.6996 Y13.3252 
G01 X23.6996 Y13.9798 
G01 X23.7168 Y14.0213 
G01 X23.7485 Y14.0530 
G00 Z3.0000  
G00 X23.6996 Y12.1046 
G01 Z-0.0800 F254   
G01 X23.6714 Y12.1046 F508   
G01 X23.6714 Y12.0591 
G01 X23.6810 Y12.0232 
G01 X23.6996 Y11.9911 
G01 X23.7259 Y11.9648 
G01 X23.7580 Y11.9462 
G01 X23.7939 Y11.9366 
G01 X24.2966 Y11.9366 
G01 X24.2966 Y11.9648 
G01 X23.7900 Y11.9648 
G01 X23.7485 Y11.9820 
G01 X23.7168 Y12.0137 
G01 X23.6996 Y12.0552 
G01 X23.6996 Y12.1046 
G00 Z3.0000  
G00 X24.8524 Y11.9648 
G01 Z-0.0800 F254   
G01 X24.8524 Y11.9366 F508   
G01 X25.3551 Y11.9366 
G01 X25.3910 Y11.9462 
G01 X25.4231 Y11.9648 
G01 X25.4494 Y11.9911 
G01 X25.4659 Y12.0196 
G01 X25.4346 Y12.0196 
G01 X25.4322 Y12.0137 
G01 X25.4004 Y11.9820 
G01 X25.3590 Y11.9648 
G01 X24.8524 Y11.9648 
G00 Z3.0000  
G00 X23.4755 Y6.9230  
G01 Z-0.0800 F254   
G01 X22.9276 Y7.2393  F508   
G01 X22.3164 Y7.4031  
G01 X21.6836 Y7.4031  
G01 X21.0724 Y7.2393  
G01 X20.5245 Y6.9230  
G01 X20.0770 Y6.4755  
G01 X19.7607 Y5.9276  
G01 X19.5969 Y5.3164  
G01 X19.5969 Y4.6836  
G01 X19.7607 Y4.0724  
G01 X20.0770 Y3.5245  
G01 X20.5245 Y3.0770  
G01 X21.0724 Y2.7607  
G01 X21.6836 Y2.5969  
G01 X22.3164 Y2.5969  
G01 X22.9276 Y2.7607  
G01 X23.4755 Y3.0770  
G01 X23.9230 Y3.5244  
G01 X24.2393 Y4.0724  
G01 X24.4031 Y4.6836  
G01 X24.4031 Y5.3164  
G01 X24.2393 Y5.9276  
G01 X23.9230 Y6.4755  
G01 X23.4755 Y6.9230  
G00 Z3.0000  
G00 X30.1862 Y5.9451  
G01 Z-0.0800 F254   
G01 X30.1120 Y5.8430  F508   
G01 X30.0547 Y5.7306  
G01 X30.0157 Y5.6106  
G01 X29.9960 Y5.4860  
G01 X29.9960 Y5.0786  
G01 X30.0242 Y5.0786  
G01 X30.0242 Y5.4991  
G01 X30.0539 Y5.6485  
G01 X30.1122 Y5.7892  
G01 X30.1968 Y5.9158  
G01 X30.3045 Y6.0236  
G01 X30.4312 Y6.1082  
G01 X30.4346 Y6.1096  
G01 X30.4346 Y6.1375  
G01 X30.3774 Y6.1084  
G01 X30.2753 Y6.0342  
G01 X30.1862 Y5.9451  
G00 Z3.0000  
G00 X31.1604 Y6.1096  
G01 Z-0.0800 F254   
G01 X31.1638 Y6.1082  F508   
G01 X31.2904 Y6.0236  
G01 X31.3982 Y5.9158  
G01 X31.4828 Y5.7892  
G01 X31.5411 Y5.6485  
G01 X31.5708 Y5.4991  
G01 X31.5708 Y4.0259  
G01 X31.5411 Y3.8765  
G01 X31.4828 Y3.7358  
G01 X31.3982 Y3.6092  
G01 X31.2904 Y3.5014  
G01 X31.1638 Y3.4168  
G01 X31.1136 Y3.3960  
G01 X31.1136 Y3.3636  
G01 X31.2176 Y3.4166  
G01 X31.3196 Y3.4907  
G01 X31.4088 Y3.5799  
G01 X31.4830 Y3.6820  
G01 X31.5403 Y3.7944  
G01 X31.5475 Y3.8167  
G01 X31.5535 Y3.8260  
G01 X31.5578 Y3.8362  
G01 X31.5734 Y3.8565  
G01 X31.5874 Y3.8781  
G01 X31.5956 Y3.8854  
G01 X31.6023 Y3.8942  
G01 X31.6227 Y3.9099  
G01 X31.6417 Y3.9270  
G01 X31.6516 Y3.9320  
G01 X31.6604 Y3.9388  
G01 X31.6841 Y3.9486  
G01 X31.7069 Y3.9602  
G01 X31.7177 Y3.9625  
G01 X31.7280 Y3.9668  
G01 X31.7534 Y3.9701  
G01 X31.7785 Y3.9755  
G01 X31.7896 Y3.9749  
G01 X31.8005 Y3.9763  
G01 X31.8259 Y3.9730  
G01 X31.8516 Y3.9716  
G01 X31.8621 Y3.9682  
G01 X31.8730 Y3.9668  
G01 X31.8967 Y3.9570  
G01 X31.9212 Y3.9490  
G01 X31.9305 Y3.9430  
G01 X31.9407 Y3.9388  
G01 X31.9610 Y3.9231  
G01 X31.9825 Y3.9092  
G01 X31.9899 Y3.9010  
G01 X31.9987 Y3.8942  
G01 X32.0143 Y3.8738  
G01 X32.0315 Y3.8548  
G01 X32.0365 Y3.8449  
G01 X32.0432 Y3.8362  
G01 X32.0531 Y3.8124  
G01 X32.0647 Y3.7896  
G01 X32.0670 Y3.7788  
G01 X32.2375 Y3.3671  
G01 X32.6025 Y3.0021  
G01 X33.0794 Y2.8046  
G01 X33.5956 Y2.8046  
G01 X34.0725 Y3.0021  
G01 X34.3851 Y3.3148  
G01 X34.4369 Y3.3665  
G01 X34.4776 Y3.3900  
G01 X34.5002 Y3.4031  
G01 X34.5679 Y3.4212  
G01 X34.5709 Y3.4220  
G01 X34.6441 Y3.4220  
G01 X34.7148 Y3.4031  
G01 X34.7781 Y3.3665  
G01 X35.1425 Y3.0021  
G01 X35.6194 Y2.8046  
G01 X36.1356 Y2.8046  
G01 X36.6125 Y3.0021  
G01 X36.9251 Y3.3148  
G01 X36.9769 Y3.3665  
G01 X37.0175 Y3.3900  
G01 X37.0402 Y3.4031  
G01 X37.1079 Y3.4212  
G01 X37.1109 Y3.4220  
G01 X37.1841 Y3.4220  
G01 X37.2548 Y3.4031  
G01 X37.3181 Y3.3665  
G01 X37.6825 Y3.0021  
G01 X38.1594 Y2.8046  
G01 X38.6756 Y2.8046  
G01 X39.1525 Y3.0021  
G01 X39.4651 Y3.3148  
G01 X39.5169 Y3.3665  
G01 X39.5575 Y3.3900  
G01 X39.5802 Y3.4031  
G01 X39.6479 Y3.4212  
G01 X39.6509 Y3.4220  
G01 X39.7241 Y3.4220  
G01 X39.7948 Y3.4031  
G01 X39.8581 Y3.3665  
G01 X40.2225 Y3.0021  
G01 X40.6994 Y2.8046  
G01 X41.2156 Y2.8046  
G01 X41.6925 Y3.0021  
G01 X42.0051 Y3.3148  
G01 X42.0569 Y3.3665  
G01 X42.0975 Y3.3900  
G01 X42.1202 Y3.4031  
G01 X42.1879 Y3.4212  
G01 X42.1909 Y3.4220  
G01 X42.2641 Y3.4220  
G01 X42.3348 Y3.4031  
G01 X42.3981 Y3.3665  
G01 X42.7625 Y3.0021  
G01 X43.2394 Y2.8046  
G01 X43.7556 Y2.8046  
G01 X44.2325 Y3.0021  
G01 X44.5975 Y3.3671  
G01 X44.7950 Y3.8440  
G01 X44.7950 Y5.6810  
G01 X44.5975 Y6.1579  
G01 X44.2325 Y6.5229  
G01 X43.7556 Y6.7204  
G01 X43.2394 Y6.7204  
G01 X42.7625 Y6.5229  
G01 X42.3981 Y6.1585  
G01 X42.3362 Y6.1227  
G01 X42.3318 Y6.1211  
G01 X42.2641 Y6.1029  
G01 X42.1909 Y6.1029  
G01 X42.1202 Y6.1219  
G01 X42.0965 Y6.1356  
G01 X42.0569 Y6.1585  
G01 X42.0051 Y6.2102  
G01 X41.6925 Y6.5229  
G01 X41.2156 Y6.7204  
G01 X40.6994 Y6.7204  
G01 X40.2225 Y6.5229  
G01 X39.8581 Y6.1585  
G01 X39.7962 Y6.1227  
G01 X39.7918 Y6.1211  
G01 X39.7241 Y6.1029  
G01 X39.6509 Y6.1029  
G01 X39.5802 Y6.1219  
G01 X39.5565 Y6.1356  
G01 X39.5169 Y6.1585  
G01 X39.4651 Y6.2102  
G01 X39.1525 Y6.5229  
G01 X38.6756 Y6.7204  
G01 X38.1594 Y6.7204  
G01 X37.6825 Y6.5229  
G01 X37.3181 Y6.1585  
G01 X37.2562 Y6.1227  
G01 X37.2518 Y6.1211  
G01 X37.1841 Y6.1029  
G01 X37.1109 Y6.1029  
G01 X37.0402 Y6.1219  
G01 X37.0165 Y6.1356  
G01 X36.9769 Y6.1585  
G01 X36.9251 Y6.2102  
G01 X36.6125 Y6.5229  
G01 X36.1356 Y6.7204  
G01 X35.6194 Y6.7204  
G01 X35.1425 Y6.5229  
G01 X34.7781 Y6.1585  
G01 X34.7162 Y6.1227  
G01 X34.7118 Y6.1211  
G01 X34.6441 Y6.1029  
G01 X34.5709 Y6.1029  
G01 X34.5002 Y6.1219  
G01 X34.4765 Y6.1356  
G01 X34.4369 Y6.1585  
G01 X34.3851 Y6.2102  
G01 X34.0725 Y6.5229  
G01 X33.5956 Y6.7204  
G01 X33.0794 Y6.7204  
G01 X32.6025 Y6.5229  
G01 X32.2375 Y6.1579  
G01 X32.0670 Y5.7462  
G01 X32.0647 Y5.7354  
G01 X32.0531 Y5.7126  
G01 X32.0432 Y5.6888  
G01 X32.0365 Y5.6800  
G01 X32.0315 Y5.6702  
G01 X32.0143 Y5.6511  
G01 X31.9987 Y5.6308  
G01 X31.9899 Y5.6240  
G01 X31.9825 Y5.6158  
G01 X31.9610 Y5.6018  
G01 X31.9407 Y5.5862  
G01 X31.9305 Y5.5820  
G01 X31.9212 Y5.5760  
G01 X31.8967 Y5.5680  
G01 X31.8730 Y5.5582  
G01 X31.8621 Y5.5568  
G01 X31.8516 Y5.5534  
G01 X31.8259 Y5.5520  
G01 X31.8005 Y5.5487  
G01 X31.7896 Y5.5501  
G01 X31.7785 Y5.5495  
G01 X31.7534 Y5.5549  
G01 X31.7280 Y5.5582  
G01 X31.7177 Y5.5625  
G01 X31.7069 Y5.5648  
G01 X31.6841 Y5.5764  
G01 X31.6604 Y5.5862  
G01 X31.6516 Y5.5930  
G01 X31.6417 Y5.5980  
G01 X31.6227 Y5.6151  
G01 X31.6023 Y5.6308  
G01 X31.5956 Y5.6395  
G01 X31.5874 Y5.6469  
G01 X31.5734 Y5.6685  
G01 X31.5578 Y5.6888  
G01 X31.5535 Y5.6990  
G01 X31.5475 Y5.7083  
G01 X31.5403 Y5.7306  
G01 X31.4830 Y5.8430  
G01 X31.4088 Y5.9451  
G01 X31.3196 Y6.0342  
G01 X31.2176 Y6.1084  
G01 X31.1604 Y6.1375  
G01 X31.1604 Y6.1096  
G00 Z3.0000  
G00 X32.8445 Y6.0236  
G01 Z-0.0800 F254   
G01 X32.9712 Y6.1082  F508   
G01 X33.1119 Y6.1665  
G01 X33.2613 Y6.1962  
G01 X33.4137 Y6.1962  
G01 X33.5631 Y6.1665  
G01 X33.7038 Y6.1082  
G01 X33.8304 Y6.0236  
G01 X33.9382 Y5.9158  
G01 X34.0228 Y5.7892  
G01 X34.0811 Y5.6485  
G01 X34.1108 Y5.4991  
G01 X34.1108 Y4.0259  
G01 X34.0811 Y3.8765  
G01 X34.0228 Y3.7358  
G01 X33.9382 Y3.6092  
G01 X33.8304 Y3.5014  
G01 X33.7038 Y3.4168  
G01 X33.5631 Y3.3585  
G01 X33.4137 Y3.3288  
G01 X33.2613 Y3.3288  
G01 X33.1119 Y3.3585  
G01 X32.9712 Y3.4168  
G01 X32.8445 Y3.5014  
G01 X32.7368 Y3.6092  
G01 X32.6522 Y3.7358  
G01 X32.5939 Y3.8765  
G01 X32.5642 Y4.0259  
G01 X32.5642 Y5.4991  
G01 X32.5939 Y5.6485  
G01 X32.6522 Y5.7892  
G01 X32.7368 Y5.9158  
G01 X32.8445 Y6.0236  
G00 Z3.0000  
G00 X35.3845 Y6.0236  
G01 Z-0.0800 F254   
G01 X35.5112 Y6.1082  F508   
G01 X35.6519 Y6.1665  
G01 X35.8013 Y6.1962  
G01 X35.9537 Y6.1962  
G01 X36.1031 Y6.1665  
G01 X36.2438 Y6.1082  
G01 X36.3704 Y6.0236  
G01 X36.4782 Y5.9158  
G01 X36.5628 Y5.7892  
G01 X36.6211 Y5.6485  
G01 X36.6508 Y5.4991  
G01 X36.6508 Y4.0259  
G01 X36.6211 Y3.8765  
G01 X36.5628 Y3.7358  
G01 X36.4782 Y3.6092  
G01 X36.3704 Y3.5014  
G01 X36.2438 Y3.4168  
G01 X36.1031 Y3.3585  
G01 X35.9537 Y3.3288  
G01 X35.8013 Y3.3288  
G01 X35.6519 Y3.3585  
G01 X35.5112 Y3.4168  
G01 X35.3845 Y3.5014  
G01 X35.2768 Y3.6092  
G01 X35.1922 Y3.7358  
G01 X35.1339 Y3.8765  
G01 X35.1042 Y4.0259  
G01 X35.1042 Y5.4991  
G01 X35.1339 Y5.6485  
G01 X35.1922 Y5.7892  
G01 X35.2768 Y5.9158  
G01 X35.3845 Y6.0236  
G00 Z3.0000  
G00 X37.9246 Y6.0236  
G01 Z-0.0800 F254   
G01 X38.0512 Y6.1082  F508   
G01 X38.1919 Y6.1665  
G01 X38.3413 Y6.1962  
G01 X38.4937 Y6.1962  
G01 X38.6431 Y6.1665  
G01 X38.7838 Y6.1082  
G01 X38.9104 Y6.0236  
G01 X39.0182 Y5.9158  
G01 X39.1028 Y5.7892  
G01 X39.1611 Y5.6485  
G01 X39.1908 Y5.4991  
G01 X39.1908 Y4.0259  
G01 X39.1611 Y3.8765  
G01 X39.1028 Y3.7358  
G01 X39.0182 Y3.6092  
G01 X38.9104 Y3.5014  
G01 X38.7838 Y3.4168  
G01 X38.6431 Y3.3585  
G01 X38.4937 Y3.3288  
G01 X38.3413 Y3.3288  
G01 X38.1919 Y3.3585  
G01 X38.0512 Y3.4168  
G01 X37.9246 Y3.5014  
G01 X37.8168 Y3.6092  
G01 X37.7322 Y3.7358  
G01 X37.6739 Y3.8765  
G01 X37.6442 Y4.0259  
G01 X37.6442 Y5.4991  
G01 X37.6739 Y5.6485  
G01 X37.7322 Y5.7892  
G01 X37.8168 Y5.9158  
G01 X37.9246 Y6.0236  
G00 Z3.0000  
G00 X40.4646 Y6.0236  
G01 Z-0.0800 F254   
G01 X40.5912 Y6.1082  F508   
G01 X40.7319 Y6.1665  
G01 X40.8813 Y6.1962  
G01 X41.0337 Y6.1962  
G01 X41.1831 Y6.1665  
G01 X41.3238 Y6.1082  
G01 X41.4504 Y6.0236  
G01 X41.5582 Y5.9158  
G01 X41.6428 Y5.7892  
G01 X41.7011 Y5.6485  
G01 X41.7308 Y5.4991  
G01 X41.7308 Y4.0259  
G01 X41.7011 Y3.8765  
G01 X41.6428 Y3.7358  
G01 X41.5582 Y3.6092  
G01 X41.4504 Y3.5014  
G01 X41.3238 Y3.4168  
G01 X41.1831 Y3.3585  
G01 X41.0337 Y3.3288  
G01 X40.8813 Y3.3288  
G01 X40.7319 Y3.3585  
G01 X40.5912 Y3.4168  
G01 X40.4646 Y3.5014  
G01 X40.3568 Y3.6092  
G01 X40.2722 Y3.7358  
G01 X40.2139 Y3.8765  
G01 X40.1842 Y4.0259  
G01 X40.1842 Y5.4991  
G01 X40.2139 Y5.6485  
G01 X40.2722 Y5.7892  
G01 X40.3568 Y5.9158  
G01 X40.4646 Y6.0236  
G00 Z3.0000  
G00 X43.0046 Y6.0236  
G01 Z-0.0800 F254   
G01 X43.1312 Y6.1082  F508   
G01 X43.2719 Y6.1665  
G01 X43.4213 Y6.1962  
G01 X43.5737 Y6.1962  
G01 X43.7231 Y6.1665  
G01 X43.8638 Y6.1082  
G01 X43.9904 Y6.0236  
G01 X44.0982 Y5.9158  
G01 X44.1828 Y5.7892  
G01 X44.2411 Y5.6485  
G01 X44.2708 Y5.4991  
G01 X44.2708 Y4.0259  
G01 X44.2411 Y3.8765  
G01 X44.1828 Y3.7358  
G01 X44.0982 Y3.6092  
G01 X43.9904 Y3.5014  
G01 X43.8638 Y3.4168  
G01 X43.7231 Y3.3585  
G01 X43.5737 Y3.3288  
G01 X43.4213 Y3.3288  
G01 X43.2719 Y3.3585  
G01 X43.1312 Y3.4168  
G01 X43.0046 Y3.5014  
G01 X42.8968 Y3.6092  
G01 X42.8122 Y3.7358  
G01 X42.7539 Y3.8765  
G01 X42.7242 Y4.0259  
G01 X42.7242 Y5.4991  
G01 X42.7539 Y5.6485  
G01 X42.8122 Y5.7892  
G01 X42.8968 Y5.9158  
G01 X43.0046 Y6.0236  
G00 Z3.0000  
G00 X30.0242 Y4.4464  
G01 Z-0.0800 F254   
G01 X29.9960 Y4.4464  F508   
G01 X29.9960 Y4.0390  
G01 X30.0157 Y3.9144  
G01 X30.0547 Y3.7944  
G01 X30.1120 Y3.6820  
G01 X30.1862 Y3.5799  
G01 X30.2753 Y3.4907  
G01 X30.3774 Y3.4166  
G01 X30.4814 Y3.3636  
G01 X30.4814 Y3.3960  
G01 X30.4312 Y3.4168  
G01 X30.3045 Y3.5014  
G01 X30.1968 Y3.6092  
G01 X30.1122 Y3.7358  
G01 X30.0539 Y3.8765  
G01 X30.0242 Y4.0259  
G01 X30.0242 Y4.4464  
G00 Z3.0000  
G00 X32.7801 Y16.4651 
G01 Z-0.0800 F254   
G01 X32.7801 Y17.1899 F508   
G01 X33.2926 Y17.7024 
G01 X34.0174 Y17.7024 
G01 X34.5299 Y17.1899 
G01 X34.5299 Y16.4651 
G01 X34.0174 Y15.9526 
G01 X33.2926 Y15.9526 
G01 X32.7801 Y16.4651 
G00 Z3.0000  
G00 X34.4500 Y19.7344 
G01 Z-0.0800 F254   
G01 X34.4816 Y19.7344 F508   
G01 X34.4274 Y19.8408 
G01 X34.3438 Y19.9558 
G01 X34.2679 Y20.0318 
G01 X34.2679 Y19.9919 
G01 X34.3346 Y19.9252 
G01 X34.4303 Y19.7819 
G01 X34.4500 Y19.7344 
G00 Z3.0000  
G00 X31.9996 Y22.2611 
G01 Z-0.0800 F254   
G01 X31.9582 Y22.2439 F508   
G01 X30.9068 Y22.2439 
G01 X30.8653 Y22.2611 
G01 X30.8336 Y22.2928 
G01 X30.8164 Y22.3343 
G01 X30.8164 Y22.9629 
G01 X30.6472 Y23.1321 
G01 X29.4797 Y23.1321 
G01 X29.3874 Y23.1568 
G01 X29.3047 Y23.2046 
G01 X28.9872 Y23.5221 
G01 X28.9196 Y23.5897 
G01 X28.8718 Y23.6724 
G01 X28.8471 Y23.7647 
G01 X28.8471 Y26.8372 
G01 X26.6971 Y28.9872 
G01 X26.6493 Y29.0699 
G01 X26.6246 Y29.1622 
G01 X26.6246 Y31.9172 
G01 X24.2247 Y34.3171 
G01 X24.1571 Y34.3847 
G01 X24.1093 Y34.4674 
G01 X24.0846 Y34.5597 
G01 X24.0846 Y34.9439 
G01 X23.9218 Y34.9439 
G01 X23.8803 Y34.9611 
G01 X23.8486 Y34.9928 
G01 X23.8314 Y35.0343 
G01 X23.8314 Y36.0857 
G01 X23.8486 Y36.1272 
G01 X23.8803 Y36.1589 
G01 X23.9218 Y36.1761 
G01 X24.9732 Y36.1761 
G01 X25.0146 Y36.1589 
G01 X25.0464 Y36.1272 
G01 X25.0636 Y36.0857 
G01 X25.0636 Y35.0343 
G01 X25.0464 Y34.9928 
G01 X25.0146 Y34.9611 
G01 X24.9732 Y34.9439 
G01 X24.8104 Y34.9439 
G01 X24.8104 Y34.7578 
G01 X27.2779 Y32.2903 
G01 X27.3257 Y32.2076 
G01 X27.3504 Y32.1153 
G01 X27.3504 Y29.3603 
G01 X29.5004 Y27.2103 
G01 X29.5482 Y27.1276 
G01 X29.5729 Y27.0353 
G01 X29.5729 Y23.9628 
G01 X29.6778 Y23.8579 
G01 X30.8453 Y23.8579 
G01 X30.9376 Y23.8332 
G01 X31.0203 Y23.7854 
G01 X31.0879 Y23.7178 
G01 X31.3296 Y23.4761 
G01 X31.9582 Y23.4761 
G01 X31.9996 Y23.4589 
G01 X32.0314 Y23.4272 
G01 X32.0486 Y23.3857 
G01 X32.0486 Y22.3343 
G01 X32.0314 Y22.2928 
G01 X31.9996 Y22.2611 
G00 Z3.0000  
G00 X31.5511 Y25.8429 
G01 Z-0.0800 F254   
G01 X31.5511 Y26.3186 F508   
G01 X31.5415 Y26.3545 
G01 X31.5229 Y26.3866 
G01 X31.4966 Y26.4129 
G01 X31.4645 Y26.4315 
G01 X31.4286 Y26.4411 
G01 X31.0529 Y26.4411 
G01 X31.0529 Y26.4129 
G01 X31.4325 Y26.4129 
G01 X31.4739 Y26.3957 
G01 X31.5057 Y26.3639 
G01 X31.5229 Y26.3225 
G01 X31.5229 Y25.8429 
G01 X31.5511 Y25.8429 
G00 Z3.0000  
G00 X31.4088 Y28.9799 
G01 Z-0.0800 F254   
G01 X31.4830 Y29.0820 F508   
G01 X31.5403 Y29.1944 
G01 X31.5793 Y29.3144 
G01 X31.5990 Y29.4390 
G01 X31.5990 Y29.5496 
G01 X31.5708 Y29.5496 
G01 X31.5708 Y29.4259 
G01 X31.5411 Y29.2765 
G01 X31.4828 Y29.1358 
G01 X31.3982 Y29.0092 
G01 X31.2904 Y28.9014 
G01 X31.1638 Y28.8168 
G01 X31.1136 Y28.7960 
G01 X31.1136 Y28.7636 
G01 X31.2176 Y28.8166 
G01 X31.3196 Y28.8908 
G01 X31.4088 Y28.9799 
G00 Z3.0000  
G00 X30.4814 Y28.7960 
G01 Z-0.0800 F254   
G01 X30.4312 Y28.8168 F508   
G01 X30.3045 Y28.9014 
G01 X30.1968 Y29.0092 
G01 X30.1122 Y29.1358 
G01 X30.0539 Y29.2765 
G01 X30.0242 Y29.4259 
G01 X30.0242 Y29.8464 
G01 X29.9960 Y29.8464 
G01 X29.9960 Y29.4390 
G01 X30.0157 Y29.3144 
G01 X30.0547 Y29.1944 
G01 X30.1120 Y29.0820 
G01 X30.1862 Y28.9799 
G01 X30.2753 Y28.8908 
G01 X30.3774 Y28.8166 
G01 X30.4814 Y28.7636 
G01 X30.4814 Y28.7960 
G00 Z3.0000  
G00 X32.7246 Y28.9821 
G01 Z-0.0800 F254   
G01 X32.7246 Y29.0275 F508   
G01 X32.6522 Y29.1358 
G01 X32.5939 Y29.2765 
G01 X32.5642 Y29.4259 
G01 X32.5642 Y29.5496 
G01 X32.5360 Y29.5496 
G01 X32.5360 Y29.4390 
G01 X32.5557 Y29.3144 
G01 X32.5947 Y29.1944 
G01 X32.6520 Y29.0820 
G01 X32.7246 Y28.9821 
G00 Z3.0000  
G00 X32.5642 Y30.7754 
G01 Z-0.0800 F254   
G01 X32.5642 Y30.8991 F508   
G01 X32.5939 Y31.0485 
G01 X32.6522 Y31.1892 
G01 X32.7246 Y31.2975 
G01 X32.7246 Y31.3429 
G01 X32.6520 Y31.2430 
G01 X32.5947 Y31.1306 
G01 X32.5557 Y31.0106 
G01 X32.5360 Y30.8860 
G01 X32.5360 Y30.7754 
G01 X32.5642 Y30.7754 
G00 Z3.0000  
G00 X31.5990 Y30.7754 
G01 Z-0.0800 F254   
G01 X31.5990 Y30.8860 F508   
G01 X31.5793 Y31.0106 
G01 X31.5403 Y31.1306 
G01 X31.4830 Y31.2430 
G01 X31.4088 Y31.3451 
G01 X31.3196 Y31.4342 
G01 X31.2176 Y31.5084 
G01 X31.1136 Y31.5614 
G01 X31.1136 Y31.5290 
G01 X31.1638 Y31.5082 
G01 X31.2904 Y31.4236 
G01 X31.3982 Y31.3158 
G01 X31.4828 Y31.1892 
G01 X31.5411 Y31.0485 
G01 X31.5708 Y30.8991 
G01 X31.5708 Y30.7754 
G01 X31.5990 Y30.7754 
G00 Z3.0000  
G00 X30.4814 Y31.5290 
G01 Z-0.0800 F254   
G01 X30.4814 Y31.5614 F508   
G01 X30.3774 Y31.5084 
G01 X30.2753 Y31.4342 
G01 X30.1862 Y31.3451 
G01 X30.1618 Y31.3115 
G01 X30.1810 Y31.2922 
G01 X30.1968 Y31.3158 
G01 X30.3045 Y31.4236 
G01 X30.4312 Y31.5082 
G01 X30.4814 Y31.5290 
G00 Z3.0000  
G00 X30.7583 Y33.7164 
G01 Z-0.0800 F254   
G01 X31.2725 Y33.9294 F508   
G01 X31.3041 Y33.9610 
G01 X31.3675 Y33.9976 
G01 X31.4382 Y34.0165 
G01 X32.7204 Y34.0165 
G01 X32.7509 Y34.0083 
G01 X32.7911 Y33.9976 
G01 X32.8170 Y33.9826 
G01 X32.8544 Y33.9610 
G01 X32.9512 Y33.8642 
G01 X33.1854 Y33.7672 
G01 X35.4454 Y33.7672 
G01 X35.6796 Y33.8642 
G01 X35.8588 Y34.0434 
G01 X35.9558 Y34.2776 
G01 X35.9558 Y36.0296 
G01 X35.9033 Y36.1564 
G01 X35.8940 Y36.1788 
G01 X35.8753 Y36.2240 
G01 X35.8665 Y36.2905 
G01 X35.8657 Y36.2966 
G01 X35.8753 Y36.3691 
G01 X35.9033 Y36.4367 
G01 X35.9558 Y36.5636 
G01 X35.9558 Y38.3156 
G01 X35.8588 Y38.5498 
G01 X35.6796 Y38.7290 
G01 X35.6482 Y38.7420 
G01 X35.6304 Y38.7468 
G01 X35.6145 Y38.7560 
G01 X35.5975 Y38.7630 
G01 X35.5830 Y38.7742 
G01 X35.5671 Y38.7834 
G01 X35.5541 Y38.7963 
G01 X35.5395 Y38.8075 
G01 X35.5283 Y38.8221 
G01 X35.5153 Y38.8351 
G01 X35.5061 Y38.8510 
G01 X35.4950 Y38.8656 
G01 X35.4879 Y38.8826 
G01 X35.4787 Y38.8985 
G01 X35.4740 Y38.9162 
G01 X35.4669 Y38.9332 
G01 X35.4646 Y38.9514 
G01 X35.4598 Y38.9691 
G01 X35.4598 Y38.9875 
G01 X35.4574 Y39.0057 
G01 X35.4598 Y39.0239 
G01 X35.4598 Y39.0746 
G01 X35.4316 Y39.0746 
G01 X35.4316 Y38.9538 
G01 X35.4144 Y38.9123 
G01 X35.3826 Y38.8806 
G01 X35.3412 Y38.8634 
G01 X33.2896 Y38.8634 
G01 X33.2481 Y38.8806 
G01 X33.2164 Y38.9123 
G01 X33.1992 Y38.9538 
G01 X33.1992 Y39.2827 
G01 X33.1710 Y39.2827 
G01 X33.1710 Y39.0239 
G01 X33.1734 Y39.0057 
G01 X33.1710 Y38.9875 
G01 X33.1710 Y38.9691 
G01 X33.1662 Y38.9514 
G01 X33.1638 Y38.9332 
G01 X33.1568 Y38.9162 
G01 X33.1521 Y38.8985 
G01 X33.1429 Y38.8826 
G01 X33.1358 Y38.8656 
G01 X33.1247 Y38.8510 
G01 X33.1155 Y38.8351 
G01 X33.1025 Y38.8221 
G01 X33.0913 Y38.8075 
G01 X33.0767 Y38.7963 
G01 X33.0637 Y38.7834 
G01 X33.0478 Y38.7742 
G01 X33.0332 Y38.7630 
G01 X33.0163 Y38.7560 
G01 X33.0004 Y38.7468 
G01 X32.9826 Y38.7420 
G01 X32.9512 Y38.7290 
G01 X32.7720 Y38.5498 
G01 X32.6750 Y38.3156 
G01 X32.6750 Y36.5320 
G01 X32.6561 Y36.4613 
G01 X32.6195 Y36.3980 
G01 X32.5677 Y36.3462 
G01 X32.5044 Y36.3096 
G01 X32.4337 Y36.2907 
G01 X32.1204 Y36.2907 
G01 X32.0497 Y36.3096 
G01 X31.9864 Y36.3462 
G01 X31.9346 Y36.3980 
G01 X31.8980 Y36.4613 
G01 X31.8791 Y36.5320 
G01 X31.8791 Y36.9178 
G01 X31.6661 Y37.4320 
G01 X31.6546 Y37.4435 
G01 X31.6283 Y37.4698 
G01 X31.6029 Y37.4952 
G01 X31.5869 Y37.5229 
G01 X31.5663 Y37.5586 
G01 X31.5586 Y37.5872 
G01 X31.5474 Y37.6293 
G01 X31.5474 Y37.6663 
G01 X31.5474 Y37.7025 
G01 X31.5511 Y37.7164 
G01 X31.5511 Y38.2921 
G01 X31.5229 Y38.2921 
G01 X31.5229 Y37.7125 
G01 X31.5057 Y37.6710 
G01 X31.4739 Y37.6393 
G01 X31.4325 Y37.6221 
G01 X29.8803 Y37.6221 
G01 X29.5229 Y37.2647 
G01 X29.5229 Y34.1563 
G01 X29.5482 Y34.1126 
G01 X29.5642 Y34.0526 
G01 X29.6875 Y33.9294 
G01 X30.2017 Y33.7164 
G01 X30.7583 Y33.7164 
G00 Z3.0000  
G00 X30.7352 Y34.2742 
G01 Z-0.0800 F254   
G01 X30.5662 Y34.2406 F508   
G01 X30.3938 Y34.2406 
G01 X30.2248 Y34.2742 
G01 X30.0656 Y34.3402 
G01 X29.9223 Y34.4359 
G01 X29.8004 Y34.5578 
G01 X29.7047 Y34.7011 
G01 X29.6387 Y34.8603 
G01 X29.6051 Y35.0293 
G01 X29.6051 Y36.7257 
G01 X29.6387 Y36.8947 
G01 X29.7047 Y37.0539 
G01 X29.8004 Y37.1972 
G01 X29.9223 Y37.3191 
G01 X30.0656 Y37.4148 
G01 X30.2248 Y37.4808 
G01 X30.3938 Y37.5144 
G01 X30.5662 Y37.5144 
G01 X30.7352 Y37.4808 
G01 X30.8944 Y37.4148 
G01 X31.0377 Y37.3191 
G01 X31.1596 Y37.1972 
G01 X31.2553 Y37.0539 
G01 X31.3213 Y36.8947 
G01 X31.3549 Y36.7257 
G01 X31.3549 Y35.8694 
G01 X31.4578 Y35.7665 
G01 X33.1992 Y35.7665 
G01 X33.1992 Y35.9254 
G01 X33.2164 Y35.9669 
G01 X33.2481 Y35.9986 
G01 X33.2896 Y36.0158 
G01 X35.3412 Y36.0158 
G01 X35.3826 Y35.9986 
G01 X35.4144 Y35.9669 
G01 X35.4316 Y35.9254 
G01 X35.4316 Y34.3818 
G01 X35.4144 Y34.3403 
G01 X35.3826 Y34.3086 
G01 X35.3412 Y34.2914 
G01 X33.2896 Y34.2914 
G01 X33.2481 Y34.3086 
G01 X33.2164 Y34.3403 
G01 X33.1992 Y34.3818 
G01 X33.1992 Y34.5407 
G01 X31.1435 Y34.5407 
G01 X31.0377 Y34.4359 
G01 X30.8944 Y34.3402 
G01 X30.7352 Y34.2742 
G00 Z3.0000  
G00 X28.8971 Y34.1728 
G01 Z-0.0800 F254   
G01 X28.8971 Y37.2812 F508   
G01 X28.8718 Y37.3249 
G01 X28.8471 Y37.4172 
G01 X28.8471 Y37.5128 
G01 X28.8718 Y37.6051 
G01 X28.9196 Y37.6878 
G01 X29.6971 Y38.4653 
G01 X29.6971 Y39.7575 
G01 X29.7143 Y39.7989 
G01 X29.7460 Y39.8307 
G01 X29.7875 Y39.8479 
G01 X30.1671 Y39.8479 
G01 X30.1671 Y40.0985 
G01 X30.1860 Y40.1692 
G01 X30.2226 Y40.2326 
G01 X30.5717 Y40.5816 
G01 X30.6234 Y40.6334 
G01 X30.6868 Y40.6700 
G01 X30.7575 Y40.6889 
G01 X31.8897 Y40.6889 
G01 X32.1239 Y40.7859 
G01 X32.3031 Y40.9651 
G01 X32.3935 Y41.1833 
G01 X32.3983 Y41.2011 
G01 X32.4074 Y41.2170 
G01 X32.4145 Y41.2340 
G01 X32.4257 Y41.2486 
G01 X32.4348 Y41.2645 
G01 X32.4478 Y41.2775 
G01 X32.4590 Y41.2920 
G01 X32.4736 Y41.3032 
G01 X32.4866 Y41.3162 
G01 X32.5025 Y41.3254 
G01 X32.5171 Y41.3366 
G01 X32.5340 Y41.3436 
G01 X32.5500 Y41.3528 
G01 X32.5677 Y41.3576 
G01 X32.5847 Y41.3646 
G01 X32.6029 Y41.3670 
G01 X32.6206 Y41.3717 
G01 X32.6390 Y41.3717 
G01 X32.6572 Y41.3741 
G01 X32.6754 Y41.3717 
G01 X32.6938 Y41.3717 
G01 X32.7116 Y41.3670 
G01 X32.7298 Y41.3646 
G01 X32.7467 Y41.3576 
G01 X32.7645 Y41.3528 
G01 X32.7804 Y41.3436 
G01 X32.7974 Y41.3366 
G01 X32.8119 Y41.3254 
G01 X32.8279 Y41.3162 
G01 X32.8408 Y41.3032 
G01 X32.8554 Y41.2920 
G01 X32.8666 Y41.2775 
G01 X32.8796 Y41.2645 
G01 X32.8888 Y41.2486 
G01 X32.9000 Y41.2340 
G01 X32.9204 Y41.2131 
G01 X32.9525 Y41.1945 
G01 X32.9884 Y41.1849 
G01 X33.1941 Y41.1849 
G01 X33.1941 Y41.2131 
G01 X32.9845 Y41.2131 
G01 X32.9430 Y41.2303 
G01 X32.9113 Y41.2620 
G01 X32.8941 Y41.3035 
G01 X32.8941 Y43.1515 
G01 X32.9113 Y43.1930 
G01 X32.9430 Y43.2247 
G01 X32.9845 Y43.2419 
G01 X33.1941 Y43.2419 
G01 X33.1941 Y43.7821 
G01 X31.6150 Y43.7821 
G01 X31.5735 Y43.7993 
G01 X31.5418 Y43.8310 
G01 X31.5246 Y43.8725 
G01 X31.5246 Y53.9175 
G01 X31.5418 Y53.9590 
G01 X31.5735 Y53.9907 
G01 X31.6150 Y54.0079 
G01 X33.1941 Y54.0079 
G01 X33.1941 Y54.0361 
G01 X31.6189 Y54.0361 
G01 X31.5830 Y54.0265 
G01 X31.5509 Y54.0079 
G01 X31.5246 Y53.9816 
G01 X31.5060 Y53.9495 
G01 X31.5001 Y53.9273 
G01 X31.4939 Y53.9044 
G01 X31.4811 Y53.8567 
G01 X31.4705 Y53.8383 
G01 X31.4446 Y53.7933 
G01 X31.3928 Y53.7415 
G01 X31.3450 Y53.7140 
G01 X31.3295 Y53.7050 
G01 X31.2959 Y53.6960 
G01 X31.2588 Y53.6860 
G01 X31.1856 Y53.6860 
G01 X31.1469 Y53.6964 
G01 X31.1149 Y53.7050 
G01 X31.0966 Y53.7156 
G01 X31.0516 Y53.7415 
G01 X30.7247 Y54.0684 
G01 X30.6889 Y54.1304 
G01 X30.6873 Y54.1348 
G01 X30.6692 Y54.2025 
G01 X30.6692 Y54.2756 
G01 X30.6881 Y54.3463 
G01 X30.7018 Y54.3700 
G01 X30.7247 Y54.4097 
G01 X30.7764 Y54.4614 
G01 X31.0634 Y54.7484 
G01 X31.1329 Y54.9163 
G01 X31.1377 Y54.9340 
G01 X31.1469 Y54.9499 
G01 X31.1539 Y54.9669 
G01 X31.1651 Y54.9815 
G01 X31.1743 Y54.9974 
G01 X31.1873 Y55.0104 
G01 X31.1985 Y55.0250 
G01 X31.2130 Y55.0362 
G01 X31.2260 Y55.0491 
G01 X31.2419 Y55.0583 
G01 X31.2565 Y55.0695 
G01 X31.2735 Y55.0765 
G01 X31.2894 Y55.0857 
G01 X31.3071 Y55.0905 
G01 X31.3241 Y55.0975 
G01 X31.3423 Y55.0999 
G01 X31.3601 Y55.1047 
G01 X31.3784 Y55.1047 
G01 X31.3967 Y55.1071 
G01 X31.4149 Y55.1047 
G01 X31.4332 Y55.1047 
G01 X31.4510 Y55.0999 
G01 X31.4692 Y55.0975 
G01 X31.4862 Y55.0905 
G01 X31.5039 Y55.0857 
G01 X31.5198 Y55.0765 
G01 X31.5368 Y55.0695 
G01 X31.5514 Y55.0583 
G01 X31.5673 Y55.0491 
G01 X31.5803 Y55.0362 
G01 X31.5949 Y55.0250 
G01 X31.6060 Y55.0104 
G01 X31.9951 Y54.6213 
G01 X32.0689 Y54.6213 
G01 X32.0689 Y54.6495 
G01 X32.0068 Y54.6495 
G01 X31.4720 Y55.1843 
G01 X31.4720 Y55.9407 
G01 X32.0068 Y56.4755 
G01 X32.0689 Y56.4755 
G01 X32.0689 Y56.5037 
G01 X31.9951 Y56.5037 
G01 X31.6060 Y56.1146 
G01 X31.5949 Y56.1000 
G01 X31.5803 Y56.0888 
G01 X31.5673 Y56.0758 
G01 X31.5514 Y56.0667 
G01 X31.5368 Y56.0555 
G01 X31.5198 Y56.0484 
G01 X31.5039 Y56.0393 
G01 X31.4862 Y56.0345 
G01 X31.4692 Y56.0275 
G01 X31.4510 Y56.0251 
G01 X31.4332 Y56.0203 
G01 X31.4149 Y56.0203 
G01 X31.3967 Y56.0179 
G01 X31.3785 Y56.0203 
G01 X31.3601 Y56.0203 
G01 X31.3423 Y56.0251 
G01 X31.3241 Y56.0275 
G01 X31.3071 Y56.0345 
G01 X31.2894 Y56.0393 
G01 X31.2735 Y56.0485 
G01 X31.2565 Y56.0555 
G01 X31.2419 Y56.0667 
G01 X31.2260 Y56.0758 
G01 X31.2130 Y56.0888 
G01 X31.1985 Y56.1000 
G01 X31.1873 Y56.1146 
G01 X31.1743 Y56.1276 
G01 X31.1651 Y56.1435 
G01 X31.1539 Y56.1581 
G01 X31.1469 Y56.1750 
G01 X31.1377 Y56.1910 
G01 X31.1329 Y56.2087 
G01 X31.0634 Y56.3766 
G01 X30.6591 Y56.7809 
G01 X30.6441 Y56.7871 
G01 X30.6351 Y56.7895 
G01 X30.6263 Y56.7919 
G01 X30.6104 Y56.8011 
G01 X30.5934 Y56.8081 
G01 X30.5788 Y56.8193 
G01 X30.5629 Y56.8285 
G01 X30.5499 Y56.8415 
G01 X30.5410 Y56.8483 
G01 X30.5299 Y56.8498 
G01 X30.5116 Y56.8498 
G01 X30.4938 Y56.8545 
G01 X30.4756 Y56.8569 
G01 X30.4586 Y56.8639 
G01 X30.4409 Y56.8687 
G01 X30.4330 Y56.8732 
G01 X30.4249 Y56.8779 
G01 X30.1309 Y56.9997 
G01 X29.9534 Y56.9997 
G01 X29.8827 Y57.0186 
G01 X29.8194 Y57.0552 
