(.../EAGLE-7.7.0/pcbgcode/pcb-gcode.ulp)
(Copyright 2005 - 2012 by John Johnson)
(See readme.txt for licensing terms.)
(This file generated from the board:)
(.../Documents/eagle/CR01/final v1.brd)
(Current profile is .../EAGLE 8.0/pcbgcode/profiles/mach.pp  )
(This file generated 24.10.2017 18:10)
(Settings from pcb-machine.h)
(spindle on time = 1.0000)
(  Tool Size)
(0.1750  )
(spindle speed = 30000.0000)
(tool change at 0.0000  0.0000  25.4000 )
(feed rate xy = F508   )
(feed rate z  = F254   )
(Z Axis Settings)
(  High     Up        Down     Drill)
(12.0000 	3.0000  	-0.0800 	-1.7500 )
(Settings from pcb-defaults.h)
(isolate min = 0.0254)
(isolate max = 0.5080)
(isolate step = 0.1000)
(Generated top outlines, top drill, bottom outlines, bottom drill, )
(Unit of measure: mm)
(Metric Mode)
G21
(Absolute Coordinates)
G90
S30000
G00 Z12.0000 
G00 X0.0000  Y0.0000  
M03
G04 P1.000000
G00 Z3.0000  
G00 X-0.9586 Y1.0104  
G01 Z-0.0800 F254   
G01 X-1.0104 Y0.9586  F508   
G01 X-1.0737 Y0.9220  
G01 X-1.1444 Y0.9031  
G01 X-45.5156 Y0.9031  
G01 X-45.5863 Y0.9220  
G01 X-45.6496 Y0.9586  
G01 X-45.7014 Y1.0104  
G01 X-45.7380 Y1.0737  
G01 X-45.7569 Y1.1444  
G01 X-45.7569 Y8.7947  
G01 X-45.7388 Y8.8624  
G01 X-45.7380 Y8.8654  
G01 X-45.7014 Y8.9288  
G01 X-45.6496 Y8.9805  
G01 X-45.6100 Y9.0034  
G01 X-45.5863 Y9.0171  
G01 X-45.5156 Y9.0360  
G01 X-45.4424 Y9.0360  
G01 X-45.3747 Y9.0179  
G01 X-45.3717 Y9.0171  
G01 X-44.9276 Y8.7607  
G01 X-44.3164 Y8.5969  
G01 X-43.6836 Y8.5969  
G01 X-43.4740 Y8.6531  
G01 X-43.4008 Y8.6531  
G01 X-43.3301 Y8.6341  
G01 X-43.2943 Y8.6135  
G01 X-43.2667 Y8.5976  
G01 X-43.2150 Y8.5458  
G01 X-43.1784 Y8.4824  
G01 X-43.1595 Y8.4118  
G01 X-43.1595 Y8.3386  
G01 X-43.1784 Y8.2679  
G01 X-43.1991 Y8.2321  
G01 X-43.2150 Y8.2045  
G01 X-43.2667 Y8.1528  
G01 X-43.9868 Y7.4328  
G01 X-44.2495 Y7.1700  
G01 X-44.3846 Y6.8440  
G01 X-44.3846 Y6.4493  
G01 X-44.3884 Y6.4350  
G01 X-44.4035 Y6.3786  
G01 X-44.4270 Y6.3379  
G01 X-44.4401 Y6.3152  
G01 X-44.5975 Y6.1579  
G01 X-44.7950 Y5.6810  
G01 X-44.7950 Y3.8440  
G01 X-44.5975 Y3.3671  
G01 X-44.2325 Y3.0021  
G01 X-43.7556 Y2.8046  
G01 X-43.2394 Y2.8046  
G01 X-42.7625 Y3.0021  
G01 X-42.3981 Y3.3665  
G01 X-42.3348 Y3.4031  
G01 X-42.2641 Y3.4220  
G01 X-42.1909 Y3.4220  
G01 X-42.1879 Y3.4212  
G01 X-42.1202 Y3.4031  
G01 X-42.0975 Y3.3900  
G01 X-42.0569 Y3.3665  
G01 X-42.0051 Y3.3148  
G01 X-41.6925 Y3.0021  
G01 X-41.2156 Y2.8046  
G01 X-40.6994 Y2.8046  
G01 X-40.2225 Y3.0021  
G01 X-39.8581 Y3.3665  
G01 X-39.7948 Y3.4031  
G01 X-39.7241 Y3.4220  
G01 X-39.6509 Y3.4220  
G01 X-39.6479 Y3.4212  
G01 X-39.5802 Y3.4031  
G01 X-39.5575 Y3.3900  
G01 X-39.5169 Y3.3665  
G01 X-39.4651 Y3.3148  
G01 X-39.1525 Y3.0021  
G01 X-38.6756 Y2.8046  
G01 X-38.1594 Y2.8046  
G01 X-37.6825 Y3.0021  
G01 X-37.3181 Y3.3665  
G01 X-37.2548 Y3.4031  
G01 X-37.1841 Y3.4220  
G01 X-37.1109 Y3.4220  
G01 X-37.1079 Y3.4212  
G01 X-37.0402 Y3.4031  
G01 X-37.0175 Y3.3900  
G01 X-36.9769 Y3.3665  
G01 X-36.9251 Y3.3148  
G01 X-36.6125 Y3.0021  
G01 X-36.1356 Y2.8046  
G01 X-35.6194 Y2.8046  
G01 X-35.1425 Y3.0021  
G01 X-34.7781 Y3.3665  
G01 X-34.7148 Y3.4031  
G01 X-34.6441 Y3.4220  
G01 X-34.5709 Y3.4220  
G01 X-34.5679 Y3.4212  
G01 X-34.5002 Y3.4031  
G01 X-34.4776 Y3.3900  
G01 X-34.4369 Y3.3665  
G01 X-34.3851 Y3.3148  
G01 X-34.0725 Y3.0021  
G01 X-33.5956 Y2.8046  
G01 X-33.0794 Y2.8046  
G01 X-32.6025 Y3.0021  
G01 X-32.2375 Y3.3671  
G01 X-32.0670 Y3.7788  
G01 X-32.0647 Y3.7896  
G01 X-32.0531 Y3.8124  
G01 X-32.0432 Y3.8362  
G01 X-32.0365 Y3.8449  
G01 X-32.0315 Y3.8548  
G01 X-32.0143 Y3.8738  
G01 X-31.9987 Y3.8942  
G01 X-31.9899 Y3.9010  
G01 X-31.9825 Y3.9092  
G01 X-31.9610 Y3.9231  
G01 X-31.9407 Y3.9388  
G01 X-31.9305 Y3.9430  
G01 X-31.9212 Y3.9490  
G01 X-31.8967 Y3.9570  
G01 X-31.8730 Y3.9668  
G01 X-31.8621 Y3.9682  
G01 X-31.8516 Y3.9716  
G01 X-31.8259 Y3.9730  
G01 X-31.8005 Y3.9763  
G01 X-31.7896 Y3.9749  
G01 X-31.7785 Y3.9755  
G01 X-31.7534 Y3.9701  
G01 X-31.7280 Y3.9668  
G01 X-31.7177 Y3.9625  
G01 X-31.7069 Y3.9602  
G01 X-31.6841 Y3.9486  
G01 X-31.6604 Y3.9388  
G01 X-31.6516 Y3.9320  
G01 X-31.6417 Y3.9270  
G01 X-31.6227 Y3.9099  
G01 X-31.6023 Y3.8942  
G01 X-31.5956 Y3.8854  
G01 X-31.5874 Y3.8781  
G01 X-31.5734 Y3.8565  
G01 X-31.5578 Y3.8362  
G01 X-31.5535 Y3.8260  
G01 X-31.5475 Y3.8167  
G01 X-31.5403 Y3.7944  
G01 X-31.4830 Y3.6820  
G01 X-31.4088 Y3.5799  
G01 X-31.3196 Y3.4907  
G01 X-31.2176 Y3.4166  
G01 X-31.1136 Y3.3636  
G01 X-31.1136 Y3.3960  
G01 X-31.1638 Y3.4168  
G01 X-31.2904 Y3.5014  
G01 X-31.3982 Y3.6092  
G01 X-31.4828 Y3.7358  
G01 X-31.5411 Y3.8765  
G01 X-31.5708 Y4.0259  
G01 X-31.5708 Y5.4991  
G01 X-31.5411 Y5.6485  
G01 X-31.4828 Y5.7892  
G01 X-31.3982 Y5.9158  
G01 X-31.2904 Y6.0236  
G01 X-31.1638 Y6.1082  
G01 X-31.1136 Y6.1290  
G01 X-31.1136 Y6.1614  
G01 X-31.2176 Y6.1084  
G01 X-31.3196 Y6.0342  
G01 X-31.4088 Y5.9451  
G01 X-31.4830 Y5.8430  
G01 X-31.5403 Y5.7306  
G01 X-31.5475 Y5.7083  
G01 X-31.5535 Y5.6990  
G01 X-31.5578 Y5.6888  
G01 X-31.5734 Y5.6685  
G01 X-31.5874 Y5.6469  
G01 X-31.5956 Y5.6395  
G01 X-31.6023 Y5.6308  
G01 X-31.6227 Y5.6151  
G01 X-31.6417 Y5.5980  
G01 X-31.6516 Y5.5930  
G01 X-31.6604 Y5.5862  
G01 X-31.6841 Y5.5764  
G01 X-31.7069 Y5.5648  
G01 X-31.7177 Y5.5625  
G01 X-31.7280 Y5.5582  
G01 X-31.7534 Y5.5549  
G01 X-31.7785 Y5.5495  
G01 X-31.7896 Y5.5501  
G01 X-31.8005 Y5.5487  
G01 X-31.8259 Y5.5520  
G01 X-31.8516 Y5.5534  
G01 X-31.8621 Y5.5568  
G01 X-31.8730 Y5.5582  
G01 X-31.8967 Y5.5680  
G01 X-31.9212 Y5.5760  
G01 X-31.9305 Y5.5820  
G01 X-31.9407 Y5.5862  
G01 X-31.9610 Y5.6018  
G01 X-31.9825 Y5.6158  
G01 X-31.9899 Y5.6240  
G01 X-31.9987 Y5.6308  
G01 X-32.0143 Y5.6511  
G01 X-32.0315 Y5.6702  
G01 X-32.0365 Y5.6800  
G01 X-32.0432 Y5.6888  
G01 X-32.0531 Y5.7126  
G01 X-32.0647 Y5.7354  
G01 X-32.0670 Y5.7462  
G01 X-32.2375 Y6.1579  
G01 X-32.6025 Y6.5229  
G01 X-33.0794 Y6.7204  
G01 X-33.5956 Y6.7204  
G01 X-34.0725 Y6.5229  
G01 X-34.4369 Y6.1585  
G01 X-34.5002 Y6.1219  
G01 X-34.5709 Y6.1029  
G01 X-34.6441 Y6.1029  
G01 X-34.7148 Y6.1219  
G01 X-34.7781 Y6.1585  
G01 X-34.8299 Y6.2102  
G01 X-35.1019 Y6.4823  
G01 X-35.1385 Y6.5456  
G01 X-35.1574 Y6.6163  
G01 X-35.1574 Y6.6895  
G01 X-35.1385 Y6.7602  
G01 X-35.1019 Y6.8235  
G01 X-35.0502 Y6.8753  
G01 X-30.4856 Y11.4399 
G01 X-30.4222 Y11.4765 
G01 X-30.3515 Y11.4954 
G01 X-21.7310 Y11.4954 
G01 X-21.4050 Y11.6304 
G01 X-14.7507 Y18.2847 
G01 X-14.4879 Y18.5475 
G01 X-14.3529 Y18.8735 
G01 X-14.3529 Y24.3065 
G01 X-14.4590 Y24.5627 
G01 X-14.4870 Y24.6303 
G01 X-14.4966 Y24.7028 
G01 X-14.4870 Y24.7754 
G01 X-14.4758 Y24.8026 
G01 X-14.4590 Y24.8430 
G01 X-14.4145 Y24.9010 
G01 X-14.3979 Y24.9137 
G01 X-14.3564 Y24.9456 
G01 X-14.3370 Y24.9536 
G01 X-14.2888 Y24.9736 
G01 X-14.1300 Y25.0394 
G01 X-13.7364 Y25.4330 
G01 X-13.6435 Y25.6572 
G01 X-13.6430 Y25.6608 
G01 X-13.6295 Y25.6909 
G01 X-13.6169 Y25.7214 
G01 X-13.6147 Y25.7243 
G01 X-13.6132 Y25.7277 
G01 X-13.5925 Y25.7533 
G01 X-13.5724 Y25.7794 
G01 X-13.5695 Y25.7817 
G01 X-13.5671 Y25.7845 
G01 X-13.5405 Y25.8039 
G01 X-13.5143 Y25.8240 
G01 X-13.5109 Y25.8254 
G01 X-13.5079 Y25.8275 
G01 X-13.4772 Y25.8393 
G01 X-13.4467 Y25.8520 
G01 X-13.4431 Y25.8524 
G01 X-13.4396 Y25.8538 
G01 X-13.4068 Y25.8572 
G01 X-13.3742 Y25.8615 
G01 X-13.3705 Y25.8610 
G01 X-13.3669 Y25.8614 
G01 X-13.3342 Y25.8563 
G01 X-13.3017 Y25.8520 
G01 X-13.2982 Y25.8506 
G01 X-13.2946 Y25.8500 
G01 X-13.2645 Y25.8366 
G01 X-13.2340 Y25.8240 
G01 X-13.2311 Y25.8217 
G01 X-13.2277 Y25.8202 
G01 X-13.2021 Y25.7995 
G01 X-13.1760 Y25.7794 
G01 X-13.1737 Y25.7765 
G01 X-13.1709 Y25.7742 
G01 X-13.1515 Y25.7475 
G01 X-13.1315 Y25.7214 
G01 X-13.1300 Y25.7180 
G01 X-13.0713 Y25.6372 
G01 X-12.9708 Y25.5367 
G01 X-12.8558 Y25.4531 
G01 X-12.7494 Y25.3989 
G01 X-12.7494 Y25.4305 
G01 X-12.7969 Y25.4502 
G01 X-12.9402 Y25.5459 
G01 X-13.0621 Y25.6678 
G01 X-13.1578 Y25.8111 
G01 X-13.2238 Y25.9703 
G01 X-13.2574 Y26.1393 
G01 X-13.2574 Y27.8357 
G01 X-13.2238 Y28.0047 
G01 X-13.1578 Y28.1639 
G01 X-13.0621 Y28.3072 
G01 X-12.9402 Y28.4291 
G01 X-12.7969 Y28.5248 
G01 X-12.7494 Y28.5445 
G01 X-12.7494 Y28.5761 
G01 X-12.8558 Y28.5219 
G01 X-12.9708 Y28.4383 
G01 X-13.0713 Y28.3378 
G01 X-13.1300 Y28.2570 
G01 X-13.1315 Y28.2536 
G01 X-13.1515 Y28.2275 
G01 X-13.1709 Y28.2008 
G01 X-13.1737 Y28.1985 
G01 X-13.1760 Y28.1956 
G01 X-13.2021 Y28.1755 
G01 X-13.2277 Y28.1548 
G01 X-13.2311 Y28.1533 
G01 X-13.2340 Y28.1510 
G01 X-13.2644 Y28.1384 
G01 X-13.2946 Y28.1250 
G01 X-13.2982 Y28.1244 
G01 X-13.3017 Y28.1230 
G01 X-13.3342 Y28.1187 
G01 X-13.3669 Y28.1136 
G01 X-13.3705 Y28.1140 
G01 X-13.3742 Y28.1135 
G01 X-13.4068 Y28.1178 
G01 X-13.4396 Y28.1212 
G01 X-13.4431 Y28.1225 
G01 X-13.4467 Y28.1230 
G01 X-13.4772 Y28.1356 
G01 X-13.5079 Y28.1474 
G01 X-13.5109 Y28.1496 
G01 X-13.5143 Y28.1510 
G01 X-13.5405 Y28.1711 
G01 X-13.5671 Y28.1905 
G01 X-13.5695 Y28.1933 
G01 X-13.5724 Y28.1956 
G01 X-13.5925 Y28.2217 
G01 X-13.6132 Y28.2473 
G01 X-13.6147 Y28.2507 
G01 X-13.6169 Y28.2536 
G01 X-13.6295 Y28.2840 
G01 X-13.6430 Y28.3142 
G01 X-13.6435 Y28.3178 
G01 X-13.7364 Y28.5420 
G01 X-14.1300 Y28.9356 
G01 X-14.6442 Y29.1486 
G01 X-15.2008 Y29.1486 
G01 X-15.7150 Y28.9356 
G01 X-15.8094 Y28.8413 
G01 X-15.8468 Y28.8197 
G01 X-15.8727 Y28.8047 
G01 X-15.9129 Y28.7939 
G01 X-15.9434 Y28.7857 
G01 X-16.0166 Y28.7857 
G01 X-16.0873 Y28.8047 
G01 X-16.1331 Y28.8312 
G01 X-16.1506 Y28.8413 
G01 X-16.2024 Y28.8930 
G01 X-16.2240 Y28.9304 
G01 X-16.2390 Y28.9564 
G01 X-16.2497 Y28.9965 
G01 X-16.2579 Y29.0270 
G01 X-16.2579 Y32.5740 
G01 X-16.2390 Y32.6447 
G01 X-16.2024 Y32.7081 
G01 X-16.1527 Y32.7577 
G01 X-13.0674 Y35.8431 
G01 X-13.0156 Y35.8948 
G01 X-12.9523 Y35.9314 
G01 X-12.8816 Y35.9503 
G01 X-12.8084 Y35.9503 
G01 X-12.8054 Y35.9495 
G01 X-12.7377 Y35.9314 
G01 X-12.6758 Y35.8956 
G01 X-12.6226 Y35.8431 
G01 X-12.5860 Y35.7797 
G01 X-12.5671 Y35.7090 
G01 X-12.5671 Y34.6837 
G01 X-12.5647 Y34.6655 
G01 X-12.5671 Y34.6472 
G01 X-12.5671 Y34.6288 
G01 X-12.5703 Y34.6169 
G01 X-12.5703 Y33.3281 
G01 X-12.5671 Y33.3162 
G01 X-12.5671 Y33.2978 
G01 X-12.5647 Y33.2796 
G01 X-12.5671 Y33.2614 
G01 X-12.5671 Y33.1113 
G01 X-12.3940 Y32.6934 
G01 X-10.4001 Y30.6995 
G01 X-10.3635 Y30.6362 
G01 X-10.3446 Y30.5655 
G01 X-10.3446 Y22.8927 
G01 X-10.3422 Y22.8745 
G01 X-10.3446 Y22.8563 
G01 X-10.3446 Y22.8379 
G01 X-10.3494 Y22.8202 
G01 X-10.3517 Y22.8020 
G01 X-10.3588 Y22.7850 
G01 X-10.3635 Y22.7673 
G01 X-10.3727 Y22.7513 
G01 X-10.3798 Y22.7344 
G01 X-10.3909 Y22.7198 
G01 X-10.4001 Y22.7039 
G01 X-10.4131 Y22.6909 
G01 X-10.4243 Y22.6763 
G01 X-10.4389 Y22.6651 
G01 X-10.4519 Y22.6521 
G01 X-10.4678 Y22.6430 
G01 X-10.4823 Y22.6318 
G01 X-10.4993 Y22.6247 
G01 X-10.5152 Y22.6156 
G01 X-10.5330 Y22.6108 
G01 X-10.5500 Y22.6038 
G01 X-10.5682 Y22.6014 
G01 X-10.5859 Y22.5966 
G01 X-10.6043 Y22.5966 
G01 X-10.6225 Y22.5942 
G01 X-10.6407 Y22.5966 
G01 X-10.6591 Y22.5966 
G01 X-10.6768 Y22.6014 
G01 X-10.6950 Y22.6038 
G01 X-10.7120 Y22.6108 
G01 X-10.7298 Y22.6156 
G01 X-10.7457 Y22.6248 
G01 X-10.8588 Y22.6716 
G01 X-12.6362 Y22.6716 
G01 X-12.8704 Y22.5746 
G01 X-13.0496 Y22.3954 
G01 X-13.1466 Y22.1612 
G01 X-13.1466 Y20.3838 
G01 X-13.0467 Y20.1426 
G01 X-13.0317 Y20.1063 
G01 X-13.0187 Y20.0750 
G01 X-13.0092 Y20.0025 
G01 X-13.0187 Y19.9300 
G01 X-13.0446 Y19.8674 
G01 X-13.0467 Y19.8624 
G01 X-13.1466 Y19.6212 
G01 X-13.1466 Y17.8438 
G01 X-13.0187 Y17.5350 
G01 X-13.0092 Y17.4625 
G01 X-13.0187 Y17.3899 
G01 X-13.0467 Y17.3224 
G01 X-13.1466 Y17.0812 
G01 X-13.1466 Y15.3038 
G01 X-13.0467 Y15.0626 
G01 X-13.0187 Y14.9950 
G01 X-13.0092 Y14.9225 
G01 X-13.0187 Y14.8499 
G01 X-13.0310 Y14.8204 
G01 X-13.0467 Y14.7823 
G01 X-13.1466 Y14.5412 
G01 X-13.1466 Y12.7638 
G01 X-13.0467 Y12.5227 
G01 X-13.0317 Y12.4863 
G01 X-13.0187 Y12.4550 
G01 X-13.0092 Y12.3825 
G01 X-13.0187 Y12.3100 
G01 X-13.0446 Y12.2474 
G01 X-13.0467 Y12.2424 
G01 X-13.1466 Y12.0012 
G01 X-13.1466 Y10.2238 
G01 X-13.0467 Y9.9826  
G01 X-13.0187 Y9.9150  
G01 X-13.0092 Y9.8425  
G01 X-13.0187 Y9.7699  
G01 X-13.0310 Y9.7404  
G01 X-13.0467 Y9.7023  
G01 X-13.1466 Y9.4612  
G01 X-13.1466 Y7.6838  
G01 X-13.0467 Y7.4427  
G01 X-13.0317 Y7.4063  
G01 X-13.0187 Y7.3750  
G01 X-13.0092 Y7.3025  
G01 X-13.0187 Y7.2299  
G01 X-13.0446 Y7.1674  
G01 X-13.0467 Y7.1624  
G01 X-13.1466 Y6.9212  
G01 X-13.1466 Y5.1438  
G01 X-13.0467 Y4.9027  
G01 X-13.0317 Y4.8663  
G01 X-13.0187 Y4.8350  
G01 X-13.0092 Y4.7625  
G01 X-13.0187 Y4.6899  
G01 X-13.0446 Y4.6274  
G01 X-13.0467 Y4.6224  
G01 X-13.1466 Y4.3812  
G01 X-13.1466 Y2.6038  
G01 X-13.0496 Y2.3696  
G01 X-12.8704 Y2.1904  
G01 X-12.6362 Y2.0934  
G01 X-10.8588 Y2.0934  
G01 X-10.6176 Y2.1933  
G01 X-10.5500 Y2.2213  
G01 X-10.4775 Y2.2308  
G01 X-10.4049 Y2.2213  
G01 X-10.3754 Y2.2090  
G01 X-10.3373 Y2.1933  
G01 X-10.0962 Y2.0934  
G01 X-8.3188 Y2.0934  
G01 X-8.0776 Y2.1933  
G01 X-8.0100 Y2.2213  
G01 X-7.9375 Y2.2308  
G01 X-7.8649 Y2.2213  
G01 X-7.8354 Y2.2090  
G01 X-7.7973 Y2.1933  
G01 X-7.5562 Y2.0934  
G01 X-5.7788 Y2.0934  
G01 X-5.5446 Y2.1904  
G01 X-5.3654 Y2.3696  
G01 X-5.3356 Y2.4415  
G01 X-5.3308 Y2.4593  
G01 X-5.3217 Y2.4752  
G01 X-5.3146 Y2.4921  
G01 X-5.3034 Y2.5067  
G01 X-5.2943 Y2.5226  
G01 X-5.2813 Y2.5356  
G01 X-5.2701 Y2.5502  
G01 X-5.2555 Y2.5614  
G01 X-5.2425 Y2.5744  
G01 X-5.2266 Y2.5835  
G01 X-5.2120 Y2.5947  
G01 X-5.1951 Y2.6018  
G01 X-5.1791 Y2.6109  
G01 X-5.1614 Y2.6157  
G01 X-5.1444 Y2.6227  
G01 X-5.1262 Y2.6251  
G01 X-5.1085 Y2.6299  
G01 X-5.0901 Y2.6299  
G01 X-5.0719 Y2.6323  
G01 X-5.0537 Y2.6299  
G01 X-5.0353 Y2.6299  
G01 X-5.0176 Y2.6251  
G01 X-4.9993 Y2.6227  
G01 X-4.9824 Y2.6157  
G01 X-4.9646 Y2.6109  
G01 X-4.9487 Y2.6018  
G01 X-4.9386 Y2.5976  
G01 X-4.9081 Y2.5894  
G01 X-4.4944 Y2.5894  
G01 X-4.4944 Y2.6176  
G01 X-4.9120 Y2.6176  
G01 X-4.9535 Y2.6348  
G01 X-4.9852 Y2.6665  
G01 X-5.0024 Y2.7080  
G01 X-5.0024 Y4.2770  
G01 X-4.9852 Y4.3185  
G01 X-4.9535 Y4.3502  
G01 X-4.9120 Y4.3674  
G01 X-4.7404 Y4.3674  
G01 X-4.7404 Y4.3956  
G01 X-4.9081 Y4.3956  
G01 X-4.9387 Y4.3874  
G01 X-4.9487 Y4.3832  
G01 X-4.9646 Y4.3741  
G01 X-4.9824 Y4.3693  
G01 X-4.9993 Y4.3623  
G01 X-5.0176 Y4.3599  
G01 X-5.0353 Y4.3551  
G01 X-5.0537 Y4.3551  
G01 X-5.0719 Y4.3527  
G01 X-5.0901 Y4.3551  
G01 X-5.1085 Y4.3551  
G01 X-5.1262 Y4.3599  
G01 X-5.1444 Y4.3623  
G01 X-5.1614 Y4.3693  
G01 X-5.1791 Y4.3740  
G01 X-5.1951 Y4.3832  
G01 X-5.2120 Y4.3903  
G01 X-5.2266 Y4.4014  
G01 X-5.2425 Y4.4106  
G01 X-5.2555 Y4.4236  
G01 X-5.2701 Y4.4348  
G01 X-5.2813 Y4.4494  
G01 X-5.2943 Y4.4624  
G01 X-5.3035 Y4.4783  
G01 X-5.3146 Y4.4929  
G01 X-5.3217 Y4.5098  
G01 X-5.3308 Y4.5257  
G01 X-5.3356 Y4.5435  
G01 X-5.3683 Y4.6224  
G01 X-5.3963 Y4.6899  
G01 X-5.4058 Y4.7625  
G01 X-5.3963 Y4.8350  
G01 X-5.3765 Y4.8828  
G01 X-5.3683 Y4.9026  
G01 X-5.3356 Y4.9815  
G01 X-5.3308 Y4.9993  
G01 X-5.3217 Y5.0152  
G01 X-5.3146 Y5.0321  
G01 X-5.3035 Y5.0467  
G01 X-5.2943 Y5.0626  
G01 X-5.2813 Y5.0756  
G01 X-5.2701 Y5.0902  
G01 X-5.2555 Y5.1014  
G01 X-5.2425 Y5.1144  
G01 X-5.2266 Y5.1235  
G01 X-5.2120 Y5.1347  
G01 X-5.1951 Y5.1418  
G01 X-5.1791 Y5.1509  
G01 X-5.1614 Y5.1557  
G01 X-5.1444 Y5.1627  
G01 X-5.1262 Y5.1651  
G01 X-5.1085 Y5.1699  
G01 X-5.0901 Y5.1699  
G01 X-5.0719 Y5.1723  
G01 X-5.0537 Y5.1699  
G01 X-5.0353 Y5.1699  
G01 X-5.0176 Y5.1651  
G01 X-4.9993 Y5.1627  
G01 X-4.9824 Y5.1557  
G01 X-4.9646 Y5.1509  
G01 X-4.9487 Y5.1418  
G01 X-4.9386 Y5.1376  
G01 X-4.9081 Y5.1294  
G01 X-4.7404 Y5.1294  
G01 X-4.7404 Y5.1576  
G01 X-4.9120 Y5.1576  
G01 X-4.9535 Y5.1748  
G01 X-4.9852 Y5.2065  
G01 X-5.0024 Y5.2480  
G01 X-5.0024 Y6.8170  
G01 X-4.9852 Y6.8585  
G01 X-4.9535 Y6.8902  
G01 X-4.9120 Y6.9074  
G01 X-4.7404 Y6.9074  
G01 X-4.7404 Y6.9356  
G01 X-4.9081 Y6.9356  
G01 X-4.9387 Y6.9274  
G01 X-4.9487 Y6.9232  
G01 X-4.9646 Y6.9141  
G01 X-4.9824 Y6.9093  
G01 X-4.9993 Y6.9023  
G01 X-5.0176 Y6.8999  
G01 X-5.0353 Y6.8951  
G01 X-5.0537 Y6.8951  
G01 X-5.0719 Y6.8927  
G01 X-5.0901 Y6.8951  
G01 X-5.1085 Y6.8951  
G01 X-5.1262 Y6.8999  
G01 X-5.1444 Y6.9023  
G01 X-5.1614 Y6.9093  
G01 X-5.1791 Y6.9140  
G01 X-5.1951 Y6.9232  
G01 X-5.2120 Y6.9303  
G01 X-5.2266 Y6.9414  
G01 X-5.2425 Y6.9506  
G01 X-5.2555 Y6.9636  
G01 X-5.2701 Y6.9748  
G01 X-5.2813 Y6.9894  
G01 X-5.2943 Y7.0024  
G01 X-5.3035 Y7.0183  
G01 X-5.3146 Y7.0329  
G01 X-5.3217 Y7.0498  
G01 X-5.3308 Y7.0657  
G01 X-5.3356 Y7.0835  
G01 X-5.3683 Y7.1623  
G01 X-5.3759 Y7.1808  
G01 X-5.3963 Y7.2299  
G01 X-5.4058 Y7.3025  
G01 X-5.3963 Y7.3750  
G01 X-5.3700 Y7.4384  
G01 X-5.3683 Y7.4426  
G01 X-5.3356 Y7.5215  
G01 X-5.3308 Y7.5393  
G01 X-5.3217 Y7.5552  
G01 X-5.3146 Y7.5721  
G01 X-5.3035 Y7.5867  
G01 X-5.2943 Y7.6026  
G01 X-5.2813 Y7.6156  
G01 X-5.2701 Y7.6302  
G01 X-5.2555 Y7.6414  
G01 X-5.2425 Y7.6544  
G01 X-5.2266 Y7.6635  
G01 X-5.2120 Y7.6747  
G01 X-5.1951 Y7.6818  
G01 X-5.1791 Y7.6909  
G01 X-5.1614 Y7.6957  
G01 X-5.1444 Y7.7027  
G01 X-5.1262 Y7.7051  
G01 X-5.1085 Y7.7099  
G01 X-5.0901 Y7.7099  
G01 X-5.0719 Y7.7123  
G01 X-5.0537 Y7.7099  
G01 X-5.0353 Y7.7099  
G01 X-5.0176 Y7.7051  
G01 X-4.9993 Y7.7027  
G01 X-4.9824 Y7.6957  
G01 X-4.9646 Y7.6909  
G01 X-4.9487 Y7.6818  
G01 X-4.9387 Y7.6776  
G01 X-4.9081 Y7.6694  
G01 X-4.7404 Y7.6694  
G01 X-4.7404 Y7.6976  
G01 X-4.9120 Y7.6976  
G01 X-4.9535 Y7.7148  
G01 X-4.9852 Y7.7465  
G01 X-5.0024 Y7.7880  
G01 X-5.0024 Y9.3570  
G01 X-4.9852 Y9.3985  
G01 X-4.9535 Y9.4302  
G01 X-4.9120 Y9.4474  
G01 X-4.7404 Y9.4474  
G01 X-4.7404 Y9.4756  
G01 X-4.9081 Y9.4756  
G01 X-4.9387 Y9.4674  
G01 X-4.9487 Y9.4632  
G01 X-4.9646 Y9.4541  
G01 X-4.9824 Y9.4493  
G01 X-4.9994 Y9.4423  
G01 X-5.0176 Y9.4399  
G01 X-5.0353 Y9.4351  
G01 X-5.0537 Y9.4351  
G01 X-5.0719 Y9.4327  
G01 X-5.0901 Y9.4351  
G01 X-5.1085 Y9.4351  
G01 X-5.1262 Y9.4399  
G01 X-5.1444 Y9.4423  
G01 X-5.1614 Y9.4493  
G01 X-5.1791 Y9.4540  
G01 X-5.1951 Y9.4632  
G01 X-5.2120 Y9.4703  
G01 X-5.2266 Y9.4814  
G01 X-5.2425 Y9.4906  
G01 X-5.2555 Y9.5036  
G01 X-5.2701 Y9.5148  
G01 X-5.2813 Y9.5294  
G01 X-5.2943 Y9.5424  
G01 X-5.3035 Y9.5583  
G01 X-5.3146 Y9.5729  
G01 X-5.3217 Y9.5898  
G01 X-5.3308 Y9.6057  
G01 X-5.3356 Y9.6235  
G01 X-5.3683 Y9.7023  
G01 X-5.3963 Y9.7699  
G01 X-5.4058 Y9.8425  
G01 X-5.3963 Y9.9151  
G01 X-5.3746 Y9.9673  
G01 X-5.3356 Y10.0615 
G01 X-5.3308 Y10.0793 
G01 X-5.3217 Y10.0952 
G01 X-5.3146 Y10.1121 
G01 X-5.3034 Y10.1267 
G01 X-5.2943 Y10.1426 
G01 X-5.2813 Y10.1556 
G01 X-5.2701 Y10.1702 
G01 X-5.2555 Y10.1814 
G01 X-5.2425 Y10.1944 
G01 X-5.2266 Y10.2035 
G01 X-5.2120 Y10.2147 
G01 X-5.1951 Y10.2218 
G01 X-5.1791 Y10.2309 
G01 X-5.1614 Y10.2357 
G01 X-5.1444 Y10.2427 
G01 X-5.1262 Y10.2451 
G01 X-5.1085 Y10.2499 
G01 X-5.0901 Y10.2499 
G01 X-5.0719 Y10.2523 
G01 X-5.0537 Y10.2499 
G01 X-5.0353 Y10.2499 
G01 X-5.0176 Y10.2451 
G01 X-4.9993 Y10.2427 
G01 X-4.9824 Y10.2357 
G01 X-4.9646 Y10.2309 
G01 X-4.9487 Y10.2218 
G01 X-4.9386 Y10.2176 
G01 X-4.9081 Y10.2094 
G01 X-4.7404 Y10.2094 
G01 X-4.7404 Y10.2376 
G01 X-4.9120 Y10.2376 
G01 X-4.9535 Y10.2548 
G01 X-4.9852 Y10.2865 
G01 X-5.0024 Y10.3280 
G01 X-5.0024 Y11.8970 
G01 X-4.9852 Y11.9384 
G01 X-4.9535 Y11.9702 
G01 X-4.9120 Y11.9874 
G01 X-4.7404 Y11.9874 
G01 X-4.7404 Y12.0156 
G01 X-4.9081 Y12.0156 
G01 X-4.9387 Y12.0074 
G01 X-4.9487 Y12.0032 
G01 X-4.9646 Y11.9941 
G01 X-4.9824 Y11.9893 
G01 X-4.9993 Y11.9823 
G01 X-5.0176 Y11.9799 
G01 X-5.0353 Y11.9751 
G01 X-5.0537 Y11.9751 
G01 X-5.0719 Y11.9727 
G01 X-5.0901 Y11.9751 
G01 X-5.1085 Y11.9751 
G01 X-5.1262 Y11.9799 
G01 X-5.1444 Y11.9823 
G01 X-5.1614 Y11.9893 
G01 X-5.1791 Y11.9940 
G01 X-5.1951 Y12.0032 
G01 X-5.2120 Y12.0103 
G01 X-5.2266 Y12.0214 
G01 X-5.2425 Y12.0306 
G01 X-5.2555 Y12.0436 
G01 X-5.2701 Y12.0548 
G01 X-5.2813 Y12.0694 
G01 X-5.2943 Y12.0824 
G01 X-5.3035 Y12.0983 
G01 X-5.3146 Y12.1129 
G01 X-5.3217 Y12.1298 
G01 X-5.3308 Y12.1457 
G01 X-5.3356 Y12.1635 
G01 X-5.3683 Y12.2424 
G01 X-5.3963 Y12.3100 
G01 X-5.4058 Y12.3825 
G01 X-5.3963 Y12.4550 
G01 X-5.3765 Y12.5028 
G01 X-5.3683 Y12.5226 
G01 X-5.3356 Y12.6015 
G01 X-5.3308 Y12.6193 
G01 X-5.3217 Y12.6352 
G01 X-5.3146 Y12.6521 
G01 X-5.3035 Y12.6667 
G01 X-5.2943 Y12.6826 
G01 X-5.2813 Y12.6956 
G01 X-5.2701 Y12.7102 
G01 X-5.2555 Y12.7214 
G01 X-5.2425 Y12.7344 
G01 X-5.2266 Y12.7436 
G01 X-5.2120 Y12.7547 
G01 X-5.1951 Y12.7618 
G01 X-5.1791 Y12.7709 
G01 X-5.1614 Y12.7757 
G01 X-5.1444 Y12.7827 
G01 X-5.1262 Y12.7851 
G01 X-5.1085 Y12.7899 
G01 X-5.0901 Y12.7899 
G01 X-5.0719 Y12.7923 
G01 X-5.0537 Y12.7899 
G01 X-5.0353 Y12.7899 
G01 X-5.0176 Y12.7851 
G01 X-4.9993 Y12.7827 
G01 X-4.9824 Y12.7757 
G01 X-4.9646 Y12.7709 
G01 X-4.9487 Y12.7618 
G01 X-4.9386 Y12.7576 
G01 X-4.9081 Y12.7494 
G01 X-4.7404 Y12.7494 
G01 X-4.7404 Y12.7776 
G01 X-4.9120 Y12.7776 
G01 X-4.9535 Y12.7948 
G01 X-4.9852 Y12.8265 
G01 X-5.0024 Y12.8680 
G01 X-5.0024 Y14.4370 
G01 X-4.9852 Y14.4785 
G01 X-4.9535 Y14.5102 
G01 X-4.9120 Y14.5274 
G01 X-4.7404 Y14.5274 
G01 X-4.7404 Y14.5556 
G01 X-4.9081 Y14.5556 
G01 X-4.9387 Y14.5474 
G01 X-4.9487 Y14.5432 
G01 X-4.9646 Y14.5341 
G01 X-4.9824 Y14.5293 
G01 X-4.9993 Y14.5223 
G01 X-5.0176 Y14.5199 
G01 X-5.0353 Y14.5151 
G01 X-5.0537 Y14.5151 
G01 X-5.0719 Y14.5127 
G01 X-5.0901 Y14.5151 
G01 X-5.1085 Y14.5151 
G01 X-5.1262 Y14.5199 
G01 X-5.1444 Y14.5223 
G01 X-5.1614 Y14.5293 
G01 X-5.1791 Y14.5340 
G01 X-5.1951 Y14.5432 
G01 X-5.2120 Y14.5503 
G01 X-5.2266 Y14.5614 
G01 X-5.2425 Y14.5706 
G01 X-5.2555 Y14.5836 
G01 X-5.2701 Y14.5948 
G01 X-5.2813 Y14.6094 
G01 X-5.2943 Y14.6224 
G01 X-5.3035 Y14.6383 
G01 X-5.3146 Y14.6529 
G01 X-5.3217 Y14.6698 
G01 X-5.3308 Y14.6857 
G01 X-5.3356 Y14.7035 
G01 X-5.3683 Y14.7823 
G01 X-5.3759 Y14.8008 
G01 X-5.3963 Y14.8499 
G01 X-5.4058 Y14.9225 
G01 X-5.3963 Y14.9950 
G01 X-5.3700 Y15.0584 
G01 X-5.3683 Y15.0626 
G01 X-5.3356 Y15.1415 
G01 X-5.3308 Y15.1593 
G01 X-5.3217 Y15.1752 
G01 X-5.3146 Y15.1921 
G01 X-5.3035 Y15.2067 
G01 X-5.2943 Y15.2226 
G01 X-5.2813 Y15.2356 
G01 X-5.2701 Y15.2502 
G01 X-5.2555 Y15.2614 
G01 X-5.2425 Y15.2744 
G01 X-5.2266 Y15.2835 
G01 X-5.2120 Y15.2947 
G01 X-5.1951 Y15.3018 
G01 X-5.1791 Y15.3110 
G01 X-5.1614 Y15.3157 
G01 X-5.1444 Y15.3227 
G01 X-5.1262 Y15.3251 
G01 X-5.1085 Y15.3299 
G01 X-5.0901 Y15.3299 
G01 X-5.0719 Y15.3323 
G01 X-5.0537 Y15.3299 
G01 X-5.0353 Y15.3299 
G01 X-5.0176 Y15.3251 
G01 X-4.9993 Y15.3227 
G01 X-4.9824 Y15.3157 
G01 X-4.9646 Y15.3109 
G01 X-4.9487 Y15.3018 
G01 X-4.9387 Y15.2976 
G01 X-4.9081 Y15.2894 
G01 X-4.7404 Y15.2894 
G01 X-4.7404 Y15.3176 
G01 X-4.9120 Y15.3176 
G01 X-4.9535 Y15.3348 
G01 X-4.9852 Y15.3665 
G01 X-5.0024 Y15.4080 
G01 X-5.0024 Y16.9770 
G01 X-4.9852 Y17.0185 
G01 X-4.9535 Y17.0502 
G01 X-4.9120 Y17.0674 
G01 X-4.7404 Y17.0674 
G01 X-4.7404 Y17.0956 
G01 X-4.9081 Y17.0956 
G01 X-4.9387 Y17.0874 
G01 X-4.9487 Y17.0832 
G01 X-4.9646 Y17.0741 
G01 X-4.9824 Y17.0693 
G01 X-4.9993 Y17.0623 
G01 X-5.0176 Y17.0599 
G01 X-5.0353 Y17.0551 
G01 X-5.0537 Y17.0551 
G01 X-5.0719 Y17.0527 
G01 X-5.0901 Y17.0551 
G01 X-5.1085 Y17.0551 
G01 X-5.1262 Y17.0599 
G01 X-5.1444 Y17.0623 
G01 X-5.1614 Y17.0693 
G01 X-5.1791 Y17.0740 
G01 X-5.1951 Y17.0832 
G01 X-5.2120 Y17.0903 
G01 X-5.2266 Y17.1014 
G01 X-5.2425 Y17.1106 
G01 X-5.2555 Y17.1236 
G01 X-5.2701 Y17.1348 
G01 X-5.2813 Y17.1494 
G01 X-5.2943 Y17.1624 
G01 X-5.3035 Y17.1783 
G01 X-5.3146 Y17.1929 
G01 X-5.3217 Y17.2098 
G01 X-5.3308 Y17.2257 
G01 X-5.3356 Y17.2435 
G01 X-5.3683 Y17.3224 
G01 X-5.3963 Y17.3899 
G01 X-5.4058 Y17.4625 
G01 X-5.3963 Y17.5350 
G01 X-5.3765 Y17.5828 
G01 X-5.3683 Y17.6026 
G01 X-5.3356 Y17.6815 
G01 X-5.3308 Y17.6993 
G01 X-5.3217 Y17.7152 
G01 X-5.3146 Y17.7321 
G01 X-5.3035 Y17.7467 
G01 X-5.2943 Y17.7626 
G01 X-5.2813 Y17.7756 
G01 X-5.2701 Y17.7902 
G01 X-5.2555 Y17.8014 
G01 X-5.2425 Y17.8144 
G01 X-5.2266 Y17.8236 
G01 X-5.2120 Y17.8347 
G01 X-5.1951 Y17.8418 
G01 X-5.1791 Y17.8510 
G01 X-5.1614 Y17.8557 
G01 X-5.1444 Y17.8627 
G01 X-5.1262 Y17.8651 
G01 X-5.1085 Y17.8699 
G01 X-5.0901 Y17.8699 
G01 X-5.0719 Y17.8723 
G01 X-5.0537 Y17.8699 
G01 X-5.0353 Y17.8699 
G01 X-5.0176 Y17.8651 
G01 X-4.9993 Y17.8627 
G01 X-4.9824 Y17.8557 
G01 X-4.9646 Y17.8509 
G01 X-4.9487 Y17.8418 
G01 X-4.9386 Y17.8376 
G01 X-4.9081 Y17.8294 
G01 X-4.7404 Y17.8294 
G01 X-4.7404 Y17.8576 
G01 X-4.9120 Y17.8576 
G01 X-4.9535 Y17.8748 
G01 X-4.9852 Y17.9065 
G01 X-5.0024 Y17.9480 
G01 X-5.0024 Y19.5170 
G01 X-4.9852 Y19.5585 
G01 X-4.9535 Y19.5902 
G01 X-4.9120 Y19.6074 
G01 X-4.7404 Y19.6074 
G01 X-4.7404 Y19.6356 
G01 X-4.9081 Y19.6356 
G01 X-4.9386 Y19.6274 
G01 X-4.9487 Y19.6232 
G01 X-4.9646 Y19.6141 
G01 X-4.9824 Y19.6093 
G01 X-4.9993 Y19.6023 
G01 X-5.0176 Y19.5999 
G01 X-5.0353 Y19.5951 
G01 X-5.0537 Y19.5951 
G01 X-5.0719 Y19.5927 
G01 X-5.0901 Y19.5951 
G01 X-5.1085 Y19.5951 
G01 X-5.1262 Y19.5999 
G01 X-5.1444 Y19.6023 
G01 X-5.1614 Y19.6093 
G01 X-5.1791 Y19.6140 
G01 X-5.1951 Y19.6232 
G01 X-5.2120 Y19.6303 
G01 X-5.2266 Y19.6415 
G01 X-5.2425 Y19.6506 
G01 X-5.2555 Y19.6636 
G01 X-5.2701 Y19.6748 
G01 X-5.2813 Y19.6894 
G01 X-5.2943 Y19.7024 
G01 X-5.3034 Y19.7183 
G01 X-5.3146 Y19.7329 
G01 X-5.3217 Y19.7498 
G01 X-5.3308 Y19.7657 
G01 X-5.3356 Y19.7835 
G01 X-5.3683 Y19.8624 
G01 X-5.3963 Y19.9300 
G01 X-5.4058 Y20.0025 
G01 X-5.3963 Y20.0751 
G01 X-5.3765 Y20.1228 
G01 X-5.3683 Y20.1426 
G01 X-5.3356 Y20.2215 
G01 X-5.3308 Y20.2393 
G01 X-5.3217 Y20.2552 
G01 X-5.3146 Y20.2721 
G01 X-5.3035 Y20.2867 
G01 X-5.2943 Y20.3026 
G01 X-5.2813 Y20.3156 
G01 X-5.2701 Y20.3302 
G01 X-5.2555 Y20.3414 
G01 X-5.2425 Y20.3544 
G01 X-5.2266 Y20.3636 
G01 X-5.2120 Y20.3747 
G01 X-5.1951 Y20.3818 
G01 X-5.1791 Y20.3910 
G01 X-5.1614 Y20.3957 
G01 X-5.1444 Y20.4027 
G01 X-5.1262 Y20.4051 
G01 X-5.1085 Y20.4099 
G01 X-5.0901 Y20.4099 
G01 X-5.0719 Y20.4123 
G01 X-5.0537 Y20.4099 
G01 X-5.0353 Y20.4099 
G01 X-5.0176 Y20.4051 
G01 X-4.9993 Y20.4027 
G01 X-4.9824 Y20.3957 
G01 X-4.9646 Y20.3909 
G01 X-4.9487 Y20.3818 
G01 X-4.9386 Y20.3776 
G01 X-4.9081 Y20.3694 
G01 X-4.7404 Y20.3694 
G01 X-4.7404 Y20.3976 
G01 X-4.9120 Y20.3976 
G01 X-4.9535 Y20.4148 
G01 X-4.9852 Y20.4465 
G01 X-5.0024 Y20.4880 
G01 X-5.0024 Y22.0570 
G01 X-4.9852 Y22.0984 
G01 X-4.9535 Y22.1302 
G01 X-4.9120 Y22.1474 
G01 X-4.4944 Y22.1474 
G01 X-4.4944 Y22.1756 
G01 X-4.9081 Y22.1756 
G01 X-4.9386 Y22.1674 
G01 X-4.9487 Y22.1632 
G01 X-4.9646 Y22.1541 
G01 X-4.9824 Y22.1493 
G01 X-4.9993 Y22.1423 
G01 X-5.0176 Y22.1399 
G01 X-5.0353 Y22.1351 
G01 X-5.0537 Y22.1351 
G01 X-5.0719 Y22.1327 
G01 X-5.0901 Y22.1351 
G01 X-5.1085 Y22.1351 
G01 X-5.1262 Y22.1399 
G01 X-5.1444 Y22.1423 
G01 X-5.1614 Y22.1493 
G01 X-5.1791 Y22.1540 
G01 X-5.1951 Y22.1632 
G01 X-5.2120 Y22.1703 
G01 X-5.2266 Y22.1814 
G01 X-5.2425 Y22.1906 
G01 X-5.2555 Y22.2036 
G01 X-5.2701 Y22.2148 
G01 X-5.2813 Y22.2294 
G01 X-5.2943 Y22.2424 
G01 X-5.3034 Y22.2583 
G01 X-5.3146 Y22.2729 
G01 X-5.3217 Y22.2898 
G01 X-5.3308 Y22.3057 
G01 X-5.3356 Y22.3235 
G01 X-5.3654 Y22.3954 
G01 X-5.5446 Y22.5746 
G01 X-5.7788 Y22.6716 
G01 X-7.5562 Y22.6716 
G01 X-7.6693 Y22.6248 
G01 X-7.6852 Y22.6156 
G01 X-7.7030 Y22.6108 
G01 X-7.7199 Y22.6038 
G01 X-7.7382 Y22.6014 
G01 X-7.7559 Y22.5966 
G01 X-7.7743 Y22.5966 
G01 X-7.7925 Y22.5942 
G01 X-7.8107 Y22.5966 
G01 X-7.8291 Y22.5966 
G01 X-7.8468 Y22.6014 
G01 X-7.8650 Y22.6038 
G01 X-7.8820 Y22.6108 
G01 X-7.8998 Y22.6156 
G01 X-7.9157 Y22.6248 
G01 X-7.9326 Y22.6318 
G01 X-7.9472 Y22.6430 
G01 X-7.9631 Y22.6521 
G01 X-7.9761 Y22.6651 
G01 X-7.9907 Y22.6763 
G01 X-8.0019 Y22.6909 
G01 X-8.0149 Y22.7039 
G01 X-8.0241 Y22.7198 
G01 X-8.0352 Y22.7344 
G01 X-8.0423 Y22.7513 
G01 X-8.0515 Y22.7673 
G01 X-8.0562 Y22.7850 
G01 X-8.0632 Y22.8020 
G01 X-8.0656 Y22.8202 
G01 X-8.0704 Y22.8379 
G01 X-8.0704 Y22.8563 
G01 X-8.0728 Y22.8745 
G01 X-8.0704 Y22.8927 
G01 X-8.0704 Y29.7366 
G01 X-8.0515 Y29.8073 
G01 X-8.0149 Y29.8706 
G01 X-7.9631 Y29.9224 
G01 X-7.8998 Y29.9590 
G01 X-7.8291 Y29.9779 
G01 X-6.4413 Y29.9779 
G01 X-6.0234 Y30.1510 
G01 X-4.6468 Y31.5276 
G01 X-4.6356 Y31.5422 
G01 X-4.6210 Y31.5534 
G01 X-4.6080 Y31.5664 
G01 X-4.5921 Y31.5756 
G01 X-4.5775 Y31.5868 
G01 X-4.5606 Y31.5938 
G01 X-4.5446 Y31.6030 
G01 X-4.5269 Y31.6077 
G01 X-4.2875 Y31.7069 
G01 X-3.8939 Y32.1005 
G01 X-3.8010 Y32.3247 
G01 X-3.8005 Y32.3283 
G01 X-3.7870 Y32.3584 
G01 X-3.7744 Y32.3889 
G01 X-3.7722 Y32.3918 
G01 X-3.7707 Y32.3952 
G01 X-3.7500 Y32.4208 
G01 X-3.7299 Y32.4469 
G01 X-3.7270 Y32.4492 
G01 X-3.7246 Y32.4520 
G01 X-3.6980 Y32.4714 
G01 X-3.6718 Y32.4915 
G01 X-3.6684 Y32.4929 
G01 X-3.6654 Y32.4950 
G01 X-3.6347 Y32.5069 
G01 X-3.6042 Y32.5195 
G01 X-3.6006 Y32.5199 
G01 X-3.5971 Y32.5213 
G01 X-3.5643 Y32.5247 
G01 X-3.5317 Y32.5290 
G01 X-3.5280 Y32.5285 
G01 X-3.5244 Y32.5289 
G01 X-3.4917 Y32.5238 
G01 X-3.4592 Y32.5195 
G01 X-3.4557 Y32.5181 
G01 X-3.4521 Y32.5175 
G01 X-3.4219 Y32.5041 
G01 X-3.3915 Y32.4915 
G01 X-3.3886 Y32.4892 
G01 X-3.3852 Y32.4877 
G01 X-3.3596 Y32.4670 
G01 X-3.3335 Y32.4469 
G01 X-3.3312 Y32.4440 
G01 X-3.3284 Y32.4417 
G01 X-3.3090 Y32.4150 
G01 X-3.2890 Y32.3889 
G01 X-3.2875 Y32.3855 
G01 X-3.2288 Y32.3047 
G01 X-3.1283 Y32.2042 
G01 X-3.0133 Y32.1206 
G01 X-2.9069 Y32.0664 
G01 X-2.9069 Y32.0980 
G01 X-2.9544 Y32.1177 
G01 X-3.0977 Y32.2134 
G01 X-3.2196 Y32.3353 
G01 X-3.3153 Y32.4786 
G01 X-3.3813 Y32.6378 
G01 X-3.4149 Y32.8068 
G01 X-3.4149 Y34.5032 
G01 X-3.3813 Y34.6722 
G01 X-3.3153 Y34.8314 
G01 X-3.2879 Y34.8725 
G01 X-3.2879 Y35.9300 
G01 X-3.3153 Y35.9711 
G01 X-3.3813 Y36.1303 
G01 X-3.4149 Y36.2993 
G01 X-3.4149 Y37.9957 
G01 X-3.3813 Y38.1647 
G01 X-3.3153 Y38.3239 
G01 X-3.2196 Y38.4672 
G01 X-3.0977 Y38.5891 
G01 X-2.9544 Y38.6848 
G01 X-2.9069 Y38.7045 
G01 X-2.9069 Y38.7361 
G01 X-3.0133 Y38.6819 
G01 X-3.1283 Y38.5983 
G01 X-3.2288 Y38.4978 
G01 X-3.2875 Y38.4170 
G01 X-3.2890 Y38.4136 
G01 X-3.3090 Y38.3875 
G01 X-3.3284 Y38.3608 
G01 X-3.3312 Y38.3585 
G01 X-3.3335 Y38.3556 
G01 X-3.3596 Y38.3355 
G01 X-3.3852 Y38.3148 
G01 X-3.3886 Y38.3133 
G01 X-3.3915 Y38.3110 
G01 X-3.4219 Y38.2984 
G01 X-3.4521 Y38.2850 
G01 X-3.4557 Y38.2844 
G01 X-3.4592 Y38.2830 
G01 X-3.4917 Y38.2787 
G01 X-3.5244 Y38.2736 
G01 X-3.5280 Y38.2740 
G01 X-3.5317 Y38.2735 
G01 X-3.5643 Y38.2778 
G01 X-3.5971 Y38.2812 
G01 X-3.6006 Y38.2825 
G01 X-3.6042 Y38.2830 
G01 X-3.6347 Y38.2956 
G01 X-3.6654 Y38.3074 
G01 X-3.6684 Y38.3096 
G01 X-3.6718 Y38.3110 
G01 X-3.6980 Y38.3311 
G01 X-3.7246 Y38.3505 
G01 X-3.7270 Y38.3533 
G01 X-3.7299 Y38.3556 
G01 X-3.7500 Y38.3817 
G01 X-3.7707 Y38.4073 
G01 X-3.7722 Y38.4107 
G01 X-3.7744 Y38.4136 
G01 X-3.7870 Y38.4440 
G01 X-3.8005 Y38.4742 
G01 X-3.8010 Y38.4778 
G01 X-3.8939 Y38.7020 
G01 X-4.2875 Y39.0956 
G01 X-4.8017 Y39.3086 
G01 X-5.3583 Y39.3086 
G01 X-5.8725 Y39.0956 
G01 X-6.1794 Y38.7888 
G01 X-6.2427 Y38.7522 
G01 X-6.3134 Y38.7332 
G01 X-6.3866 Y38.7332 
G01 X-6.3896 Y38.7340 
G01 X-6.4573 Y38.7522 
G01 X-6.4799 Y38.7653 
G01 X-6.5206 Y38.7888 
G01 X-6.5724 Y38.8405 
G01 X-6.8275 Y39.0956 
G01 X-7.3417 Y39.3086 
G01 X-7.8983 Y39.3086 
G01 X-8.4125 Y39.0956 
G01 X-8.8061 Y38.7020 
G01 X-9.0191 Y38.1878 
G01 X-9.0191 Y36.1072 
G01 X-8.8061 Y35.5930 
G01 X-8.7854 Y35.5723 
G01 X-8.7672 Y35.5410 
G01 X-8.7484 Y35.5085 
G01 X-8.7295 Y35.4378 
G01 X-8.7295 Y35.4016 
G01 X-8.7295 Y35.3647 
G01 X-8.7335 Y35.3495 
G01 X-8.7484 Y35.2940 
G01 X-8.7662 Y35.2632 
G01 X-8.7850 Y35.2306 
G01 X-8.8061 Y35.2095 
G01 X-9.0191 Y34.6953 
G01 X-9.0191 Y33.1690 
G01 X-9.0372 Y33.1013 
G01 X-9.0380 Y33.0983 
G01 X-9.0746 Y33.0350 
G01 X-9.1256 Y32.9840 
G01 X-9.1897 Y32.9466 
G01 X-9.2604 Y32.9277 
G01 X-9.3336 Y32.9277 
G01 X-9.4013 Y32.9458 
G01 X-9.4043 Y32.9466 
G01 X-9.4676 Y32.9832 
G01 X-10.2342 Y33.7498 
G01 X-10.2708 Y33.8131 
G01 X-10.2889 Y33.8808 
G01 X-10.2897 Y33.8838 
G01 X-10.2897 Y34.6169 
G01 X-10.2929 Y34.6288 
G01 X-10.2929 Y34.6472 
G01 X-10.2953 Y34.6655 
G01 X-10.2929 Y34.6837 
G01 X-10.2929 Y41.7055 
G01 X-10.2748 Y41.7732 
G01 X-10.2740 Y41.7762 
G01 X-10.2374 Y41.8395 
G01 X-10.1864 Y41.8905 
G01 X-10.1223 Y41.9279 
G01 X-10.0516 Y41.9468 
G01 X-9.9784 Y41.9468 
G01 X-9.9107 Y41.9287 
G01 X-9.9077 Y41.9279 
G01 X-9.8444 Y41.8913 
G01 X-9.2322 Y41.2791 
G01 X-8.8991 Y40.9460 
G01 X-8.4812 Y40.7729 
G01 X-7.3971 Y40.7729 
G01 X-7.3264 Y40.7540 
G01 X-7.2864 Y40.7309 
G01 X-6.7553 Y40.5109 
G01 X-4.6747 Y40.5109 
G01 X-4.1605 Y40.7239 
G01 X-3.7669 Y41.1175 
G01 X-3.5539 Y41.6317 
G01 X-3.5539 Y42.1883 
G01 X-3.7669 Y42.7025 
G01 X-4.1605 Y43.0961 
G01 X-4.3847 Y43.1890 
G01 X-4.3883 Y43.1895 
G01 X-4.4184 Y43.2030 
G01 X-4.4489 Y43.2156 
G01 X-4.4518 Y43.2178 
G01 X-4.4552 Y43.2193 
G01 X-4.4808 Y43.2400 
G01 X-4.5069 Y43.2601 
G01 X-4.5092 Y43.2630 
G01 X-4.5120 Y43.2654 
G01 X-4.5314 Y43.2920 
G01 X-4.5515 Y43.3181 
G01 X-4.5529 Y43.3216 
G01 X-4.5550 Y43.3246 
G01 X-4.5668 Y43.3553 
G01 X-4.5795 Y43.3858 
G01 X-4.5799 Y43.3894 
G01 X-4.5813 Y43.3929 
G01 X-4.5847 Y43.4256 
G01 X-4.5890 Y43.4583 
G01 X-4.5885 Y43.4620 
G01 X-4.5889 Y43.4656 
G01 X-4.5838 Y43.4983 
G01 X-4.5795 Y43.5308 
G01 X-4.5781 Y43.5343 
G01 X-4.5775 Y43.5379 
G01 X-4.5641 Y43.5680 
G01 X-4.5515 Y43.5984 
G01 X-4.5492 Y43.6014 
G01 X-4.5477 Y43.6048 
G01 X-4.5270 Y43.6304 
G01 X-4.5069 Y43.6565 
G01 X-4.5040 Y43.6587 
G01 X-4.5017 Y43.6616 
G01 X-4.4750 Y43.6810 
G01 X-4.4489 Y43.7010 
G01 X-4.4455 Y43.7025 
G01 X-4.3647 Y43.7612 
G01 X-4.2642 Y43.8616 
G01 X-4.1806 Y43.9767 
G01 X-4.1264 Y44.0831 
G01 X-4.1580 Y44.0831 
G01 X-4.1777 Y44.0356 
G01 X-4.2734 Y43.8923 
G01 X-4.3953 Y43.7704 
G01 X-4.5386 Y43.6747 
G01 X-4.6978 Y43.6087 
G01 X-4.8668 Y43.5751 
G01 X-6.5632 Y43.5751 
G01 X-6.7322 Y43.6087 
G01 X-6.8914 Y43.6747 
G01 X-7.0347 Y43.7704 
G01 X-7.1566 Y43.8923 
G01 X-7.2523 Y44.0356 
G01 X-7.2720 Y44.0831 
G01 X-7.3036 Y44.0831 
G01 X-7.2494 Y43.9767 
G01 X-7.1658 Y43.8616 
G01 X-7.0653 Y43.7612 
G01 X-6.9845 Y43.7025 
G01 X-6.9811 Y43.7010 
G01 X-6.9550 Y43.6810 
G01 X-6.9283 Y43.6616 
G01 X-6.9260 Y43.6587 
G01 X-6.9231 Y43.6565 
G01 X-6.9030 Y43.6304 
G01 X-6.8823 Y43.6048 
G01 X-6.8808 Y43.6014 
G01 X-6.8785 Y43.5984 
G01 X-6.8659 Y43.5680 
G01 X-6.8525 Y43.5379 
G01 X-6.8519 Y43.5343 
G01 X-6.8505 Y43.5308 
G01 X-6.8462 Y43.4983 
G01 X-6.8411 Y43.4656 
G01 X-6.8415 Y43.4620 
G01 X-6.8410 Y43.4583 
G01 X-6.8453 Y43.4257 
G01 X-6.8487 Y43.3929 
G01 X-6.8500 Y43.3894 
G01 X-6.8505 Y43.3858 
G01 X-6.8631 Y43.3553 
G01 X-6.8749 Y43.3246 
G01 X-6.8771 Y43.3216 
G01 X-6.8785 Y43.3181 
G01 X-6.8986 Y43.2920 
G01 X-6.9180 Y43.2654 
G01 X-6.9208 Y43.2630 
G01 X-6.9231 Y43.2601 
G01 X-6.9492 Y43.2400 
G01 X-6.9748 Y43.2193 
G01 X-6.9782 Y43.2178 
G01 X-6.9811 Y43.2156 
G01 X-7.0115 Y43.2030 
G01 X-7.0417 Y43.1895 
G01 X-7.0453 Y43.1890 
G01 X-7.2864 Y43.0891 
G01 X-7.3264 Y43.0660 
G01 X-7.3971 Y43.0471 
G01 X-7.7055 Y43.0471 
G01 X-7.7762 Y43.0660 
G01 X-7.8395 Y43.1026 
G01 X-7.8913 Y43.1544 
G01 X-8.3324 Y43.5955 
G01 X-8.3690 Y43.6588 
G01 X-8.3879 Y43.7295 
G01 X-8.3879 Y46.5320 
G01 X-8.3903 Y46.5502 
G01 X-8.3879 Y46.5684 
G01 X-8.3879 Y46.5868 
G01 X-8.3871 Y46.5899 
G01 X-8.3967 Y46.6025 
G01 X-8.4038 Y46.6195 
G01 X-8.4130 Y46.6354 
G01 X-8.4177 Y46.6531 
G01 X-8.5610 Y46.9991 
G01 X-8.9458 Y47.3839 
G01 X-13.0084 Y51.4465 
G01 X-13.4263 Y51.6196 
G01 X-14.5170 Y51.6196 
G01 X-14.5295 Y51.6174 
G01 X-14.5534 Y51.6196 
G01 X-14.5774 Y51.6196 
G01 X-14.5897 Y51.6229 
G01 X-14.7254 Y51.6352 
G01 X-14.7430 Y51.6305 
G01 X-14.7726 Y51.6213 
G01 X-14.7783 Y51.6211 
G01 X-14.7837 Y51.6196 
G01 X-14.8147 Y51.6196 
G01 X-14.8330 Y51.6189 
G01 X-14.9588 Y51.5667 
G01 X-14.9696 Y51.5599 
G01 X-14.9925 Y51.5528 
G01 X-15.0146 Y51.5436 
G01 X-15.0273 Y51.5419 
G01 X-15.1574 Y51.5014 
G01 X-15.1718 Y51.4903 
G01 X-15.1956 Y51.4705 
G01 X-15.2008 Y51.4681 
G01 X-15.2053 Y51.4646 
G01 X-15.2339 Y51.4528 
G01 X-15.2505 Y51.4451 
G01 X-15.3468 Y51.3488 
G01 X-15.3541 Y51.3384 
G01 X-15.3726 Y51.3230 
G01 X-15.3895 Y51.3061 
G01 X-15.4006 Y51.2997 
G01 X-17.0488 Y49.9262 
G01 X-17.0522 Y49.9217 
G01 X-17.0768 Y49.9028 
G01 X-17.1006 Y49.8830 
G01 X-17.1058 Y49.8806 
G01 X-17.1103 Y49.8771 
G01 X-17.1389 Y49.8653 
G01 X-17.1555 Y49.8576 
G01 X-17.2518 Y49.7613 
G01 X-17.2592 Y49.7509 
G01 X-17.2776 Y49.7355 
G01 X-17.2945 Y49.7186 
G01 X-17.3056 Y49.7122 
G01 X-17.4102 Y49.6250 
G01 X-17.4193 Y49.6092 
G01 X-17.4337 Y49.5817 
G01 X-17.4376 Y49.5776 
G01 X-17.4404 Y49.5726 
G01 X-17.4624 Y49.5507 
G01 X-17.4747 Y49.5373 
G01 X-17.5269 Y49.4115 
G01 X-17.5297 Y49.3990 
G01 X-17.5408 Y49.3778 
G01 X-17.5500 Y49.3556 
G01 X-17.5577 Y49.3455 
G01 X-17.6211 Y49.2249 
G01 X-17.6234 Y49.2069 
G01 X-17.6262 Y49.1760 
G01 X-17.6282 Y49.1706 
G01 X-17.6289 Y49.1650 
G01 X-17.6408 Y49.1364 
G01 X-17.6471 Y49.1193 
G01 X-17.6471 Y48.9830 
G01 X-17.6449 Y48.9705 
G01 X-17.6471 Y48.9466 
G01 X-17.6471 Y48.9226 
G01 X-17.6504 Y48.9103 
G01 X-17.6627 Y48.7746 
G01 X-17.6580 Y48.7570 
G01 X-17.6488 Y48.7274 
G01 X-17.6486 Y48.7217 
G01 X-17.6471 Y48.7162 
G01 X-17.6471 Y48.6853 
G01 X-17.6458 Y48.6543 
G01 X-17.6471 Y48.6487 
G01 X-17.6471 Y48.0830 
G01 X-17.6447 Y48.0648 
G01 X-17.6471 Y48.0466 
G01 X-17.6471 Y48.0282 
G01 X-17.6519 Y48.0105 
G01 X-17.6543 Y47.9922 
G01 X-17.6613 Y47.9753 
G01 X-17.6660 Y47.9575 
G01 X-17.6752 Y47.9416 
G01 X-17.6823 Y47.9246 
G01 X-17.6934 Y47.9101 
G01 X-17.7026 Y47.8942 
G01 X-17.7156 Y47.8812 
G01 X-17.7268 Y47.8666 
G01 X-17.7414 Y47.8554 
G01 X-17.7544 Y47.8424 
G01 X-17.7703 Y47.8332 
G01 X-17.7848 Y47.8220 
G01 X-17.8018 Y47.8150 
G01 X-17.8177 Y47.8058 
G01 X-17.8355 Y47.8011 
G01 X-17.8525 Y47.7940 
G01 X-17.8707 Y47.7916 
G01 X-17.8884 Y47.7869 
G01 X-17.9068 Y47.7869 
G01 X-17.9250 Y47.7845 
G01 X-17.9432 Y47.7869 
G01 X-17.9616 Y47.7869 
G01 X-17.9793 Y47.7916 
G01 X-17.9975 Y47.7940 
G01 X-18.0145 Y47.8011 
G01 X-18.0323 Y47.8058 
G01 X-18.0482 Y47.8150 
G01 X-18.0651 Y47.8220 
G01 X-18.0797 Y47.8332 
G01 X-18.0956 Y47.8424 
G01 X-18.1086 Y47.8554 
G01 X-18.1232 Y47.8666 
G01 X-18.1344 Y47.8812 
G01 X-18.1474 Y47.8942 
G01 X-18.1565 Y47.9101 
G01 X-18.1677 Y47.9246 
G01 X-18.1748 Y47.9416 
G01 X-18.1840 Y47.9575 
G01 X-18.1887 Y47.9753 
G01 X-18.3719 Y48.4175 
G01 X-18.6270 Y48.6726 
G01 X-18.6787 Y48.7244 
G01 X-18.7016 Y48.7640 
G01 X-18.7153 Y48.7877 
G01 X-18.7343 Y48.8584 
G01 X-18.7343 Y48.9316 
G01 X-18.7161 Y48.9993 
G01 X-18.7153 Y49.0023 
G01 X-18.6787 Y49.0656 
G01 X-18.3719 Y49.3725 
G01 X-18.1589 Y49.8867 
G01 X-18.1589 Y50.4433 
G01 X-18.3719 Y50.9575 
G01 X-18.7655 Y51.3511 
G01 X-19.2797 Y51.5641 
G01 X-21.3603 Y51.5641 
G01 X-21.8745 Y51.3511 
G01 X-22.1017 Y51.1239 
G01 X-22.1481 Y51.0775 
G01 X-22.1535 Y51.0721 
G01 X-22.1795 Y51.0571 
G01 X-22.2168 Y51.0356 
G01 X-22.2875 Y51.0166 
G01 X-22.3607 Y51.0166 
G01 X-22.3788 Y51.0215 
G01 X-22.4314 Y51.0356 
G01 X-22.4947 Y51.0721 
G01 X-22.5465 Y51.1239 
G01 X-22.6309 Y51.2083 
G01 X-22.8651 Y51.3053 
G01 X-23.3025 Y51.3053 
G01 X-23.3367 Y51.3047 
G01 X-23.3414 Y51.3053 
G01 X-23.3746 Y51.3142 
G01 X-23.4077 Y51.3225 
G01 X-23.4121 Y51.3242 
G01 X-23.4417 Y51.3414 
G01 X-23.4717 Y51.3580 
G01 X-23.4754 Y51.3608 
G01 X-23.4995 Y51.3849 
G01 X-23.5243 Y51.4088 
G01 X-23.5272 Y51.4126 
G01 X-23.5443 Y51.4422 
G01 X-25.4725 Y54.6559 
G01 X-25.4912 Y54.6871 
G01 X-25.5089 Y54.7166 
G01 X-25.5108 Y54.7209 
G01 X-25.5196 Y54.7540 
G01 X-25.5290 Y54.7869 
G01 X-25.5297 Y54.7916 
G01 X-25.5297 Y54.8259 
G01 X-25.5303 Y54.8601 
G01 X-25.5297 Y55.5574 
G01 X-25.6267 Y55.7916 
G01 X-25.8059 Y55.9708 
G01 X-26.0401 Y56.0678 
G01 X-27.2999 Y56.0678 
G01 X-27.5341 Y55.9708 
G01 X-27.7133 Y55.7916 
G01 X-27.8103 Y55.5574 
G01 X-27.8103 Y54.2976 
G01 X-27.7133 Y54.0634 
G01 X-27.5341 Y53.8842 
G01 X-27.2999 Y53.7872 
G01 X-27.1799 Y53.7872 
G01 X-27.1458 Y53.7878 
G01 X-27.1411 Y53.7872 
G01 X-27.1079 Y53.7783 
G01 X-27.0748 Y53.7700 
G01 X-27.0704 Y53.7683 
G01 X-27.0408 Y53.7511 
G01 X-27.0108 Y53.7345 
G01 X-27.0071 Y53.7317 
G01 X-26.9830 Y53.7076 
G01 X-26.9582 Y53.6837 
G01 X-26.9553 Y53.6799 
G01 X-26.9382 Y53.6503 
G01 X-24.6925 Y49.9074 
G01 X-24.6737 Y49.8762 
G01 X-24.6561 Y49.8468 
G01 X-24.6542 Y49.8424 
G01 X-24.6454 Y49.8093 
G01 X-24.6360 Y49.7764 
G01 X-24.6353 Y49.7717 
G01 X-24.6353 Y49.7374 
G01 X-24.6347 Y49.7032 
G01 X-24.6353 Y49.5351 
G01 X-24.5383 Y49.3009 
G01 X-24.3030 Y49.0656 
G01 X-24.2947 Y49.0511 
G01 X-24.2664 Y49.0023 
G01 X-24.2475 Y48.9316 
G01 X-24.2475 Y48.8584 
G01 X-24.2664 Y48.7877 
G01 X-24.2902 Y48.7467 
G01 X-24.3030 Y48.7244 
G01 X-24.3548 Y48.6726 
G01 X-24.5383 Y48.4891 
G01 X-24.6353 Y48.2549 
G01 X-24.6353 Y46.9951 
G01 X-24.5383 Y46.7609 
G01 X-24.3591 Y46.5817 
G01 X-24.2070 Y46.5187 
G01 X-24.1941 Y46.5157 
G01 X-24.1733 Y46.5047 
G01 X-24.1516 Y46.4957 
G01 X-24.1411 Y46.4877 
G01 X-24.1294 Y46.4815 
G01 X-24.1122 Y46.4655 
G01 X-24.0935 Y46.4512 
G01 X-24.0855 Y46.4407 
G01 X-24.0758 Y46.4317 
G01 X-24.0633 Y46.4118 
G01 X-24.0490 Y46.3932 
G01 X-24.0439 Y46.3809 
G01 X-24.0369 Y46.3697 
G01 X-24.0300 Y46.3472 
G01 X-24.0210 Y46.3255 
G01 X-24.0193 Y46.3124 
G01 X-23.3868 Y44.2570 
G01 X-23.3842 Y44.2525 
G01 X-23.3761 Y44.2221 
G01 X-23.3668 Y44.1920 
G01 X-23.3666 Y44.1868 
G01 X-23.3653 Y44.1818 
G01 X-23.3653 Y44.1504 
G01 X-23.3641 Y44.1189 
G01 X-23.3653 Y44.1138 
G01 X-23.3653 Y42.8676 
G01 X-23.2683 Y42.6334 
G01 X-23.0891 Y42.4542 
G01 X-22.8549 Y42.3572 
G01 X-21.5978 Y42.3572 
G01 X-21.5901 Y42.3593 
G01 X-21.5731 Y42.3663 
G01 X-21.5549 Y42.3687 
G01 X-21.5371 Y42.3735 
G01 X-21.5188 Y42.3735 
G01 X-21.5006 Y42.3759 
G01 X-21.4823 Y42.3735 
G01 X-21.4640 Y42.3735 
G01 X-21.4462 Y42.3687 
G01 X-21.4280 Y42.3663 
G01 X-21.4110 Y42.3593 
G01 X-21.3933 Y42.3545 
G01 X-21.3774 Y42.3453 
G01 X-21.3604 Y42.3383 
G01 X-21.3458 Y42.3271 
G01 X-21.3299 Y42.3179 
G01 X-21.3169 Y42.3049 
G01 X-21.3024 Y42.2938 
G01 X-21.2912 Y42.2792 
G01 X-21.2782 Y42.2662 
G01 X-21.2690 Y42.2503 
G01 X-21.2578 Y42.2357 
G01 X-21.2508 Y42.2187 
G01 X-21.2416 Y42.2028 
G01 X-21.2368 Y42.1851 
G01 X-21.2298 Y42.1681 
G01 X-21.2274 Y42.1499 
G01 X-21.2226 Y42.1321 
G01 X-21.2226 Y42.1138 
G01 X-21.2202 Y42.0956 
G01 X-21.2226 Y42.0774 
G01 X-21.2226 Y42.0590 
G01 X-21.2274 Y42.0412 
G01 X-21.2298 Y42.0230 
G01 X-21.2368 Y42.0060 
G01 X-21.2416 Y41.9883 
G01 X-21.2508 Y41.9724 
G01 X-21.2578 Y41.9554 
G01 X-21.2690 Y41.9408 
G01 X-21.2782 Y41.9249 
G01 X-21.2912 Y41.9119 
G01 X-21.3023 Y41.8974 
G01 X-21.3169 Y41.8862 
G01 X-21.6880 Y41.5151 
G01 X-21.7287 Y41.4916 
G01 X-21.7513 Y41.4785 
G01 X-21.8190 Y41.4604 
G01 X-21.8220 Y41.4596 
G01 X-39.2429 Y41.4596 
G01 X-39.2611 Y41.4572 
G01 X-39.2793 Y41.4596 
G01 X-39.2976 Y41.4596 
G01 X-39.3154 Y41.4644 
G01 X-39.3336 Y41.4667 
G01 X-39.3506 Y41.4738 
G01 X-39.3683 Y41.4785 
G01 X-39.3843 Y41.4877 
G01 X-39.4012 Y41.4948 
G01 X-39.4158 Y41.5059 
G01 X-39.4317 Y41.5151 
G01 X-39.4447 Y41.5281 
G01 X-39.4593 Y41.5393 
G01 X-39.4705 Y41.5539 
G01 X-39.4834 Y41.5669 
G01 X-39.4926 Y41.5828 
G01 X-39.5038 Y41.5973 
G01 X-39.5108 Y41.6143 
G01 X-39.5200 Y41.6302 
G01 X-39.5248 Y41.6480 
G01 X-39.5967 Y41.8216 
G01 X-39.7759 Y42.0008 
G01 X-40.0101 Y42.0978 
G01 X-41.2699 Y42.0978 
G01 X-41.2768 Y42.0949 
G01 X-41.2927 Y42.0857 
G01 X-41.3105 Y42.0810 
G01 X-41.3275 Y42.0740 
G01 X-41.3457 Y42.0716 
G01 X-41.3634 Y42.0668 
G01 X-41.3818 Y42.0668 
G01 X-41.4000 Y42.0644 
G01 X-41.4182 Y42.0668 
G01 X-41.4366 Y42.0668 
G01 X-41.4544 Y42.0716 
G01 X-41.4726 Y42.0740 
G01 X-41.4895 Y42.0810 
G01 X-41.5073 Y42.0857 
G01 X-41.5232 Y42.0949 
G01 X-41.5402 Y42.1020 
G01 X-41.5547 Y42.1131 
G01 X-41.5706 Y42.1223 
G01 X-41.5836 Y42.1353 
G01 X-41.5982 Y42.1465 
G01 X-41.6094 Y42.1611 
G01 X-41.6224 Y42.1741 
G01 X-41.6316 Y42.1900 
G01 X-41.6428 Y42.2046 
G01 X-41.6498 Y42.2215 
G01 X-41.6590 Y42.2374 
G01 X-41.6637 Y42.2552 
G01 X-41.6708 Y42.2722 
G01 X-41.6732 Y42.2904 
G01 X-41.6779 Y42.3081 
G01 X-41.6779 Y42.3265 
G01 X-41.6803 Y42.3447 
G01 X-41.6779 Y42.3629 
G01 X-41.6779 Y42.3813 
G01 X-41.6731 Y42.3991 
G01 X-41.6708 Y42.4173 
G01 X-41.6637 Y42.4342 
G01 X-41.5969 Y42.6836 
G01 X-41.5969 Y43.3164 
G01 X-41.7607 Y43.9276 
G01 X-42.0770 Y44.4755 
G01 X-42.5245 Y44.9230 
G01 X-43.0724 Y45.2393 
G01 X-43.6836 Y45.4031 
G01 X-44.3164 Y45.4031 
G01 X-44.9276 Y45.2393 
G01 X-45.3717 Y44.9829 
G01 X-45.4424 Y44.9639 
G01 X-45.5156 Y44.9639 
G01 X-45.5186 Y44.9648 
G01 X-45.5863 Y44.9829 
G01 X-45.6089 Y44.9960 
G01 X-45.6496 Y45.0195 
G01 X-45.7014 Y45.0712 
G01 X-45.7380 Y45.1346 
G01 X-45.7569 Y45.2053 
G01 X-45.7569 Y65.7947 
G01 X-45.7388 Y65.8624 
G01 X-45.7380 Y65.8654 
G01 X-45.7014 Y65.9288 
G01 X-45.6496 Y65.9805 
G01 X-45.6100 Y66.0034 
G01 X-45.5863 Y66.0171 
G01 X-45.5156 Y66.0361 
G01 X-45.4424 Y66.0361 
G01 X-45.3747 Y66.0179 
G01 X-45.3717 Y66.0171 
G01 X-44.9276 Y65.7607 
G01 X-44.3164 Y65.5969 
G01 X-43.6836 Y65.5969 
G01 X-43.0724 Y65.7607 
G01 X-42.5245 Y66.0770 
G01 X-42.0770 Y66.5245 
G01 X-41.7607 Y67.0724 
G01 X-41.5969 Y67.6836 
G01 X-41.5969 Y68.3164 
G01 X-41.7607 Y68.9276 
G01 X-42.0770 Y69.4755 
G01 X-42.3599 Y69.7584 
G01 X-42.3965 Y69.8217 
G01 X-42.4154 Y69.8924 
G01 X-42.4154 Y69.9656 
G01 X-42.4146 Y69.9686 
G01 X-42.3965 Y70.0363 
G01 X-42.3834 Y70.0589 
G01 X-42.3599 Y70.0996 
G01 X-42.3081 Y70.1514 
G01 X-42.2448 Y70.1880 
G01 X-42.1741 Y70.2069 
G01 X-1.1444 Y70.2069 
G01 X-1.0737 Y70.1880 
G01 X-1.0104 Y70.1514 
G01 X-0.9586 Y70.0996 
G01 X-0.9220 Y70.0363 
G01 X-0.9031 Y69.9656 
G01 X-0.9031 Y1.1444  
G01 X-0.9220 Y1.0737  
G01 X-0.9586 Y1.0104  
G00 Z3.0000  
G00 X-3.2789 Y2.6176  
G01 Z-0.0800 F254   
G01 X-3.2526 Y2.6439  F508   
G01 X-3.2340 Y2.6760  
G01 X-3.2244 Y2.7119  
G01 X-3.2244 Y3.1256  
G01 X-3.2526 Y3.1256  
G01 X-3.2526 Y2.7080  
G01 X-3.2698 Y2.6665  
G01 X-3.3015 Y2.6348  
G01 X-3.3430 Y2.6176  
G01 X-3.7606 Y2.6176  
G01 X-3.7606 Y2.5894  
G01 X-3.3469 Y2.5894  
G01 X-3.3110 Y2.5990  
G01 X-3.2789 Y2.6176  
G00 Z3.0000  
G00 X-3.2526 Y3.8594  
G01 Z-0.0800 F254   
G01 X-3.2244 Y3.8594  F508   
G01 X-3.2244 Y4.2731  
G01 X-3.2340 Y4.3090  
G01 X-3.2526 Y4.3411  
G01 X-3.2789 Y4.3674  
G01 X-3.3110 Y4.3860  
G01 X-3.3469 Y4.3956  
G01 X-3.5146 Y4.3956  
G01 X-3.5146 Y4.3674  
G01 X-3.3430 Y4.3674  
G01 X-3.3015 Y4.3502  
G01 X-3.2698 Y4.3185  
G01 X-3.2526 Y4.2770  
G01 X-3.2526 Y3.8594  
G00 Z3.0000  
G00 X-3.2789 Y5.1576  
G01 Z-0.0800 F254   
G01 X-3.2526 Y5.1839  F508   
G01 X-3.2340 Y5.2160  
G01 X-3.2244 Y5.2519  
G01 X-3.2244 Y5.6656  
G01 X-3.2526 Y5.6656  
G01 X-3.2526 Y5.2480  
G01 X-3.2698 Y5.2065  
G01 X-3.3015 Y5.1748  
G01 X-3.3430 Y5.1576  
G01 X-3.5146 Y5.1576  
G01 X-3.5146 Y5.1294  
G01 X-3.3469 Y5.1294  
G01 X-3.3110 Y5.1390  
G01 X-3.2789 Y5.1576  
G00 Z3.0000  
G00 X-3.2526 Y6.3994  
G01 Z-0.0800 F254   
G01 X-3.2244 Y6.3994  F508   
G01 X-3.2244 Y6.8131  
G01 X-3.2340 Y6.8490  
G01 X-3.2526 Y6.8811  
G01 X-3.2789 Y6.9074  
G01 X-3.3110 Y6.9260  
G01 X-3.3469 Y6.9356  
G01 X-3.5146 Y6.9356  
G01 X-3.5146 Y6.9074  
G01 X-3.3430 Y6.9074  
G01 X-3.3015 Y6.8902  
G01 X-3.2698 Y6.8585  
G01 X-3.2526 Y6.8170  
G01 X-3.2526 Y6.3994  
G00 Z3.0000  
G00 X-3.2789 Y7.6976  
G01 Z-0.0800 F254   
G01 X-3.2526 Y7.7239  F508   
G01 X-3.2340 Y7.7560  
G01 X-3.2244 Y7.7919  
G01 X-3.2244 Y8.2056  
G01 X-3.2526 Y8.2056  
G01 X-3.2526 Y7.7880  
G01 X-3.2698 Y7.7465  
G01 X-3.3015 Y7.7148  
G01 X-3.3430 Y7.6976  
G01 X-3.5146 Y7.6976  
G01 X-3.5146 Y7.6694  
G01 X-3.3469 Y7.6694  
G01 X-3.3110 Y7.6790  
G01 X-3.2789 Y7.6976  
G00 Z3.0000  
G00 X-3.2526 Y8.9394  
G01 Z-0.0800 F254   
G01 X-3.2244 Y8.9394  F508   
G01 X-3.2244 Y9.3531  
G01 X-3.2340 Y9.3890  
G01 X-3.2526 Y9.4211  
G01 X-3.2789 Y9.4474  
G01 X-3.3110 Y9.4660  
G01 X-3.3469 Y9.4756  
G01 X-3.5146 Y9.4756  
G01 X-3.5146 Y9.4474  
G01 X-3.3430 Y9.4474  
G01 X-3.3015 Y9.4302  
G01 X-3.2698 Y9.3985  
G01 X-3.2526 Y9.3570  
G01 X-3.2526 Y8.9394  
G00 Z3.0000  
G00 X-3.2789 Y10.2376 
G01 Z-0.0800 F254   
G01 X-3.2526 Y10.2639 F508   
G01 X-3.2340 Y10.2960 
G01 X-3.2244 Y10.3319 
G01 X-3.2244 Y10.7456 
G01 X-3.2526 Y10.7456 
G01 X-3.2526 Y10.3280 
G01 X-3.2698 Y10.2865 
G01 X-3.3015 Y10.2548 
G01 X-3.3430 Y10.2376 
G01 X-3.5146 Y10.2376 
G01 X-3.5146 Y10.2094 
G01 X-3.3469 Y10.2094 
G01 X-3.3110 Y10.2190 
G01 X-3.2789 Y10.2376 
G00 Z3.0000  
G00 X-3.2526 Y11.4794 
G01 Z-0.0800 F254   
G01 X-3.2244 Y11.4794 F508   
G01 X-3.2244 Y11.8931 
G01 X-3.2340 Y11.9290 
G01 X-3.2526 Y11.9611 
G01 X-3.2789 Y11.9874 
G01 X-3.3110 Y12.0060 
G01 X-3.3469 Y12.0156 
G01 X-3.5146 Y12.0156 
G01 X-3.5146 Y11.9874 
G01 X-3.3430 Y11.9874 
G01 X-3.3015 Y11.9702 
G01 X-3.2698 Y11.9384 
G01 X-3.2526 Y11.8970 
G01 X-3.2526 Y11.4794 
G00 Z3.0000  
G00 X-3.2789 Y12.7776 
G01 Z-0.0800 F254   
G01 X-3.2526 Y12.8039 F508   
G01 X-3.2340 Y12.8360 
G01 X-3.2244 Y12.8719 
G01 X-3.2244 Y13.2856 
G01 X-3.2526 Y13.2856 
G01 X-3.2526 Y12.8680 
G01 X-3.2698 Y12.8265 
G01 X-3.3015 Y12.7948 
G01 X-3.3430 Y12.7776 
G01 X-3.5146 Y12.7776 
G01 X-3.5146 Y12.7494 
G01 X-3.3469 Y12.7494 
G01 X-3.3110 Y12.7590 
G01 X-3.2789 Y12.7776 
G00 Z3.0000  
G00 X-3.2526 Y14.0194 
G01 Z-0.0800 F254   
G01 X-3.2244 Y14.0194 F508   
G01 X-3.2244 Y14.4331 
G01 X-3.2340 Y14.4690 
G01 X-3.2526 Y14.5011 
G01 X-3.2789 Y14.5274 
G01 X-3.3110 Y14.5460 
G01 X-3.3469 Y14.5556 
G01 X-3.5146 Y14.5556 
G01 X-3.5146 Y14.5274 
G01 X-3.3430 Y14.5274 
G01 X-3.3015 Y14.5102 
G01 X-3.2698 Y14.4785 
G01 X-3.2526 Y14.4370 
G01 X-3.2526 Y14.0194 
G00 Z3.0000  
G00 X-3.2789 Y15.3176 
G01 Z-0.0800 F254   
G01 X-3.2526 Y15.3439 F508   
G01 X-3.2340 Y15.3760 
G01 X-3.2244 Y15.4119 
G01 X-3.2244 Y15.8256 
G01 X-3.2526 Y15.8256 
G01 X-3.2526 Y15.4080 
G01 X-3.2698 Y15.3665 
G01 X-3.3015 Y15.3348 
G01 X-3.3430 Y15.3176 
G01 X-3.5146 Y15.3176 
G01 X-3.5146 Y15.2894 
G01 X-3.3469 Y15.2894 
G01 X-3.3110 Y15.2990 
G01 X-3.2789 Y15.3176 
G00 Z3.0000  
G00 X-3.2526 Y16.5594 
G01 Z-0.0800 F254   
G01 X-3.2244 Y16.5594 F508   
G01 X-3.2244 Y16.9731 
G01 X-3.2340 Y17.0090 
G01 X-3.2526 Y17.0411 
G01 X-3.2789 Y17.0674 
G01 X-3.3110 Y17.0860 
G01 X-3.3469 Y17.0956 
G01 X-3.5146 Y17.0956 
G01 X-3.5146 Y17.0674 
G01 X-3.3430 Y17.0674 
G01 X-3.3015 Y17.0502 
G01 X-3.2698 Y17.0185 
G01 X-3.2526 Y16.9770 
G01 X-3.2526 Y16.5594 
G00 Z3.0000  
G00 X-3.2789 Y17.8576 
G01 Z-0.0800 F254   
G01 X-3.2526 Y17.8839 F508   
G01 X-3.2340 Y17.9160 
G01 X-3.2244 Y17.9519 
G01 X-3.2244 Y18.3656 
G01 X-3.2526 Y18.3656 
G01 X-3.2526 Y17.9480 
G01 X-3.2698 Y17.9065 
G01 X-3.3015 Y17.8748 
G01 X-3.3430 Y17.8576 
G01 X-3.5146 Y17.8576 
G01 X-3.5146 Y17.8294 
G01 X-3.3469 Y17.8294 
G01 X-3.3110 Y17.8390 
G01 X-3.2789 Y17.8576 
G00 Z3.0000  
G00 X-3.2526 Y19.0994 
G01 Z-0.0800 F254   
G01 X-3.2244 Y19.0994 F508   
G01 X-3.2244 Y19.5131 
G01 X-3.2340 Y19.5490 
G01 X-3.2526 Y19.5811 
G01 X-3.2789 Y19.6074 
G01 X-3.3110 Y19.6260 
G01 X-3.3469 Y19.6356 
G01 X-3.5146 Y19.6356 
G01 X-3.5146 Y19.6074 
G01 X-3.3430 Y19.6074 
G01 X-3.3015 Y19.5902 
G01 X-3.2698 Y19.5585 
G01 X-3.2526 Y19.5170 
G01 X-3.2526 Y19.0994 
G00 Z3.0000  
G00 X-3.2789 Y20.3976 
G01 Z-0.0800 F254   
G01 X-3.2526 Y20.4239 F508   
G01 X-3.2340 Y20.4560 
G01 X-3.2244 Y20.4919 
G01 X-3.2244 Y20.9056 
G01 X-3.2526 Y20.9056 
G01 X-3.2526 Y20.4880 
G01 X-3.2698 Y20.4465 
G01 X-3.3015 Y20.4148 
G01 X-3.3430 Y20.3976 
G01 X-3.5146 Y20.3976 
G01 X-3.5146 Y20.3694 
G01 X-3.3469 Y20.3694 
G01 X-3.3110 Y20.3790 
G01 X-3.2789 Y20.3976 
G00 Z3.0000  
G00 X-3.2526 Y21.6394 
G01 Z-0.0800 F254   
G01 X-3.2244 Y21.6394 F508   
G01 X-3.2244 Y22.0531 
G01 X-3.2340 Y22.0890 
G01 X-3.2526 Y22.1211 
G01 X-3.2789 Y22.1474 
G01 X-3.3110 Y22.1660 
G01 X-3.3469 Y22.1756 
G01 X-3.7606 Y22.1756 
G01 X-3.7606 Y22.1474 
G01 X-3.3430 Y22.1474 
G01 X-3.3015 Y22.1302 
G01 X-3.2698 Y22.0984 
G01 X-3.2526 Y22.0570 
G01 X-3.2526 Y21.6394 
G00 Z3.0000  
G00 X-5.7926 Y22.0570 
G01 Z-0.0800 F254   
G01 X-5.7926 Y20.4880 F508   
G01 X-5.8098 Y20.4465 
G01 X-5.8415 Y20.4148 
G01 X-5.8830 Y20.3976 
G01 X-6.0546 Y20.3976 
G01 X-6.0546 Y19.6074 
G01 X-5.8830 Y19.6074 
G01 X-5.8415 Y19.5902 
G01 X-5.8098 Y19.5585 
G01 X-5.7926 Y19.5170 
G01 X-5.7926 Y17.9480 
G01 X-5.8098 Y17.9065 
G01 X-5.8415 Y17.8748 
G01 X-5.8830 Y17.8576 
G01 X-6.0546 Y17.8576 
G01 X-6.0546 Y17.0674 
G01 X-5.8830 Y17.0674 
G01 X-5.8415 Y17.0502 
G01 X-5.8098 Y17.0185 
G01 X-5.7926 Y16.9770 
G01 X-5.7926 Y15.4080 
G01 X-5.8098 Y15.3665 
G01 X-5.8415 Y15.3348 
G01 X-5.8830 Y15.3176 
G01 X-6.0546 Y15.3176 
G01 X-6.0546 Y14.5274 
G01 X-5.8830 Y14.5274 
G01 X-5.8415 Y14.5102 
G01 X-5.8098 Y14.4785 
G01 X-5.7926 Y14.4370 
G01 X-5.7926 Y12.8680 
G01 X-5.8098 Y12.8265 
G01 X-5.8415 Y12.7948 
G01 X-5.8830 Y12.7776 
G01 X-6.0546 Y12.7776 
G01 X-6.0546 Y11.9874 
G01 X-5.8830 Y11.9874 
G01 X-5.8415 Y11.9702 
G01 X-5.8098 Y11.9384 
G01 X-5.7926 Y11.8970 
G01 X-5.7926 Y10.3280 
G01 X-5.8098 Y10.2865 
G01 X-5.8415 Y10.2548 
G01 X-5.8830 Y10.2376 
G01 X-6.0546 Y10.2376 
G01 X-6.0546 Y9.4474  
G01 X-5.8830 Y9.4474  
G01 X-5.8415 Y9.4302  
G01 X-5.8098 Y9.3985  
G01 X-5.7926 Y9.3570  
G01 X-5.7926 Y7.7880  
G01 X-5.8098 Y7.7465  
G01 X-5.8415 Y7.7148  
G01 X-5.8830 Y7.6976  
G01 X-6.0546 Y7.6976  
G01 X-6.0546 Y6.9074  
G01 X-5.8830 Y6.9074  
G01 X-5.8415 Y6.8902  
G01 X-5.8098 Y6.8585  
G01 X-5.7926 Y6.8170  
G01 X-5.7926 Y5.2480  
G01 X-5.8098 Y5.2065  
G01 X-5.8415 Y5.1748  
G01 X-5.8830 Y5.1576  
G01 X-6.0546 Y5.1576  
G01 X-6.0546 Y4.3674  
G01 X-5.8830 Y4.3674  
G01 X-5.8415 Y4.3502  
G01 X-5.8098 Y4.3185  
G01 X-5.7926 Y4.2770  
G01 X-5.7926 Y2.7080  
G01 X-5.8098 Y2.6665  
G01 X-5.8415 Y2.6348  
G01 X-5.8830 Y2.6176  
G01 X-7.4520 Y2.6176  
G01 X-7.4935 Y2.6348  
G01 X-7.5252 Y2.6665  
G01 X-7.5424 Y2.7080  
G01 X-7.5424 Y4.2770  
G01 X-7.5252 Y4.3185  
G01 X-7.4935 Y4.3502  
G01 X-7.4520 Y4.3674  
G01 X-7.2804 Y4.3674  
G01 X-7.2804 Y5.1576  
G01 X-7.4520 Y5.1576  
G01 X-7.4935 Y5.1748  
G01 X-7.5252 Y5.2065  
G01 X-7.5424 Y5.2480  
G01 X-7.5424 Y6.8170  
G01 X-7.5252 Y6.8585  
G01 X-7.4935 Y6.8902  
G01 X-7.4520 Y6.9074  
G01 X-7.2804 Y6.9074  
G01 X-7.2804 Y7.6976  
G01 X-7.4520 Y7.6976  
G01 X-7.4935 Y7.7148  
G01 X-7.5252 Y7.7465  
G01 X-7.5424 Y7.7880  
G01 X-7.5424 Y9.3570  
G01 X-7.5252 Y9.3985  
G01 X-7.4935 Y9.4302  
G01 X-7.4520 Y9.4474  
G01 X-7.2804 Y9.4474  
G01 X-7.2804 Y10.2376 
G01 X-7.4520 Y10.2376 
G01 X-7.4935 Y10.2548 
G01 X-7.5252 Y10.2865 
G01 X-7.5424 Y10.3280 
G01 X-7.5424 Y11.8970 
G01 X-7.5252 Y11.9384 
G01 X-7.4935 Y11.9702 
G01 X-7.4520 Y11.9874 
G01 X-7.2804 Y11.9874 
G01 X-7.2804 Y12.7776 
G01 X-7.4520 Y12.7776 
G01 X-7.4935 Y12.7948 
G01 X-7.5252 Y12.8265 
G01 X-7.5424 Y12.8680 
G01 X-7.5424 Y14.4370 
G01 X-7.5252 Y14.4785 
G01 X-7.4935 Y14.5102 
G01 X-7.4520 Y14.5274 
G01 X-7.2804 Y14.5274 
G01 X-7.2804 Y15.3176 
G01 X-7.4520 Y15.3176 
G01 X-7.4935 Y15.3348 
G01 X-7.5252 Y15.3665 
G01 X-7.5424 Y15.4080 
G01 X-7.5424 Y16.9770 
G01 X-7.5252 Y17.0185 
G01 X-7.4935 Y17.0502 
G01 X-7.4520 Y17.0674 
G01 X-7.2804 Y17.0674 
G01 X-7.2804 Y17.8576 
G01 X-7.4520 Y17.8576 
G01 X-7.4935 Y17.8748 
G01 X-7.5252 Y17.9065 
G01 X-7.5424 Y17.9480 
G01 X-7.5424 Y19.5170 
G01 X-7.5252 Y19.5585 
G01 X-7.4935 Y19.5902 
G01 X-7.4520 Y19.6074 
G01 X-7.2804 Y19.6074 
G01 X-7.2804 Y20.3976 
G01 X-7.4520 Y20.3976 
G01 X-7.4935 Y20.4148 
G01 X-7.5252 Y20.4465 
G01 X-7.5424 Y20.4880 
G01 X-7.5424 Y22.0570 
G01 X-7.5252 Y22.0984 
G01 X-7.4935 Y22.1302 
G01 X-7.4520 Y22.1474 
G01 X-5.8830 Y22.1474 
G01 X-5.8415 Y22.1302 
G01 X-5.8098 Y22.0984 
G01 X-5.7926 Y22.0570 
G00 Z3.0000  
G00 X-8.3326 Y22.0570 
G01 Z-0.0800 F254   
G01 X-8.3326 Y20.4880 F508   
G01 X-8.3498 Y20.4465 
G01 X-8.3815 Y20.4148 
G01 X-8.4230 Y20.3976 
G01 X-8.4596 Y20.3976 
G01 X-8.4596 Y19.6074 
G01 X-8.4230 Y19.6074 
G01 X-8.3815 Y19.5902 
G01 X-8.3498 Y19.5585 
G01 X-8.3326 Y19.5170 
G01 X-8.3326 Y17.9480 
G01 X-8.3498 Y17.9065 
G01 X-8.3815 Y17.8748 
G01 X-8.4230 Y17.8576 
G01 X-8.4596 Y17.8576 
G01 X-8.4596 Y17.0674 
G01 X-8.4230 Y17.0674 
G01 X-8.3815 Y17.0502 
G01 X-8.3498 Y17.0185 
G01 X-8.3326 Y16.9770 
G01 X-8.3326 Y15.4080 
G01 X-8.3498 Y15.3665 
G01 X-8.3815 Y15.3348 
G01 X-8.4230 Y15.3176 
G01 X-8.4596 Y15.3176 
G01 X-8.4596 Y14.5274 
G01 X-8.4230 Y14.5274 
G01 X-8.3815 Y14.5102 
G01 X-8.3498 Y14.4785 
G01 X-8.3326 Y14.4370 
G01 X-8.3326 Y12.8680 
G01 X-8.3498 Y12.8265 
G01 X-8.3815 Y12.7948 
G01 X-8.4230 Y12.7776 
G01 X-8.4596 Y12.7776 
G01 X-8.4596 Y11.9874 
G01 X-8.4230 Y11.9874 
G01 X-8.3815 Y11.9702 
G01 X-8.3498 Y11.9384 
G01 X-8.3326 Y11.8970 
G01 X-8.3326 Y10.3280 
G01 X-8.3498 Y10.2865 
G01 X-8.3815 Y10.2548 
G01 X-8.4230 Y10.2376 
G01 X-8.4596 Y10.2376 
G01 X-8.4596 Y9.4474  
G01 X-8.4230 Y9.4474  
G01 X-8.3815 Y9.4302  
G01 X-8.3498 Y9.3985  
G01 X-8.3326 Y9.3570  
G01 X-8.3326 Y7.7880  
G01 X-8.3498 Y7.7465  
G01 X-8.3815 Y7.7148  
G01 X-8.4230 Y7.6976  
G01 X-8.4596 Y7.6976  
G01 X-8.4596 Y6.9074  
G01 X-8.4230 Y6.9074  
G01 X-8.3815 Y6.8902  
G01 X-8.3498 Y6.8585  
G01 X-8.3326 Y6.8170  
G01 X-8.3326 Y5.2480  
G01 X-8.3498 Y5.2065  
G01 X-8.3815 Y5.1748  
G01 X-8.4230 Y5.1576  
G01 X-8.4596 Y5.1576  
G01 X-8.4596 Y4.3674  
G01 X-8.4230 Y4.3674  
G01 X-8.3815 Y4.3502  
G01 X-8.3498 Y4.3185  
G01 X-8.3326 Y4.2770  
G01 X-8.3326 Y2.7080  
G01 X-8.3498 Y2.6665  
G01 X-8.3815 Y2.6348  
G01 X-8.4230 Y2.6176  
G01 X-9.9920 Y2.6176  
G01 X-10.0335 Y2.6348  
G01 X-10.0652 Y2.6665  
G01 X-10.0824 Y2.7080  
G01 X-10.0824 Y4.2770  
G01 X-10.0652 Y4.3185  
G01 X-10.0335 Y4.3502  
G01 X-9.9920 Y4.3674  
G01 X-9.9554 Y4.3674  
G01 X-9.9554 Y5.1576  
G01 X-9.9920 Y5.1576  
G01 X-10.0335 Y5.1748  
G01 X-10.0652 Y5.2065  
G01 X-10.0824 Y5.2480  
G01 X-10.0824 Y6.8170  
G01 X-10.0652 Y6.8585  
G01 X-10.0335 Y6.8902  
G01 X-9.9920 Y6.9074  
G01 X-9.9554 Y6.9074  
G01 X-9.9554 Y7.6976  
G01 X-9.9920 Y7.6976  
G01 X-10.0335 Y7.7148  
G01 X-10.0652 Y7.7465  
G01 X-10.0824 Y7.7880  
G01 X-10.0824 Y9.3570  
G01 X-10.0652 Y9.3985  
G01 X-10.0335 Y9.4302  
G01 X-9.9920 Y9.4474  
G01 X-9.9554 Y9.4474  
G01 X-9.9554 Y10.2376 
G01 X-9.9920 Y10.2376 
G01 X-10.0335 Y10.2548 
G01 X-10.0652 Y10.2865 
G01 X-10.0824 Y10.3280 
G01 X-10.0824 Y11.8970 
G01 X-10.0652 Y11.9384 
G01 X-10.0335 Y11.9702 
G01 X-9.9920 Y11.9874 
G01 X-9.9554 Y11.9874 
G01 X-9.9554 Y12.7776 
G01 X-9.9920 Y12.7776 
G01 X-10.0335 Y12.7948 
G01 X-10.0652 Y12.8265 
G01 X-10.0824 Y12.8680 
G01 X-10.0824 Y14.4370 
G01 X-10.0652 Y14.4785 
G01 X-10.0335 Y14.5102 
G01 X-9.9920 Y14.5274 
G01 X-9.9554 Y14.5274 
G01 X-9.9554 Y15.3176 
G01 X-9.9920 Y15.3176 
G01 X-10.0335 Y15.3348 
G01 X-10.0652 Y15.3665 
G01 X-10.0824 Y15.4080 
G01 X-10.0824 Y16.9770 
G01 X-10.0652 Y17.0185 
G01 X-10.0335 Y17.0502 
G01 X-9.9920 Y17.0674 
G01 X-9.9554 Y17.0674 
G01 X-9.9554 Y17.8576 
G01 X-9.9920 Y17.8576 
G01 X-10.0335 Y17.8748 
G01 X-10.0652 Y17.9065 
G01 X-10.0824 Y17.9480 
G01 X-10.0824 Y19.5170 
G01 X-10.0652 Y19.5585 
G01 X-10.0335 Y19.5902 
G01 X-9.9920 Y19.6074 
G01 X-9.9554 Y19.6074 
G01 X-9.9554 Y20.3976 
G01 X-9.9920 Y20.3976 
G01 X-10.0335 Y20.4148 
G01 X-10.0652 Y20.4465 
G01 X-10.0824 Y20.4880 
G01 X-10.0824 Y22.0570 
G01 X-10.0652 Y22.0984 
G01 X-10.0335 Y22.1302 
G01 X-9.9920 Y22.1474 
G01 X-9.8204 Y22.1474 
G01 X-9.8204 Y30.8611 
G01 X-11.9061 Y32.9468 
G01 X-11.9731 Y33.0472 
G01 X-12.0193 Y33.1587 
G01 X-12.0429 Y33.2771 
G01 X-12.0429 Y33.4391 
G01 X-12.0461 Y33.4468 
G01 X-12.0461 Y34.4982 
G01 X-12.0429 Y34.5059 
G01 X-12.0429 Y44.8311 
G01 X-14.1524 Y46.9406 
G01 X-14.7025 Y46.9406 
G01 X-15.2894 Y47.5275 
G01 X-15.2894 Y48.3575 
G01 X-14.7025 Y48.9444 
G01 X-13.8725 Y48.9444 
G01 X-13.2856 Y48.3575 
G01 X-13.2856 Y47.8074 
G01 X-11.0393 Y45.5611 
G01 X-10.9539 Y45.4757 
G01 X-10.8869 Y45.3753 
G01 X-10.8407 Y45.2638 
G01 X-10.8171 Y45.1454 
G01 X-10.8171 Y34.5059 
G01 X-10.8139 Y34.4982 
G01 X-10.8139 Y33.5882 
G01 X-8.9536 Y31.7279 
G01 X-6.9214 Y31.7279 
G01 X-5.9362 Y32.7130 
G01 X-5.9549 Y32.8068 
G01 X-5.9549 Y34.5032 
G01 X-5.9213 Y34.6722 
G01 X-5.8553 Y34.8314 
G01 X-5.8279 Y34.8725 
G01 X-5.8279 Y35.9300 
G01 X-5.8553 Y35.9711 
G01 X-5.9213 Y36.1303 
G01 X-5.9549 Y36.2993 
G01 X-5.9549 Y37.9957 
G01 X-5.9213 Y38.1647 
G01 X-5.8553 Y38.3239 
G01 X-5.7596 Y38.4672 
G01 X-5.6377 Y38.5891 
G01 X-5.4944 Y38.6848 
G01 X-5.3352 Y38.7508 
G01 X-5.1662 Y38.7844 
G01 X-4.9938 Y38.7844 
G01 X-4.8248 Y38.7508 
G01 X-4.6656 Y38.6848 
G01 X-4.5223 Y38.5891 
G01 X-4.4004 Y38.4672 
G01 X-4.3047 Y38.3239 
G01 X-4.2387 Y38.1647 
G01 X-4.2051 Y37.9957 
G01 X-4.2051 Y36.2993 
G01 X-4.2387 Y36.1303 
G01 X-4.3047 Y35.9711 
G01 X-4.3321 Y35.9300 
G01 X-4.3321 Y34.8725 
G01 X-4.3047 Y34.8314 
G01 X-4.2387 Y34.6722 
G01 X-4.2051 Y34.5032 
G01 X-4.2051 Y32.8068 
G01 X-4.2387 Y32.6378 
G01 X-4.3047 Y32.4786 
G01 X-4.4004 Y32.3353 
G01 X-4.5223 Y32.2134 
G01 X-4.6656 Y32.1177 
G01 X-4.8248 Y32.0517 
G01 X-4.8737 Y32.0420 
G01 X-6.2768 Y30.6389 
G01 X-6.3772 Y30.5719 
G01 X-6.4887 Y30.5257 
G01 X-6.6071 Y30.5021 
G01 X-8.5946 Y30.5021 
G01 X-8.5946 Y22.1474 
G01 X-8.4230 Y22.1474 
G01 X-8.3815 Y22.1302 
G01 X-8.3498 Y22.0984 
G01 X-8.3326 Y22.0570 
G00 Z3.0000  
G00 X-10.8726 Y22.0570 
G01 Z-0.0800 F254   
G01 X-10.8726 Y20.4880 F508   
G01 X-10.8898 Y20.4465 
G01 X-10.9215 Y20.4148 
G01 X-10.9630 Y20.3976 
G01 X-12.5320 Y20.3976 
G01 X-12.5734 Y20.4148 
G01 X-12.6052 Y20.4465 
G01 X-12.6224 Y20.4880 
G01 X-12.6224 Y22.0570 
G01 X-12.6052 Y22.0984 
G01 X-12.5734 Y22.1302 
G01 X-12.5320 Y22.1474 
G01 X-10.9630 Y22.1474 
G01 X-10.9215 Y22.1302 
G01 X-10.8898 Y22.0984 
G01 X-10.8726 Y22.0570 
G00 Z3.0000  
G00 X-10.9215 Y19.5902 
G01 Z-0.0800 F254   
G01 X-10.8898 Y19.5585 F508   
G01 X-10.8726 Y19.5170 
G01 X-10.8726 Y17.9480 
G01 X-10.8898 Y17.9065 
G01 X-10.9215 Y17.8748 
G01 X-10.9630 Y17.8576 
G01 X-12.5320 Y17.8576 
G01 X-12.5734 Y17.8748 
G01 X-12.6052 Y17.9065 
G01 X-12.6224 Y17.9480 
G01 X-12.6224 Y19.5170 
G01 X-12.6052 Y19.5585 
G01 X-12.5734 Y19.5902 
G01 X-12.5320 Y19.6074 
G01 X-10.9630 Y19.6074 
G01 X-10.9215 Y19.5902 
G00 Z3.0000  
G00 X-10.9215 Y17.0502 
G01 Z-0.0800 F254   
G01 X-10.8898 Y17.0185 F508   
G01 X-10.8726 Y16.9770 
G01 X-10.8726 Y15.4080 
G01 X-10.8898 Y15.3665 
G01 X-10.9215 Y15.3348 
G01 X-10.9630 Y15.3176 
G01 X-12.5320 Y15.3176 
G01 X-12.5734 Y15.3348 
G01 X-12.6052 Y15.3665 
G01 X-12.6224 Y15.4080 
G01 X-12.6224 Y16.9770 
G01 X-12.6052 Y17.0185 
G01 X-12.5734 Y17.0502 
G01 X-12.5320 Y17.0674 
G01 X-10.9630 Y17.0674 
G01 X-10.9215 Y17.0502 
G00 Z3.0000  
G00 X-10.9215 Y14.5102 
G01 Z-0.0800 F254   
G01 X-10.8898 Y14.4785 F508   
G01 X-10.8726 Y14.4370 
G01 X-10.8726 Y12.8680 
G01 X-10.8898 Y12.8265 
G01 X-10.9215 Y12.7948 
G01 X-10.9630 Y12.7776 
G01 X-12.5320 Y12.7776 
G01 X-12.5734 Y12.7948 
G01 X-12.6052 Y12.8265 
G01 X-12.6224 Y12.8680 
G01 X-12.6224 Y14.4370 
G01 X-12.6052 Y14.4785 
G01 X-12.5734 Y14.5102 
G01 X-12.5320 Y14.5274 
G01 X-10.9630 Y14.5274 
G01 X-10.9215 Y14.5102 
G00 Z3.0000  
G00 X-10.9215 Y11.9702 
G01 Z-0.0800 F254   
G01 X-10.8898 Y11.9384 F508   
G01 X-10.8726 Y11.8970 
G01 X-10.8726 Y10.3280 
G01 X-10.8898 Y10.2865 
G01 X-10.9215 Y10.2548 
G01 X-10.9630 Y10.2376 
G01 X-12.5320 Y10.2376 
G01 X-12.5734 Y10.2548 
G01 X-12.6052 Y10.2865 
G01 X-12.6224 Y10.3280 
G01 X-12.6224 Y11.8970 
G01 X-12.6052 Y11.9384 
G01 X-12.5734 Y11.9702 
G01 X-12.5320 Y11.9874 
G01 X-10.9630 Y11.9874 
G01 X-10.9215 Y11.9702 
G00 Z3.0000  
G00 X-10.9215 Y9.4302  
G01 Z-0.0800 F254   
G01 X-10.8898 Y9.3985  F508   
G01 X-10.8726 Y9.3570  
G01 X-10.8726 Y7.7880  
G01 X-10.8898 Y7.7465  
G01 X-10.9215 Y7.7148  
G01 X-10.9630 Y7.6976  
G01 X-12.5320 Y7.6976  
G01 X-12.5734 Y7.7148  
G01 X-12.6052 Y7.7465  
G01 X-12.6224 Y7.7880  
G01 X-12.6224 Y9.3570  
G01 X-12.6052 Y9.3985  
G01 X-12.5734 Y9.4302  
G01 X-12.5320 Y9.4474  
G01 X-10.9630 Y9.4474  
G01 X-10.9215 Y9.4302  
G00 Z3.0000  
G00 X-10.9215 Y6.8902  
G01 Z-0.0800 F254   
G01 X-10.8898 Y6.8585  F508   
G01 X-10.8726 Y6.8170  
G01 X-10.8726 Y5.2480  
G01 X-10.8898 Y5.2065  
G01 X-10.9215 Y5.1748  
G01 X-10.9630 Y5.1576  
G01 X-12.5320 Y5.1576  
G01 X-12.5734 Y5.1748  
G01 X-12.6052 Y5.2065  
G01 X-12.6224 Y5.2480  
G01 X-12.6224 Y6.8170  
G01 X-12.6052 Y6.8585  
G01 X-12.5734 Y6.8902  
G01 X-12.5320 Y6.9074  
G01 X-10.9630 Y6.9074  
G01 X-10.9215 Y6.8902  
G00 Z3.0000  
G00 X-10.9215 Y4.3502  
G01 Z-0.0800 F254   
G01 X-10.8898 Y4.3185  F508   
G01 X-10.8726 Y4.2770  
G01 X-10.8726 Y2.7080  
G01 X-10.8898 Y2.6665  
G01 X-10.9215 Y2.6348  
G01 X-10.9630 Y2.6176  
G01 X-12.5320 Y2.6176  
G01 X-12.5734 Y2.6348  
G01 X-12.6052 Y2.6665  
G01 X-12.6224 Y2.7080  
G01 X-12.6224 Y4.2770  
G01 X-12.6052 Y4.3185  
G01 X-12.5734 Y4.3502  
G01 X-12.5320 Y4.3674  
G01 X-10.9630 Y4.3674  
G01 X-10.9215 Y4.3502  
G00 Z3.0000  
G00 X-19.5969 Y4.6836  
G01 Z-0.0800 F254   
G01 X-19.5969 Y5.3164  F508   
G01 X-19.7607 Y5.9276  
G01 X-20.0770 Y6.4755  
G01 X-20.5245 Y6.9230  
G01 X-21.0724 Y7.2393  
G01 X-21.6836 Y7.4031  
G01 X-22.3164 Y7.4031  
G01 X-22.9276 Y7.2393  
G01 X-23.4755 Y6.9230  
G01 X-23.9230 Y6.4755  
G01 X-24.2393 Y5.9276  
G01 X-24.4031 Y5.3164  
G01 X-24.4031 Y4.6836  
G01 X-24.2393 Y4.0724  
G01 X-23.9230 Y3.5244  
G01 X-23.4755 Y3.0770  
G01 X-22.9276 Y2.7607  
G01 X-22.3164 Y2.5969  
G01 X-21.6836 Y2.5969  
G01 X-21.0724 Y2.7607  
G01 X-20.5245 Y3.0770  
G01 X-20.0770 Y3.5245  
G01 X-19.7607 Y4.0724  
G01 X-19.5969 Y4.6836  
G00 Z3.0000  
G00 X-21.6847 Y12.0921 
G01 Z-0.0800 F254   
G01 X-21.7674 Y12.0443 F508   
G01 X-21.8597 Y12.0196 
G01 X-30.6472 Y12.0196 
G01 X-37.6442 Y5.0226  
G01 X-37.6442 Y4.0259  
G01 X-37.6739 Y3.8765  
G01 X-37.7322 Y3.7358  
G01 X-37.8168 Y3.6092  
G01 X-37.9246 Y3.5014  
G01 X-38.0512 Y3.4168  
G01 X-38.1919 Y3.3585  
G01 X-38.3413 Y3.3288  
G01 X-38.4937 Y3.3288  
G01 X-38.6431 Y3.3585  
G01 X-38.7838 Y3.4168  
G01 X-38.9104 Y3.5014  
G01 X-39.0182 Y3.6092  
G01 X-39.1028 Y3.7358  
G01 X-39.1611 Y3.8765  
G01 X-39.1908 Y4.0259  
G01 X-39.1908 Y5.4991  
G01 X-39.1611 Y5.6485  
G01 X-39.1028 Y5.7892  
G01 X-39.0182 Y5.9158  
G01 X-38.9104 Y6.0236  
G01 X-38.7838 Y6.1082  
G01 X-38.6431 Y6.1665  
G01 X-38.4937 Y6.1962  
G01 X-38.3413 Y6.1962  
G01 X-38.1919 Y6.1665  
G01 X-38.0512 Y6.1082  
G01 X-37.9246 Y6.0236  
G01 X-37.8168 Y5.9158  
G01 X-37.8010 Y5.8922  
G01 X-31.0879 Y12.6053 
G01 X-31.0203 Y12.6729 
G01 X-30.9376 Y12.7207 
G01 X-30.8453 Y12.7454 
G01 X-22.0578 Y12.7454 
G01 X-15.6029 Y19.2003 
G01 X-15.6029 Y23.9797 
G01 X-17.3678 Y25.7446 
G01 X-17.4354 Y25.8122 
G01 X-17.4832 Y25.8949 
G01 X-17.5079 Y25.9872 
G01 X-17.5079 Y33.0678 
G01 X-17.4832 Y33.1601 
G01 X-17.4354 Y33.2428 
G01 X-17.3678 Y33.3104 
G01 X-13.3804 Y37.2978 
G01 X-13.3804 Y40.0239 
G01 X-13.5432 Y40.0239 
G01 X-13.5846 Y40.0411 
G01 X-13.6164 Y40.0728 
G01 X-13.6336 Y40.1143 
G01 X-13.6336 Y41.1657 
G01 X-13.6164 Y41.2071 
G01 X-13.5846 Y41.2389 
G01 X-13.5432 Y41.2561 
G01 X-12.4918 Y41.2561 
G01 X-12.4503 Y41.2389 
G01 X-12.4186 Y41.2071 
G01 X-12.4014 Y41.1657 
G01 X-12.4014 Y40.1143 
G01 X-12.4186 Y40.0728 
G01 X-12.4503 Y40.0411 
G01 X-12.4918 Y40.0239 
G01 X-12.6546 Y40.0239 
G01 X-12.6546 Y37.0997 
G01 X-12.6793 Y37.0074 
G01 X-12.7271 Y36.9247 
G01 X-12.7947 Y36.8571 
G01 X-16.7821 Y32.8697 
G01 X-16.7821 Y26.1853 
G01 X-14.9496 Y24.3528 
G01 X-14.9018 Y24.2701 
G01 X-14.8771 Y24.1778 
G01 X-14.8771 Y19.0022 
G01 X-14.9018 Y18.9099 
G01 X-14.9496 Y18.8272 
G01 X-15.0172 Y18.7596 
G01 X-21.6847 Y12.0921 
G00 Z3.0000  
G00 X-22.3197 Y13.3621 
G01 Z-0.0800 F254   
G01 X-22.4024 Y13.3143 F508   
G01 X-22.4947 Y13.2896 
G01 X-26.0539 Y13.2896 
G01 X-26.0539 Y13.1268 
G01 X-26.0711 Y13.0853 
G01 X-26.1028 Y13.0536 
G01 X-26.1443 Y13.0364 
G01 X-27.1957 Y13.0364 
G01 X-27.2371 Y13.0536 
G01 X-27.2689 Y13.0853 
G01 X-27.2861 Y13.1268 
G01 X-27.2861 Y14.1782 
G01 X-27.2689 Y14.2196 
G01 X-27.2371 Y14.2514 
G01 X-27.1957 Y14.2686 
G01 X-26.1443 Y14.2686 
G01 X-26.1028 Y14.2514 
G01 X-26.0711 Y14.2196 
G01 X-26.0539 Y14.1782 
G01 X-26.0539 Y14.0154 
G01 X-22.6928 Y14.0154 
G01 X-16.8729 Y19.8353 
G01 X-16.8729 Y23.3447 
G01 X-17.6771 Y24.1489 
G01 X-18.6232 Y24.1489 
G01 X-18.6647 Y24.1661 
G01 X-18.6964 Y24.1978 
G01 X-18.7136 Y24.2393 
G01 X-18.7136 Y25.2907 
G01 X-18.6964 Y25.3321 
G01 X-18.6647 Y25.3639 
G01 X-18.6232 Y25.3811 
G01 X-17.5718 Y25.3811 
G01 X-17.5303 Y25.3639 
G01 X-17.4986 Y25.3321 
G01 X-17.4814 Y25.2907 
G01 X-17.4814 Y24.9796 
G01 X-16.2196 Y23.7178 
G01 X-16.1718 Y23.6351 
G01 X-16.1471 Y23.5428 
G01 X-16.1471 Y19.6372 
G01 X-16.1718 Y19.5449 
G01 X-16.2196 Y19.4622 
G01 X-16.2872 Y19.3946 
G01 X-22.3197 Y13.3621 
G00 Z3.0000  
G00 X-27.7001 Y16.4651 
G01 Z-0.0800 F254   
G01 X-28.2126 Y15.9526 F508   
G01 X-28.9374 Y15.9526 
G01 X-29.4499 Y16.4651 
G01 X-29.4499 Y17.1899 
G01 X-28.9374 Y17.7024 
G01 X-28.2126 Y17.7024 
G01 X-27.8955 Y17.3853 
G01 X-26.7154 Y18.5653 
G01 X-26.7154 Y21.1222 
G01 X-29.3603 Y23.7671 
G01 X-39.7353 Y23.7671 
G01 X-39.8276 Y23.7918 
G01 X-39.9103 Y23.8396 
G01 X-43.7203 Y27.6496 
G01 X-43.7879 Y27.7172 
G01 X-43.8357 Y27.7999 
G01 X-43.8604 Y27.8922 
G01 X-43.8604 Y28.8154 
G01 X-43.8638 Y28.8168 
G01 X-43.9904 Y28.9014 
G01 X-44.0982 Y29.0092 
G01 X-44.1828 Y29.1358 
G01 X-44.2411 Y29.2765 
G01 X-44.2708 Y29.4259 
G01 X-44.2708 Y30.8991 
G01 X-44.2411 Y31.0485 
G01 X-44.1828 Y31.1892 
G01 X-44.0982 Y31.3158 
G01 X-43.9904 Y31.4236 
G01 X-43.8638 Y31.5082 
G01 X-43.7231 Y31.5665 
G01 X-43.5737 Y31.5962 
G01 X-43.4213 Y31.5962 
G01 X-43.2719 Y31.5665 
G01 X-43.1312 Y31.5082 
G01 X-43.0046 Y31.4236 
G01 X-42.8968 Y31.3158 
G01 X-42.8122 Y31.1892 
G01 X-42.7539 Y31.0485 
G01 X-42.7242 Y30.8991 
G01 X-42.7242 Y29.4259 
G01 X-42.7539 Y29.2765 
G01 X-42.8122 Y29.1358 
G01 X-42.8968 Y29.0092 
G01 X-43.0046 Y28.9014 
G01 X-43.1312 Y28.8168 
G01 X-43.1346 Y28.8154 
G01 X-43.1346 Y28.0903 
G01 X-39.5372 Y24.4929 
G01 X-29.1622 Y24.4929 
G01 X-29.0699 Y24.4682 
G01 X-28.9872 Y24.4204 
G01 X-28.9196 Y24.3528 
G01 X-26.0621 Y21.4953 
G01 X-26.0143 Y21.4126 
G01 X-25.9896 Y21.3203 
G01 X-25.9896 Y18.3672 
G01 X-26.0143 Y18.2749 
G01 X-26.0621 Y18.1922 
G01 X-26.1297 Y18.1246 
G01 X-27.7001 Y16.5542 
G01 X-27.7001 Y16.4651 
G00 Z3.0000  
G00 X-29.4821 Y15.8272 
G01 Z-0.0800 F254   
G01 X-29.5068 Y15.7349 F508   
G01 X-29.5546 Y15.6522 
G01 X-29.6222 Y15.5846 
G01 X-40.1842 Y5.0226  
G01 X-40.1842 Y4.0259  
G01 X-40.2139 Y3.8765  
G01 X-40.2722 Y3.7358  
G01 X-40.3568 Y3.6092  
G01 X-40.4646 Y3.5014  
G01 X-40.5912 Y3.4168  
G01 X-40.7319 Y3.3585  
G01 X-40.8813 Y3.3288  
G01 X-41.0337 Y3.3288  
G01 X-41.1831 Y3.3585  
G01 X-41.3238 Y3.4168  
G01 X-41.4504 Y3.5014  
G01 X-41.5582 Y3.6092  
G01 X-41.6428 Y3.7358  
G01 X-41.7011 Y3.8765  
G01 X-41.7308 Y4.0259  
G01 X-41.7308 Y5.4991  
G01 X-41.7011 Y5.6485  
G01 X-41.6428 Y5.7892  
G01 X-41.5582 Y5.9158  
G01 X-41.4504 Y6.0236  
G01 X-41.3238 Y6.1082  
G01 X-41.1831 Y6.1665  
G01 X-41.0337 Y6.1962  
G01 X-40.8813 Y6.1962  
G01 X-40.7319 Y6.1665  
G01 X-40.5912 Y6.1082  
G01 X-40.4646 Y6.0236  
G01 X-40.3568 Y5.9158  
G01 X-40.3410 Y5.8922  
G01 X-30.2079 Y16.0253 
G01 X-30.2079 Y17.9472 
G01 X-30.7533 Y18.4926 
G01 X-31.4774 Y18.4926 
G01 X-31.9899 Y19.0051 
G01 X-31.9899 Y19.7299 
G01 X-31.4774 Y20.2424 
G01 X-30.7526 Y20.2424 
G01 X-30.2401 Y19.7299 
G01 X-30.2401 Y19.0058 
G01 X-29.5546 Y18.3203 
G01 X-29.5068 Y18.2376 
G01 X-29.4821 Y18.1453 
G01 X-29.4821 Y15.8272 
G00 Z3.0000  
G00 X-30.2401 Y16.4651 
G01 Z-0.0800 F254   
G01 X-30.7526 Y15.9526 F508   
G01 X-31.4767 Y15.9526 
G01 X-39.7146 Y7.7147  
G01 X-39.7822 Y7.6471  
G01 X-39.8649 Y7.5993  
G01 X-39.9572 Y7.5746  
G01 X-42.0772 Y7.5746  
G01 X-43.1346 Y6.5172  
G01 X-43.1346 Y6.1096  
G01 X-43.1312 Y6.1082  
G01 X-43.0046 Y6.0236  
G01 X-42.8968 Y5.9158  
G01 X-42.8122 Y5.7892  
G01 X-42.7539 Y5.6485  
G01 X-42.7242 Y5.4991  
G01 X-42.7242 Y4.0259  
G01 X-42.7539 Y3.8765  
G01 X-42.8122 Y3.7358  
G01 X-42.8968 Y3.6092  
G01 X-43.0046 Y3.5014  
G01 X-43.1312 Y3.4168  
G01 X-43.2719 Y3.3585  
G01 X-43.4213 Y3.3288  
G01 X-43.5737 Y3.3288  
G01 X-43.7231 Y3.3585  
G01 X-43.8638 Y3.4168  
G01 X-43.9904 Y3.5014  
G01 X-44.0982 Y3.6092  
G01 X-44.1828 Y3.7358  
G01 X-44.2411 Y3.8765  
G01 X-44.2708 Y4.0259  
G01 X-44.2708 Y5.4991  
G01 X-44.2411 Y5.6485  
G01 X-44.1828 Y5.7892  
G01 X-44.0982 Y5.9158  
G01 X-43.9904 Y6.0236  
G01 X-43.8638 Y6.1082  
G01 X-43.8604 Y6.1096  
G01 X-43.8604 Y6.7153  
G01 X-43.8357 Y6.8076  
G01 X-43.7879 Y6.8903  
G01 X-43.7203 Y6.9579  
G01 X-42.4503 Y8.2279  
G01 X-42.3676 Y8.2757  
G01 X-42.2753 Y8.3004  
G01 X-40.1553 Y8.3004  
G01 X-31.9899 Y16.4658 
G01 X-31.9899 Y17.1899 
G01 X-31.4774 Y17.7024 
G01 X-30.7526 Y17.7024 
G01 X-30.2401 Y17.1899 
G01 X-30.2401 Y16.4651 
G00 Z3.0000  
G00 X-32.7801 Y16.4651 
G01 Z-0.0800 F254   
G01 X-33.2926 Y15.9526 F508   
G01 X-34.0174 Y15.9526 
G01 X-34.5299 Y16.4651 
G01 X-34.5299 Y17.1899 
G01 X-34.0174 Y17.7024 
G01 X-33.2933 Y17.7024 
G01 X-32.7479 Y18.2478 
G01 X-32.7479 Y21.9553 
G01 X-32.7232 Y22.0476 
G01 X-32.6754 Y22.1303 
G01 X-32.0486 Y22.7571 
G01 X-32.0486 Y23.3857 
G01 X-32.0314 Y23.4272 
G01 X-31.9996 Y23.4589 
G01 X-31.9582 Y23.4761 
G01 X-30.9068 Y23.4761 
G01 X-30.8653 Y23.4589 
G01 X-30.8336 Y23.4272 
G01 X-30.8164 Y23.3857 
G01 X-30.8164 Y22.3343 
G01 X-30.8336 Y22.2928 
G01 X-30.8653 Y22.2611 
G01 X-30.9068 Y22.2439 
G01 X-31.5354 Y22.2439 
G01 X-32.0221 Y21.7572 
G01 X-32.0221 Y18.0497 
G01 X-32.0468 Y17.9574 
G01 X-32.0946 Y17.8747 
G01 X-32.1622 Y17.8071 
G01 X-32.7801 Y17.1892 
G01 X-32.7801 Y16.4651 
G00 Z3.0000  
G00 X-34.1722 Y15.3661 
G01 Z-0.0800 F254   
G01 X-34.1356 Y15.3027 F508   
G01 X-34.1167 Y15.2320 
G01 X-34.1167 Y15.1589 
G01 X-34.1175 Y15.1559 
G01 X-34.1356 Y15.0882 
G01 X-34.1714 Y15.0262 
G01 X-34.2240 Y14.9731 
G01 X-40.3169 Y8.8801  
G01 X-40.3803 Y8.8435  
G01 X-40.4510 Y8.8246  
G01 X-42.1426 Y8.8246  
G01 X-42.2103 Y8.8427  
G01 X-42.2133 Y8.8435  
G01 X-42.2766 Y8.8801  
G01 X-42.3284 Y8.9319  
G01 X-42.3513 Y8.9715  
G01 X-42.3650 Y8.9952  
G01 X-42.3839 Y9.0659  
G01 X-42.3839 Y9.1391  
G01 X-42.3658 Y9.2068  
G01 X-42.3650 Y9.2098  
G01 X-42.3284 Y9.2731  
G01 X-42.0770 Y9.5245  
G01 X-41.7607 Y10.0724 
G01 X-41.5969 Y10.6836 
G01 X-41.5969 Y11.3164 
G01 X-41.7607 Y11.9276 
G01 X-42.0770 Y12.4755 
G01 X-42.5245 Y12.9230 
G01 X-43.0724 Y13.2393 
G01 X-43.6836 Y13.4031 
G01 X-44.3164 Y13.4031 
G01 X-44.9276 Y13.2393 
G01 X-45.3717 Y12.9829 
G01 X-45.4424 Y12.9639 
G01 X-45.5156 Y12.9639 
G01 X-45.5186 Y12.9648 
G01 X-45.5863 Y12.9829 
G01 X-45.6089 Y12.9960 
G01 X-45.6496 Y13.0195 
G01 X-45.7014 Y13.0712 
G01 X-45.7380 Y13.1346 
G01 X-45.7569 Y13.2053 
G01 X-45.7569 Y40.7947 
G01 X-45.7388 Y40.8624 
G01 X-45.7380 Y40.8654 
G01 X-45.7014 Y40.9288 
G01 X-45.6496 Y40.9805 
G01 X-45.6100 Y41.0034 
G01 X-45.5863 Y41.0171 
G01 X-45.5156 Y41.0361 
G01 X-45.4424 Y41.0361 
G01 X-45.3747 Y41.0179 
G01 X-45.3717 Y41.0171 
G01 X-44.9276 Y40.7607 
G01 X-44.3164 Y40.5969 
G01 X-43.6836 Y40.5969 
G01 X-43.0724 Y40.7607 
G01 X-42.5245 Y41.0770 
G01 X-42.2288 Y41.3727 
G01 X-42.1655 Y41.4093 
G01 X-42.0948 Y41.4282 
G01 X-42.0216 Y41.4282 
G01 X-42.0186 Y41.4274 
G01 X-41.9509 Y41.4093 
G01 X-41.9282 Y41.3962 
G01 X-41.8876 Y41.3727 
G01 X-41.8358 Y41.3209 
G01 X-41.7992 Y41.2576 
G01 X-41.7803 Y41.1869 
G01 X-41.7803 Y40.3276 
G01 X-41.6833 Y40.0934 
G01 X-41.5041 Y39.9142 
G01 X-41.2699 Y39.8172 
G01 X-41.1863 Y39.8172 
G01 X-41.1156 Y39.7983 
G01 X-41.0523 Y39.7617 
G01 X-41.0005 Y39.7099 
G01 X-40.9822 Y39.6916 
G01 X-40.6491 Y39.3585 
G01 X-40.2312 Y39.1854 
G01 X-21.0463 Y39.1854 
G01 X-20.6284 Y39.3585 
G01 X-18.2590 Y41.7279 
G01 X-18.1957 Y41.7645 
G01 X-18.1250 Y41.7834 
G01 X-18.0518 Y41.7834 
G01 X-18.0488 Y41.7826 
G01 X-17.9811 Y41.7645 
G01 X-17.9192 Y41.7287 
G01 X-17.8660 Y41.6761 
G01 X-17.8219 Y41.6320 
G01 X-17.7701 Y41.5802 
G01 X-17.7335 Y41.5169 
G01 X-17.7146 Y41.4462 
G01 X-17.7146 Y38.8635 
G01 X-17.7335 Y38.7928 
G01 X-17.7701 Y38.7294 
G01 X-17.8219 Y38.6777 
G01 X-19.9969 Y36.5026 
G01 X-20.0603 Y36.4660 
G01 X-20.1310 Y36.4471 
G01 X-23.3487 Y36.4471 
G01 X-23.4194 Y36.4660 
G01 X-23.4827 Y36.5026 
G01 X-23.5345 Y36.5544 
G01 X-23.5834 Y36.6033 
G01 X-23.8176 Y36.7003 
G01 X-25.0774 Y36.7003 
G01 X-25.3116 Y36.6033 
G01 X-25.4908 Y36.4241 
G01 X-25.5878 Y36.1899 
G01 X-25.5878 Y34.9301 
G01 X-25.4908 Y34.6959 
G01 X-25.3116 Y34.5167 
G01 X-25.0774 Y34.4197 
G01 X-23.8176 Y34.4197 
G01 X-23.5834 Y34.5167 
G01 X-23.4827 Y34.6174 
G01 X-23.4194 Y34.6540 
G01 X-23.3487 Y34.6729 
G01 X-19.5085 Y34.6729 
G01 X-19.1825 Y34.8079 
G01 X-16.0755 Y37.9150 
G01 X-15.9404 Y38.2410 
G01 X-15.9404 Y41.4462 
G01 X-15.9215 Y41.5169 
G01 X-15.8849 Y41.5802 
G01 X-15.8331 Y41.6320 
G01 X-15.7984 Y41.6667 
G01 X-15.7351 Y41.7033 
G01 X-15.6644 Y41.7222 
G01 X-14.6101 Y41.7222 
G01 X-14.4240 Y41.7993 
G01 X-14.3515 Y41.8088 
G01 X-14.2789 Y41.7993 
G01 X-14.2237 Y41.7764 
G01 X-14.2113 Y41.7713 
G01 X-14.1719 Y41.7410 
G01 X-14.1533 Y41.7267 
G01 X-14.1406 Y41.7102 
G01 X-14.1087 Y41.6687 
G01 X-14.1043 Y41.6579 
G01 X-14.0807 Y41.6011 
G01 X-14.0712 Y41.5285 
G01 X-14.0807 Y41.4560 
G01 X-14.1578 Y41.2699 
G01 X-14.1578 Y40.0101 
G01 X-14.0608 Y39.7759 
G01 X-13.9601 Y39.6752 
G01 X-13.9235 Y39.6119 
G01 X-13.9046 Y39.5412 
G01 X-13.9046 Y37.5935 
G01 X-13.9235 Y37.5228 
G01 X-13.9601 Y37.4594 
G01 X-14.0119 Y37.4077 
G01 X-17.8970 Y33.5225 
G01 X-18.0321 Y33.1964 
G01 X-18.0321 Y26.1466 
G01 X-18.0510 Y26.0759 
G01 X-18.0876 Y26.0126 
G01 X-18.1394 Y25.9608 
G01 X-18.2027 Y25.9242 
G01 X-18.2734 Y25.9053 
G01 X-18.7274 Y25.9053 
G01 X-18.9616 Y25.8083 
G01 X-19.1408 Y25.6291 
G01 X-19.2378 Y25.3949 
G01 X-19.2378 Y24.1388 
G01 X-19.2340 Y24.1323 
G01 X-19.2293 Y24.1145 
G01 X-19.2223 Y24.0976 
G01 X-19.2199 Y24.0793 
G01 X-19.2151 Y24.0616 
G01 X-19.2151 Y24.0432 
G01 X-19.2127 Y24.0250 
G01 X-19.2151 Y24.0068 
G01 X-19.2151 Y23.9884 
G01 X-19.2199 Y23.9707 
G01 X-19.2222 Y23.9525 
G01 X-19.2293 Y23.9355 
G01 X-19.2340 Y23.9177 
G01 X-19.2432 Y23.9018 
G01 X-19.2502 Y23.8849 
G01 X-19.2614 Y23.8703 
G01 X-19.2706 Y23.8544 
G01 X-19.2836 Y23.8414 
G01 X-19.2948 Y23.8268 
G01 X-19.3094 Y23.8156 
G01 X-19.3224 Y23.8026 
G01 X-19.3383 Y23.7934 
G01 X-19.3528 Y23.7823 
G01 X-19.3698 Y23.7752 
G01 X-19.3857 Y23.7660 
G01 X-19.4035 Y23.7613 
G01 X-19.4204 Y23.7543 
G01 X-19.4387 Y23.7519 
G01 X-19.4564 Y23.7471 
G01 X-19.4748 Y23.7471 
G01 X-19.4930 Y23.7447 
G01 X-19.5112 Y23.7471 
G01 X-25.9014 Y23.7471 
G01 X-25.9298 Y23.7454 
G01 X-25.9379 Y23.7471 
G01 X-25.9461 Y23.7471 
G01 X-25.9736 Y23.7545 
G01 X-26.0014 Y23.7602 
G01 X-26.0088 Y23.7639 
G01 X-26.0168 Y23.7660 
G01 X-26.0414 Y23.7802 
G01 X-26.0668 Y23.7930 
G01 X-26.0730 Y23.7985 
G01 X-26.0802 Y23.8026 
G01 X-26.1003 Y23.8227 
G01 X-28.5739 Y26.0215 
G01 X-28.5811 Y26.0256 
G01 X-28.6012 Y26.0457 
G01 X-28.6224 Y26.0646 
G01 X-28.6269 Y26.0715 
G01 X-28.7075 Y26.1520 
G01 X-28.7229 Y26.1584 
G01 X-28.7310 Y26.1646 
G01 X-28.7401 Y26.1692 
G01 X-28.7525 Y26.1803 
G01 X-28.8601 Y26.2176 
G01 X-28.8683 Y26.2187 
G01 X-28.8946 Y26.2295 
G01 X-28.9215 Y26.2389 
G01 X-28.9283 Y26.2435 
G01 X-29.0335 Y26.2871 
G01 X-29.0502 Y26.2871 
G01 X-29.0600 Y26.2897 
G01 X-29.0702 Y26.2905 
G01 X-29.0859 Y26.2959 
G01 X-29.1996 Y26.2892 
G01 X-29.2076 Y26.2871 
G01 X-29.2361 Y26.2871 
G01 X-29.2644 Y26.2854 
G01 X-29.2725 Y26.2871 
G01 X-37.9715 Y26.2871 
G01 X-38.0422 Y26.3060 
G01 X-38.1056 Y26.3426 
G01 X-38.1573 Y26.3944 
G01 X-40.0149 Y28.2519 
G01 X-40.0515 Y28.3153 
G01 X-40.0704 Y28.3860 
G01 X-40.0704 Y28.4757 
G01 X-40.0515 Y28.5464 
G01 X-40.0149 Y28.6098 
G01 X-39.9631 Y28.6615 
G01 X-39.8581 Y28.7665 
G01 X-39.7948 Y28.8031 
G01 X-39.7241 Y28.8220 
G01 X-39.6509 Y28.8220 
G01 X-39.5802 Y28.8031 
G01 X-39.5169 Y28.7665 
G01 X-39.4651 Y28.7148 
G01 X-39.1525 Y28.4021 
G01 X-38.6756 Y28.2046 
G01 X-38.1594 Y28.2046 
G01 X-37.6825 Y28.4021 
G01 X-37.3181 Y28.7665 
G01 X-37.2548 Y28.8031 
G01 X-37.1841 Y28.8220 
G01 X-37.1109 Y28.8220 
G01 X-37.1079 Y28.8212 
G01 X-37.0402 Y28.8031 
G01 X-37.0175 Y28.7900 
G01 X-36.9769 Y28.7665 
G01 X-36.9251 Y28.7148 
G01 X-36.6125 Y28.4021 
G01 X-36.1356 Y28.2046 
G01 X-35.6194 Y28.2046 
G01 X-35.1425 Y28.4021 
G01 X-34.7775 Y28.7671 
G01 X-34.6070 Y29.1788 
G01 X-34.6047 Y29.1896 
G01 X-34.5931 Y29.2124 
G01 X-34.5832 Y29.2362 
G01 X-34.5765 Y29.2449 
G01 X-34.5715 Y29.2548 
G01 X-34.5543 Y29.2738 
G01 X-34.5387 Y29.2942 
G01 X-34.5299 Y29.3010 
G01 X-34.5225 Y29.3092 
G01 X-34.5010 Y29.3231 
G01 X-34.4806 Y29.3388 
G01 X-34.4704 Y29.3430 
G01 X-34.4612 Y29.3490 
G01 X-34.4367 Y29.3570 
G01 X-34.4130 Y29.3668 
G01 X-34.4021 Y29.3682 
G01 X-34.3916 Y29.3716 
G01 X-34.3659 Y29.3730 
G01 X-34.3405 Y29.3763 
G01 X-34.3296 Y29.3749 
G01 X-34.3185 Y29.3755 
G01 X-34.2934 Y29.3701 
G01 X-34.2680 Y29.3668 
G01 X-34.2577 Y29.3625 
G01 X-34.2469 Y29.3602 
G01 X-34.2241 Y29.3486 
G01 X-34.2004 Y29.3388 
G01 X-34.1916 Y29.3320 
G01 X-34.1817 Y29.3270 
G01 X-34.1627 Y29.3099 
G01 X-34.1423 Y29.2942 
G01 X-34.1356 Y29.2854 
G01 X-34.1274 Y29.2781 
G01 X-34.1134 Y29.2565 
G01 X-34.0978 Y29.2362 
G01 X-34.0935 Y29.2260 
G01 X-34.0875 Y29.2167 
G01 X-34.0803 Y29.1944 
G01 X-34.0230 Y29.0820 
G01 X-33.9488 Y28.9799 
G01 X-33.8597 Y28.8908 
G01 X-33.7576 Y28.8166 
G01 X-33.6536 Y28.7636 
G01 X-33.6536 Y28.7960 
G01 X-33.7038 Y28.8168 
G01 X-33.8304 Y28.9014 
G01 X-33.9382 Y29.0092 
G01 X-34.0228 Y29.1358 
G01 X-34.0811 Y29.2765 
G01 X-34.1108 Y29.4259 
G01 X-34.1108 Y30.8991 
G01 X-34.0811 Y31.0485 
G01 X-34.0228 Y31.1892 
G01 X-33.9382 Y31.3158 
G01 X-33.8304 Y31.4236 
G01 X-33.7038 Y31.5082 
G01 X-33.6536 Y31.5290 
G01 X-33.6536 Y31.5614 
G01 X-33.7576 Y31.5084 
G01 X-33.8597 Y31.4342 
G01 X-33.9488 Y31.3451 
G01 X-34.0230 Y31.2430 
G01 X-34.0803 Y31.1306 
G01 X-34.0875 Y31.1083 
G01 X-34.0935 Y31.0990 
G01 X-34.0978 Y31.0888 
G01 X-34.1134 Y31.0685 
G01 X-34.1274 Y31.0469 
G01 X-34.1356 Y31.0395 
G01 X-34.1423 Y31.0308 
G01 X-34.1627 Y31.0151 
G01 X-34.1817 Y30.9980 
G01 X-34.1916 Y30.9930 
G01 X-34.2004 Y30.9862 
G01 X-34.2241 Y30.9764 
G01 X-34.2469 Y30.9648 
G01 X-34.2577 Y30.9625 
G01 X-34.2680 Y30.9582 
G01 X-34.2934 Y30.9549 
G01 X-34.3185 Y30.9495 
G01 X-34.3296 Y30.9501 
G01 X-34.3405 Y30.9487 
G01 X-34.3659 Y30.9520 
G01 X-34.3916 Y30.9534 
G01 X-34.4021 Y30.9568 
G01 X-34.4130 Y30.9582 
G01 X-34.4367 Y30.9680 
G01 X-34.4612 Y30.9760 
G01 X-34.4704 Y30.9820 
G01 X-34.4806 Y30.9862 
G01 X-34.5010 Y31.0018 
G01 X-34.5225 Y31.0158 
G01 X-34.5299 Y31.0240 
G01 X-34.5387 Y31.0308 
G01 X-34.5543 Y31.0511 
G01 X-34.5715 Y31.0702 
G01 X-34.5765 Y31.0800 
G01 X-34.5832 Y31.0888 
G01 X-34.5931 Y31.1125 
G01 X-34.6047 Y31.1354 
G01 X-34.6070 Y31.1462 
G01 X-34.7775 Y31.5579 
G01 X-35.1425 Y31.9229 
G01 X-35.6194 Y32.1204 
G01 X-36.1356 Y32.1204 
G01 X-36.6125 Y31.9229 
G01 X-36.9251 Y31.6102 
G01 X-36.9769 Y31.5585 
G01 X-37.0165 Y31.5356 
G01 X-37.0402 Y31.5219 
G01 X-37.1109 Y31.5029 
G01 X-37.1841 Y31.5029 
G01 X-37.2518 Y31.5211 
G01 X-37.2548 Y31.5219 
G01 X-37.3181 Y31.5585 
G01 X-37.6825 Y31.9229 
G01 X-38.1594 Y32.1204 
G01 X-38.6756 Y32.1204 
G01 X-39.1525 Y31.9229 
G01 X-39.4651 Y31.6102 
G01 X-39.5169 Y31.5585 
G01 X-39.5565 Y31.5356 
G01 X-39.5802 Y31.5219 
G01 X-39.6509 Y31.5029 
G01 X-39.7241 Y31.5029 
G01 X-39.7918 Y31.5211 
G01 X-39.7948 Y31.5219 
G01 X-39.8581 Y31.5585 
G01 X-40.2225 Y31.9229 
G01 X-40.6994 Y32.1204 
G01 X-41.2156 Y32.1204 
G01 X-41.6925 Y31.9229 
G01 X-42.0051 Y31.6102 
G01 X-42.0569 Y31.5585 
G01 X-42.0965 Y31.5356 
G01 X-42.1202 Y31.5219 
G01 X-42.1909 Y31.5029 
G01 X-42.2641 Y31.5029 
G01 X-42.3318 Y31.5211 
G01 X-42.3348 Y31.5219 
G01 X-42.3981 Y31.5585 
G01 X-42.7625 Y31.9229 
G01 X-43.2394 Y32.1204 
G01 X-43.7556 Y32.1204 
G01 X-44.2325 Y31.9229 
G01 X-44.5975 Y31.5579 
G01 X-44.7950 Y31.0810 
G01 X-44.7950 Y29.2440 
G01 X-44.5975 Y28.7671 
G01 X-44.4401 Y28.6098 
G01 X-44.4035 Y28.5464 
G01 X-44.3846 Y28.4757 
G01 X-44.3846 Y27.7635 
G01 X-44.2495 Y27.4375 
G01 X-43.9350 Y27.1230 
G01 X-40.1900 Y23.3779 
G01 X-39.8640 Y23.2429 
G01 X-32.9385 Y23.2429 
G01 X-32.8708 Y23.2248 
G01 X-32.8678 Y23.2240 
G01 X-32.8044 Y23.1874 
G01 X-32.7527 Y23.1356 
G01 X-32.7298 Y23.0960 
G01 X-32.7161 Y23.0723 
G01 X-32.6972 Y23.0016 
G01 X-32.6972 Y22.9284 
G01 X-32.7153 Y22.8607 
G01 X-32.7161 Y22.8577 
G01 X-32.7527 Y22.7944 
G01 X-33.1370 Y22.4100 
G01 X-33.2721 Y22.0840 
G01 X-33.2721 Y20.5612 
G01 X-33.2698 Y20.5392 
G01 X-33.2721 Y20.5247 
G01 X-33.2721 Y20.5100 
G01 X-33.2778 Y20.4887 
G01 X-33.2812 Y20.4670 
G01 X-33.2872 Y20.4535 
G01 X-33.2881 Y20.4503 
G01 X-33.2881 Y20.1625 
G01 X-33.2406 Y20.1428 
G01 X-33.0973 Y20.0471 
G01 X-32.9754 Y19.9252 
G01 X-32.8797 Y19.7819 
G01 X-32.8137 Y19.6227 
G01 X-32.7801 Y19.4537 
G01 X-32.7801 Y19.2813 
G01 X-32.8137 Y19.1123 
G01 X-32.8797 Y18.9531 
G01 X-32.9754 Y18.8098 
G01 X-33.0973 Y18.6879 
G01 X-33.2406 Y18.5922 
G01 X-33.3998 Y18.5262 
G01 X-33.5688 Y18.4926 
G01 X-33.7412 Y18.4926 
G01 X-33.9102 Y18.5262 
G01 X-34.0694 Y18.5922 
G01 X-34.2127 Y18.6879 
G01 X-34.3346 Y18.8098 
G01 X-34.4303 Y18.9531 
G01 X-34.4500 Y19.0006 
G01 X-34.4816 Y19.0006 
G01 X-34.4274 Y18.8942 
G01 X-34.3438 Y18.7792 
G01 X-34.2462 Y18.6815 
G01 X-34.2323 Y18.6735 
G01 X-34.2220 Y18.6631 
G01 X-34.2100 Y18.6545 
G01 X-34.1962 Y18.6373 
G01 X-34.1806 Y18.6218 
G01 X-34.1733 Y18.6091 
G01 X-34.1640 Y18.5976 
G01 X-34.1550 Y18.5775 
G01 X-34.1440 Y18.5584 
G01 X-34.1402 Y18.5442 
G01 X-34.1342 Y18.5308 
G01 X-34.1308 Y18.5090 
G01 X-34.1251 Y18.4877 
G01 X-34.1251 Y18.4730 
G01 X-34.1228 Y18.4585 
G01 X-34.1251 Y18.4366 
G01 X-34.1251 Y18.4146 
G01 X-34.1289 Y18.4003 
G01 X-34.1304 Y18.3857 
G01 X-34.1383 Y18.3652 
G01 X-34.1440 Y18.3439 
G01 X-34.1514 Y18.3311 
G01 X-34.1566 Y18.3174 
G01 X-34.1696 Y18.2996 
G01 X-34.1806 Y18.2805 
G01 X-34.1910 Y18.2701 
G01 X-34.1996 Y18.2582 
G01 X-34.2168 Y18.2443 
G01 X-35.0541 Y17.4070 
G01 X-35.0541 Y16.2480 
G01 X-34.1722 Y15.3661 
G00 Z3.0000  
G00 X-34.4500 Y19.7344 
G01 Z-0.0800 F254   
G01 X-34.4303 Y19.7819 F508   
G01 X-34.3346 Y19.9252 
G01 X-34.2127 Y20.0471 
G01 X-34.0694 Y20.1428 
G01 X-34.0219 Y20.1625 
G01 X-34.0219 Y20.1941 
G01 X-34.1283 Y20.1399 
G01 X-34.2433 Y20.0563 
G01 X-34.3438 Y19.9558 
G01 X-34.4274 Y19.8408 
G01 X-34.4816 Y19.7344 
G01 X-34.4500 Y19.7344 
G00 Z3.0000  
G00 X-29.4499 Y19.7299 
G01 Z-0.0800 F254   
G01 X-28.9379 Y20.2419 F508   
G01 X-28.9379 Y21.1222 
G01 X-29.4246 Y21.6089 
G01 X-30.0532 Y21.6089 
G01 X-30.0947 Y21.6261 
G01 X-30.1264 Y21.6578 
G01 X-30.1436 Y21.6993 
G01 X-30.1436 Y22.7507 
G01 X-30.1264 Y22.7921 
G01 X-30.0947 Y22.8239 
G01 X-30.0532 Y22.8411 
G01 X-29.0018 Y22.8411 
G01 X-28.9603 Y22.8239 
G01 X-28.9286 Y22.7921 
G01 X-28.9114 Y22.7507 
G01 X-28.9114 Y22.1221 
G01 X-28.2846 Y21.4953 
G01 X-28.2368 Y21.4126 
G01 X-28.2121 Y21.3203 
G01 X-28.2121 Y20.2419 
G01 X-27.7001 Y19.7299 
G01 X-27.7001 Y19.0051 
G01 X-28.2126 Y18.4926 
G01 X-28.9374 Y18.4926 
G01 X-29.4499 Y19.0051 
G01 X-29.4499 Y19.7299 
G00 Z3.0000  
G00 X-29.3480 Y25.0371 
G01 Z-0.0800 F254   
G01 X-38.4653 Y25.0371 F508   
G01 X-38.5576 Y25.0618 
G01 X-38.6403 Y25.1096 
G01 X-41.1803 Y27.6496 
G01 X-41.2479 Y27.7172 
G01 X-41.2957 Y27.7999 
G01 X-41.3204 Y27.8922 
G01 X-41.3204 Y28.8154 
G01 X-41.3238 Y28.8168 
G01 X-41.4504 Y28.9014 
G01 X-41.5582 Y29.0092 
G01 X-41.6428 Y29.1358 
G01 X-41.7011 Y29.2765 
G01 X-41.7308 Y29.4259 
G01 X-41.7308 Y30.8991 
G01 X-41.7011 Y31.0485 
G01 X-41.6428 Y31.1892 
G01 X-41.5582 Y31.3158 
G01 X-41.4504 Y31.4236 
G01 X-41.3238 Y31.5082 
G01 X-41.1831 Y31.5665 
G01 X-41.0337 Y31.5962 
G01 X-40.8813 Y31.5962 
G01 X-40.7319 Y31.5665 
G01 X-40.5912 Y31.5082 
G01 X-40.4646 Y31.4236 
G01 X-40.3568 Y31.3158 
G01 X-40.2722 Y31.1892 
G01 X-40.2139 Y31.0485 
G01 X-40.1842 Y30.8991 
G01 X-40.1842 Y29.4259 
G01 X-40.2139 Y29.2765 
G01 X-40.2722 Y29.1358 
G01 X-40.3568 Y29.0092 
G01 X-40.4646 Y28.9014 
G01 X-40.5912 Y28.8168 
G01 X-40.5946 Y28.8154 
G01 X-40.5946 Y28.0903 
G01 X-38.2672 Y25.7629 
G01 X-29.2207 Y25.7629 
G01 X-29.1836 Y25.7651 
G01 X-29.1730 Y25.7629 
G01 X-29.1622 Y25.7629 
G01 X-29.1264 Y25.7533 
G01 X-29.0900 Y25.7458 
G01 X-29.0804 Y25.7410 
G01 X-29.0699 Y25.7382 
G01 X-29.0378 Y25.7196 
G01 X-29.0046 Y25.7030 
G01 X-28.9965 Y25.6958 
G01 X-28.9872 Y25.6904 
G01 X-28.9609 Y25.6641 
G01 X-26.2145 Y23.2229 
G01 X-18.7136 Y23.2229 
G01 X-18.7136 Y23.3857 
G01 X-18.6964 Y23.4272 
G01 X-18.6647 Y23.4589 
G01 X-18.6232 Y23.4761 
G01 X-17.5718 Y23.4761 
G01 X-17.5303 Y23.4589 
G01 X-17.4986 Y23.4272 
G01 X-17.4814 Y23.3857 
G01 X-17.4814 Y22.3343 
G01 X-17.4986 Y22.2928 
G01 X-17.5303 Y22.2611 
G01 X-17.5718 Y22.2439 
G01 X-18.6232 Y22.2439 
G01 X-18.6647 Y22.2611 
G01 X-18.6964 Y22.2928 
G01 X-18.7136 Y22.3343 
G01 X-18.7136 Y22.4971 
G01 X-26.3418 Y22.4971 
G01 X-26.3789 Y22.4949 
G01 X-26.3895 Y22.4971 
G01 X-26.4003 Y22.4971 
G01 X-26.4361 Y22.5067 
G01 X-26.4725 Y22.5142 
G01 X-26.4821 Y22.5190 
G01 X-26.4926 Y22.5218 
G01 X-26.5247 Y22.5404 
G01 X-26.5579 Y22.5570 
G01 X-26.5660 Y22.5642 
G01 X-26.5753 Y22.5696 
G01 X-26.6016 Y22.5959 
G01 X-29.3480 Y25.0371 
G00 Z3.0000  
G00 X-30.1862 Y28.9799 
G01 Z-0.0800 F254   
G01 X-30.1120 Y29.0820 F508   
G01 X-30.0547 Y29.1944 
G01 X-30.0157 Y29.3144 
G01 X-29.9960 Y29.4390 
G01 X-29.9960 Y29.8464 
G01 X-30.0242 Y29.8464 
G01 X-30.0242 Y29.4259 
G01 X-30.0539 Y29.2765 
G01 X-30.1122 Y29.1358 
G01 X-30.1968 Y29.0092 
G01 X-30.3045 Y28.9014 
G01 X-30.4312 Y28.8168 
G01 X-30.4814 Y28.7960 
G01 X-30.4814 Y28.7636 
G01 X-30.3774 Y28.8166 
G01 X-30.2753 Y28.8908 
G01 X-30.1862 Y28.9799 
G00 Z3.0000  
G00 X-31.1136 Y28.7960 
G01 Z-0.0800 F254   
G01 X-31.1638 Y28.8168 F508   
G01 X-31.2904 Y28.9014 
G01 X-31.3982 Y29.0092 
G01 X-31.4828 Y29.1358 
G01 X-31.5411 Y29.2765 
G01 X-31.5708 Y29.4259 
G01 X-31.5708 Y29.7996 
G01 X-31.5990 Y29.7996 
G01 X-31.5990 Y29.4390 
G01 X-31.5793 Y29.3144 
G01 X-31.5403 Y29.1944 
G01 X-31.4830 Y29.0820 
G01 X-31.4088 Y28.9799 
G01 X-31.3196 Y28.8908 
G01 X-31.2176 Y28.8166 
G01 X-31.1136 Y28.7636 
G01 X-31.1136 Y28.7960 
G00 Z3.0000  
G00 X-32.8153 Y28.8908 
G01 Z-0.0800 F254   
G01 X-32.7261 Y28.9799 F508   
G01 X-32.6520 Y29.0820 
G01 X-32.5947 Y29.1944 
G01 X-32.5557 Y29.3144 
G01 X-32.5360 Y29.4390 
G01 X-32.5360 Y29.7996 
G01 X-32.5642 Y29.7996 
G01 X-32.5642 Y29.4259 
G01 X-32.5939 Y29.2765 
G01 X-32.6522 Y29.1358 
G01 X-32.7368 Y29.0092 
G01 X-32.8445 Y28.9014 
G01 X-32.9712 Y28.8168 
G01 X-33.0214 Y28.7960 
G01 X-33.0214 Y28.7636 
G01 X-32.9174 Y28.8166 
G01 X-32.8153 Y28.8908 
G00 Z3.0000  
G00 X-32.5642 Y30.5254 
G01 Z-0.0800 F254   
G01 X-32.5360 Y30.5254 F508   
G01 X-32.5360 Y30.8860 
G01 X-32.5557 Y31.0106 
G01 X-32.5947 Y31.1306 
G01 X-32.6520 Y31.2430 
G01 X-32.7261 Y31.3451 
G01 X-32.8153 Y31.4342 
G01 X-32.9174 Y31.5084 
G01 X-33.0214 Y31.5614 
G01 X-33.0214 Y31.5290 
G01 X-32.9712 Y31.5082 
G01 X-32.8445 Y31.4236 
G01 X-32.7368 Y31.3158 
G01 X-32.6522 Y31.1892 
G01 X-32.5939 Y31.0485 
G01 X-32.5642 Y30.8991 
G01 X-32.5642 Y30.5254 
G00 Z3.0000  
G00 X-31.5990 Y30.5254 
G01 Z-0.0800 F254   
G01 X-31.5708 Y30.5254 F508   
G01 X-31.5708 Y30.8991 
G01 X-31.5411 Y31.0485 
G01 X-31.4828 Y31.1892 
G01 X-31.3982 Y31.3158 
G01 X-31.2904 Y31.4236 
G01 X-31.1638 Y31.5082 
G01 X-31.1136 Y31.5290 
G01 X-31.1136 Y31.5614 
G01 X-31.2176 Y31.5084 
G01 X-31.3196 Y31.4342 
G01 X-31.4088 Y31.3451 
G01 X-31.4830 Y31.2430 
G01 X-31.5403 Y31.1306 
G01 X-31.5793 Y31.0106 
G01 X-31.5990 Y30.8860 
G01 X-31.5990 Y30.5254 
G00 Z3.0000  
G00 X-30.0242 Y30.4786 
G01 Z-0.0800 F254   
G01 X-29.9960 Y30.4786 F508   
G01 X-29.9960 Y30.8860 
G01 X-30.0157 Y31.0106 
G01 X-30.0547 Y31.1306 
G01 X-30.1120 Y31.2430 
G01 X-30.1861 Y31.3450 
G01 X-30.2753 Y31.4342 
G01 X-30.3774 Y31.5084 
G01 X-30.4814 Y31.5614 
G01 X-30.4814 Y31.5290 
G01 X-30.4312 Y31.5082 
G01 X-30.3045 Y31.4236 
G01 X-30.1968 Y31.3158 
G01 X-30.1122 Y31.1892 
G01 X-30.0539 Y31.0485 
G01 X-30.0242 Y30.8991 
G01 X-30.0242 Y30.4786 
G00 Z3.0000  
G00 X-30.1372 Y33.6091 
G01 Z-0.0800 F254   
G01 X-26.2783 Y29.7502 F508   
G01 X-26.2417 Y29.6869 
G01 X-26.2228 Y29.6162 
G01 X-26.2228 Y29.5326 
G01 X-26.1258 Y29.2984 
G01 X-25.9466 Y29.1192 
G01 X-25.7124 Y29.0222 
G01 X-24.4526 Y29.0222 
G01 X-24.2184 Y29.1192 
G01 X-24.0392 Y29.2984 
G01 X-23.9422 Y29.5326 
G01 X-23.9422 Y30.7924 
G01 X-24.0392 Y31.0266 
G01 X-24.2184 Y31.2058 
G01 X-24.4526 Y31.3028 
G01 X-24.5362 Y31.3028 
G01 X-24.6069 Y31.3217 
G01 X-24.6702 Y31.3583 
G01 X-24.6885 Y31.3767 
G01 X-26.9720 Y33.6601 
G01 X-27.0054 Y33.6935 
G01 X-27.0237 Y33.7118 
G01 X-27.0388 Y33.7378 
G01 X-27.0603 Y33.7752 
G01 X-27.0793 Y33.8459 
G01 X-27.0793 Y33.9191 
G01 X-27.0603 Y33.9898 
G01 X-27.0237 Y34.0531 
G01 X-26.9796 Y34.0972 
G01 X-26.9720 Y34.1049 
G01 X-26.7539 Y34.3230 
G01 X-26.5409 Y34.8372 
G01 X-26.5409 Y36.9178 
G01 X-26.7539 Y37.4320 
G01 X-27.1475 Y37.8256 
G01 X-27.6617 Y38.0386 
G01 X-28.2183 Y38.0386 
G01 X-28.7325 Y37.8256 
G01 X-28.9876 Y37.5705 
G01 X-29.0394 Y37.5188 
G01 X-29.0790 Y37.4959 
G01 X-29.1027 Y37.4822 
G01 X-29.1734 Y37.4632 
G01 X-29.2466 Y37.4632 
G01 X-29.3143 Y37.4814 
G01 X-29.3173 Y37.4822 
G01 X-29.3806 Y37.5188 
G01 X-29.6875 Y37.8256 
G01 X-30.2017 Y38.0386 
G01 X-30.7583 Y38.0386 
G01 X-31.2725 Y37.8256 
G01 X-31.6661 Y37.4320 
G01 X-31.8791 Y36.9178 
G01 X-31.8791 Y34.8372 
G01 X-31.6661 Y34.3230 
G01 X-31.2725 Y33.9294 
G01 X-30.7583 Y33.7164 
G01 X-30.3230 Y33.7164 
G01 X-30.2523 Y33.6975 
G01 X-30.1890 Y33.6609 
G01 X-30.1372 Y33.6091 
G00 Z3.0000  
G00 X-30.1090 Y34.3222 
G01 Z-0.0800 F254   
G01 X-30.2248 Y34.2742 F508   
G01 X-30.3938 Y34.2406 
G01 X-30.5662 Y34.2406 
G01 X-30.7352 Y34.2742 
G01 X-30.8944 Y34.3402 
G01 X-31.0377 Y34.4359 
G01 X-31.1596 Y34.5578 
G01 X-31.2553 Y34.7011 
G01 X-31.3213 Y34.8603 
G01 X-31.3549 Y35.0293 
G01 X-31.3549 Y36.7257 
G01 X-31.3213 Y36.8947 
G01 X-31.2553 Y37.0539 
G01 X-31.1596 Y37.1972 
G01 X-31.0377 Y37.3191 
G01 X-30.8944 Y37.4148 
G01 X-30.7352 Y37.4808 
G01 X-30.5662 Y37.5144 
G01 X-30.3938 Y37.5144 
G01 X-30.2248 Y37.4808 
G01 X-30.0656 Y37.4148 
G01 X-29.9223 Y37.3191 
G01 X-29.8004 Y37.1972 
G01 X-29.7047 Y37.0539 
G01 X-29.6387 Y36.8947 
G01 X-29.6051 Y36.7257 
G01 X-29.6051 Y35.5519 
G01 X-28.6368 Y34.5836 
G01 X-28.7153 Y34.7011 
G01 X-28.7813 Y34.8603 
G01 X-28.8149 Y35.0293 
G01 X-28.8149 Y36.7257 
G01 X-28.7813 Y36.8947 
G01 X-28.7153 Y37.0539 
G01 X-28.6196 Y37.1972 
G01 X-28.4977 Y37.3191 
G01 X-28.3544 Y37.4148 
G01 X-28.1952 Y37.4808 
G01 X-28.0262 Y37.5144 
G01 X-27.8538 Y37.5144 
G01 X-27.6848 Y37.4808 
G01 X-27.5256 Y37.4148 
G01 X-27.3823 Y37.3191 
G01 X-27.2604 Y37.1972 
G01 X-27.1647 Y37.0539 
G01 X-27.0987 Y36.8947 
G01 X-27.0651 Y36.7257 
G01 X-27.0651 Y35.0293 
G01 X-27.0987 Y34.8603 
G01 X-27.1647 Y34.7011 
G01 X-27.2604 Y34.5578 
G01 X-27.3823 Y34.4359 
G01 X-27.5256 Y34.3402 
G01 X-27.6848 Y34.2742 
G01 X-27.8538 Y34.2406 
G01 X-28.0262 Y34.2406 
G01 X-28.1952 Y34.2742 
G01 X-28.3544 Y34.3402 
G01 X-28.4719 Y34.4187 
G01 X-24.8318 Y30.7786 
G01 X-24.5568 Y30.7786 
G01 X-24.5153 Y30.7614 
G01 X-24.4836 Y30.7296 
G01 X-24.4664 Y30.6882 
G01 X-24.4664 Y29.6368 
G01 X-24.4836 Y29.5953 
G01 X-24.5153 Y29.5636 
G01 X-24.5568 Y29.5464 
G01 X-25.6082 Y29.5464 
G01 X-25.6497 Y29.5636 
G01 X-25.6814 Y29.5953 
G01 X-25.6986 Y29.6368 
G01 X-25.6986 Y29.9118 
G01 X-30.1090 Y34.3222 
G00 Z3.0000  
G00 X-25.0146 Y34.9611 
G01 Z-0.0800 F254   
G01 X-25.0464 Y34.9928 F508   
G01 X-25.0636 Y35.0343 
G01 X-25.0636 Y36.0857 
G01 X-25.0464 Y36.1272 
G01 X-25.0146 Y36.1589 
G01 X-24.9732 Y36.1761 
G01 X-23.9218 Y36.1761 
G01 X-23.8803 Y36.1589 
G01 X-23.8486 Y36.1272 
G01 X-23.8314 Y36.0857 
G01 X-23.8314 Y35.9229 
G01 X-19.8353 Y35.9229 
G01 X-17.1904 Y38.5678 
G01 X-17.1904 Y41.9289 
G01 X-17.3532 Y41.9289 
G01 X-17.3946 Y41.9461 
G01 X-17.4264 Y41.9778 
G01 X-17.4436 Y42.0193 
G01 X-17.4436 Y43.0707 
G01 X-17.4264 Y43.1121 
G01 X-17.3946 Y43.1439 
G01 X-17.3532 Y43.1611 
G01 X-16.3018 Y43.1611 
G01 X-16.2603 Y43.1439 
G01 X-16.2286 Y43.1121 
G01 X-16.2114 Y43.0707 
G01 X-16.2114 Y42.0193 
G01 X-16.2286 Y41.9778 
G01 X-16.2603 Y41.9461 
G01 X-16.3018 Y41.9289 
G01 X-16.4646 Y41.9289 
G01 X-16.4646 Y38.3697 
G01 X-16.4893 Y38.2774 
G01 X-16.5371 Y38.1947 
G01 X-19.4622 Y35.2696 
G01 X-19.5449 Y35.2218 
G01 X-19.6372 Y35.1971 
G01 X-23.8314 Y35.1971 
G01 X-23.8314 Y35.0343 
G01 X-23.8486 Y34.9928 
G01 X-23.8803 Y34.9611 
G01 X-23.9218 Y34.9439 
G01 X-24.9732 Y34.9439 
G01 X-25.0146 Y34.9611 
G00 Z3.0000  
G00 X-21.2121 Y39.7096 
G01 Z-0.0800 F254   
G01 X-40.0654 Y39.7096 F508   
G01 X-40.1838 Y39.7332 
G01 X-40.2953 Y39.7794 
G01 X-40.3957 Y39.8464 
G01 X-40.4811 Y39.9318 
G01 X-40.8907 Y40.3414 
G01 X-41.1657 Y40.3414 
G01 X-41.2071 Y40.3586 
G01 X-41.2389 Y40.3903 
G01 X-41.2561 Y40.4318 
G01 X-41.2561 Y41.4832 
G01 X-41.2389 Y41.5247 
G01 X-41.2071 Y41.5564 
G01 X-41.1657 Y41.5736 
G01 X-40.1143 Y41.5736 
G01 X-40.0728 Y41.5564 
G01 X-40.0411 Y41.5247 
G01 X-40.0239 Y41.4832 
G01 X-40.0239 Y41.2082 
G01 X-39.7511 Y40.9354 
G01 X-21.5264 Y40.9354 
G01 X-19.6629 Y42.7989 
G01 X-19.6629 Y44.1929 
G01 X-19.6393 Y44.3113 
G01 X-19.5931 Y44.4228 
G01 X-19.5261 Y44.5232 
G01 X-19.4407 Y44.6086 
G01 X-17.1229 Y46.9264 
G01 X-17.1229 Y48.8626 
G01 X-17.1258 Y48.8904 
G01 X-17.1229 Y48.9228 
G01 X-17.1229 Y48.9554 
G01 X-17.1174 Y48.9828 
G01 X-17.1149 Y49.0106 
G01 X-17.1057 Y49.0418 
G01 X-17.0993 Y49.0738 
G01 X-17.0886 Y49.0996 
G01 X-17.0807 Y49.1264 
G01 X-17.0656 Y49.1552 
G01 X-17.0531 Y49.1853 
G01 X-17.0376 Y49.2085 
G01 X-17.0246 Y49.2333 
G01 X-17.0042 Y49.2586 
G01 X-16.9861 Y49.2857 
G01 X-16.9663 Y49.3055 
G01 X-16.9487 Y49.3272 
G01 X-16.9237 Y49.3480 
G01 X-16.9007 Y49.3711 
G01 X-16.8775 Y49.3866 
G01 X-15.0187 Y50.9355 
G01 X-14.9957 Y50.9586 
G01 X-14.9725 Y50.9741 
G01 X-14.9510 Y50.9920 
G01 X-14.9224 Y51.0076 
G01 X-14.8953 Y51.0256 
G01 X-14.8695 Y51.0363 
G01 X-14.8450 Y51.0497 
G01 X-14.8138 Y51.0594 
G01 X-14.7838 Y51.0718 
G01 X-14.7564 Y51.0773 
G01 X-14.7297 Y51.0856 
G01 X-14.6973 Y51.0890 
G01 X-14.6654 Y51.0954 
G01 X-14.6374 Y51.0954 
G01 X-14.6096 Y51.0983 
G01 X-14.5772 Y51.0954 
G01 X-13.5921 Y51.0954 
G01 X-13.4737 Y51.0718 
G01 X-13.3622 Y51.0256 
G01 X-13.2618 Y50.9586 
G01 X-9.1343 Y46.8311 
G01 X-9.0489 Y46.7457 
G01 X-8.9819 Y46.6453 
G01 X-8.9357 Y46.5338 
G01 X-8.9121 Y46.4154 
G01 X-8.9121 Y43.4339 
G01 X-8.0011 Y42.5229 
G01 X-7.1014 Y42.5229 
G01 X-7.0347 Y42.5896 
G01 X-6.8914 Y42.6853 
G01 X-6.7322 Y42.7513 
G01 X-6.5632 Y42.7849 
G01 X-4.8668 Y42.7849 
G01 X-4.6978 Y42.7513 
G01 X-4.5386 Y42.6853 
G01 X-4.3953 Y42.5896 
G01 X-4.2734 Y42.4677 
G01 X-4.1777 Y42.3244 
G01 X-4.1117 Y42.1652 
G01 X-4.0781 Y41.9962 
G01 X-4.0781 Y41.8238 
G01 X-4.1117 Y41.6548 
G01 X-4.1777 Y41.4956 
G01 X-4.2734 Y41.3523 
G01 X-4.3953 Y41.2304 
G01 X-4.5386 Y41.1347 
G01 X-4.6978 Y41.0687 
G01 X-4.8668 Y41.0351 
G01 X-6.5632 Y41.0351 
G01 X-6.7322 Y41.0687 
G01 X-6.8914 Y41.1347 
G01 X-7.0347 Y41.2304 
G01 X-7.1014 Y41.2971 
G01 X-8.3154 Y41.2971 
G01 X-8.4338 Y41.3207 
G01 X-8.5453 Y41.3669 
G01 X-8.6457 Y41.4339 
G01 X-8.7311 Y41.5193 
G01 X-10.0011 Y42.7893 
G01 X-10.0681 Y42.8897 
G01 X-10.1143 Y43.0012 
G01 X-10.1379 Y43.1196 
G01 X-10.1379 Y46.1011 
G01 X-13.9064 Y49.8696 
G01 X-14.3831 Y49.8696 
G01 X-15.8971 Y48.6079 
G01 X-15.8971 Y46.6121 
G01 X-15.9207 Y46.4937 
G01 X-15.9669 Y46.3822 
G01 X-16.0339 Y46.2818 
G01 X-18.4371 Y43.8786 
G01 X-18.4371 Y42.4846 
G01 X-18.4607 Y42.3662 
G01 X-18.5069 Y42.2547 
G01 X-18.5739 Y42.1543 
G01 X-20.8818 Y39.8464 
G01 X-20.9822 Y39.7794 
G01 X-21.0937 Y39.7332 
G01 X-21.2121 Y39.7096 
G00 Z3.0000  
G00 X-21.6261 Y42.9303 
G01 Z-0.0800 F254   
G01 X-21.6578 Y42.8986 F508   
G01 X-21.6993 Y42.8814 
G01 X-22.7507 Y42.8814 
G01 X-22.7921 Y42.8986 
G01 X-22.8239 Y42.9303 
G01 X-22.8411 Y42.9718 
G01 X-22.8411 Y44.0232 
G01 X-22.8239 Y44.0647 
G01 X-22.7921 Y44.0964 
G01 X-22.7893 Y44.0976 
G01 X-23.6851 Y47.0089 
G01 X-24.0207 Y47.0089 
G01 X-24.0621 Y47.0261 
G01 X-24.0939 Y47.0578 
G01 X-24.1111 Y47.0993 
G01 X-24.1111 Y48.1507 
G01 X-24.0939 Y48.1921 
G01 X-24.0621 Y48.2239 
G01 X-24.0207 Y48.2411 
G01 X-22.9693 Y48.2411 
G01 X-22.9278 Y48.2239 
G01 X-22.8961 Y48.1921 
G01 X-22.8789 Y48.1507 
G01 X-22.8789 Y47.0993 
G01 X-22.8961 Y47.0578 
G01 X-22.9278 Y47.0261 
G01 X-22.9307 Y47.0249 
G01 X-22.0349 Y44.1136 
G01 X-21.6993 Y44.1136 
G01 X-21.6578 Y44.0964 
G01 X-21.6261 Y44.0647 
G01 X-21.6089 Y44.0232 
