(.../EAGLE-7.7.0/pcbgcode/pcb-gcode.ulp)
(Copyright 2005 - 2012 by John Johnson)
(See readme.txt for licensing terms.)
(This file generated from the board:)
(.../Documents/eagle/CR01/final v1.brd)
(Current profile is .../EAGLE 8.0/pcbgcode/profiles/mach.pp  )
(This file generated 24.10.2017 18:10)
(Settings from pcb-machine.h)
(spindle on time = 1.0000)
(spindle speed = 20000.0000)
(tool change at 0.0000  0.0000  25.4000 )
(feed rate xy = F0     )
(feed rate z  = F508   )
(Z Axis Settings)
(  High     Up        Down     Drill)
(12.0000 	3.0000  	-0.0800 	-1.7500 )
(Settings from pcb-defaults.h)
(isolate min = 0.0254)
(isolate max = 0.5080)
(isolate step = 0.1000)
(Generated top outlines, top drill, bottom outlines, bottom drill, )
(Unit of measure: mm)
( Tool|       Size       |  Min Sub |  Max Sub |   Count )
( T01 | 0.600mm 0.0236in | 0.0000in | 0.0000in |       0 )
( T02 | 0.813mm 0.0320in | 0.0000in | 0.0000in |       0 )
( T03 | 0.900mm 0.0354in | 0.0000in | 0.0000in |       0 )
( T04 | 1.016mm 0.0400in | 0.0000in | 0.0000in |       0 )
( T05 | 3.000mm 0.1181in | 0.0000in | 0.0000in |       0 )
(Metric Mode)
G21
(Absolute Coordinates)
G90
S20000
G00 Z12.0000 
G00 X0.0000  Y0.0000  
M03
G04 P1.000000
M05
G00 Z25.4000 
M06 T01  ; 0.6000  
G01 Z0.0000  F508   
M06 
G00 Z3.0000  
M03
G04 P1.000000
G82 X11.4300 Y33.9725 Z-1.7500 F508   R3.0000  P1.000000
G82 X13.0175 Y40.6400 
G82 X15.2400 Y42.8625 
G82 X16.8275 Y42.5450 
G82 X22.2250 Y43.4975 
G82 X23.4950 Y47.6250 
G82 X23.4950 Y50.1650 
G82 X26.6700 Y54.9275 
G82 X24.4475 Y35.5600 
G82 X25.0825 Y30.1625 
G82 X18.0975 Y24.7650 
G82 X18.0975 Y22.8600 
G82 X29.5275 Y22.2250 
G82 X31.4325 Y22.8600 
G82 X26.6700 Y13.6525 
G82 X40.6400 Y40.9575 
M05
G00 Z25.4000 
G00 X0.0000  Y0.0000  
M06 T02  ; 0.8128  
G01 Z0.0000  F508   
M06 
G00 Z3.0000  
M03
G04 P1.000000
G82 X29.8450 Y55.5625 Z-1.7500 F508   R3.0000  P1.000000
G82 X32.3850 Y55.5625 
G82 X33.3375 Y30.1625 
G82 X30.7975 Y30.1625 
G82 X35.8775 Y30.1625 
G82 X38.4175 Y30.1625 
G82 X40.9575 Y30.1625 
G82 X43.4975 Y30.1625 
G82 X43.4975 Y4.7625  
G82 X40.9575 Y4.7625  
G82 X38.4175 Y4.7625  
G82 X35.8775 Y4.7625  
G82 X33.3375 Y4.7625  
G82 X30.7975 Y4.7625  
M05
G00 Z25.4000 
G00 X0.0000  Y0.0000  
M06 T03  ; 0.9000  
G01 Z0.0000  F508   
M06 
G00 Z3.0000  
M03
G04 P1.000000
G82 X14.2875 Y47.9425 Z-1.7500 F508   R3.0000  P1.000000
M05
G00 Z25.4000 
G00 X0.0000  Y0.0000  
M06 T04  ; 1.0160  
G01 Z0.0000  F508   
M06 
G00 Z3.0000  
M03
G04 P1.000000
G82 X2.5400  Y33.6550 Z-1.7500 F508   R3.0000  P1.000000
G82 X5.0800  Y33.6550 
G82 X7.6200  Y33.6550 
G82 X7.6200  Y37.1475 
G82 X5.0800  Y37.1475 
G82 X2.5400  Y37.1475 
G82 X5.7150  Y41.9100 
G82 X5.7150  Y44.4500 
G82 X5.7150  Y46.9900 
G82 X5.7150  Y49.5300 
G82 X5.7150  Y52.0700 
G82 X5.7150  Y54.6100 
G82 X5.7150  Y57.1500 
G82 X5.7150  Y59.6900 
G82 X6.6675  Y63.1825 
G82 X6.6675  Y65.7225 
G82 X9.2075  Y65.7225 
G82 X9.2075  Y63.1825 
G82 X11.7475 Y63.1825 
G82 X11.7475 Y65.7225 
G82 X14.2875 Y65.7225 
G82 X14.2875 Y63.1825 
G82 X18.7325 Y65.7225 
G82 X18.7325 Y68.2625 
G82 X20.3200 Y50.1650 
G82 X20.3200 Y47.6250 
G82 X27.9400 Y35.8775 
G82 X30.4800 Y35.8775 
G82 X31.1150 Y19.3675 
G82 X31.1150 Y16.8275 
G82 X28.5750 Y16.8275 
G82 X28.5750 Y19.3675 
G82 X33.6550 Y19.3675 
G82 X33.6550 Y16.8275 
G82 X14.9225 Y26.9875 
G82 X12.3825 Y26.9875 
G82 X11.7475 Y21.2725 
G82 X11.7475 Y18.7325 
G82 X9.2075  Y18.7325 
G82 X6.6675  Y18.7325 
G82 X6.6675  Y21.2725 
G82 X9.2075  Y21.2725 
G82 X4.1275  Y21.2725 
G82 X4.1275  Y18.7325 
G82 X4.1275  Y16.1925 
G82 X4.1275  Y13.6525 
G82 X4.1275  Y11.1125 
G82 X6.6675  Y11.1125 
G82 X9.2075  Y11.1125 
G82 X9.2075  Y13.6525 
G82 X6.6675  Y13.6525 
G82 X6.6675  Y16.1925 
G82 X9.2075  Y16.1925 
G82 X11.7475 Y16.1925 
G82 X11.7475 Y13.6525 
G82 X11.7475 Y11.1125 
G82 X11.7475 Y8.5725  
G82 X11.7475 Y6.0325  
G82 X11.7475 Y3.4925  
G82 X9.2075  Y3.4925  
G82 X6.6675  Y3.4925  
G82 X6.6675  Y6.0325  
G82 X9.2075  Y6.0325  
G82 X9.2075  Y8.5725  
G82 X6.6675  Y8.5725  
G82 X4.1275  Y8.5725  
G82 X4.1275  Y6.0325  
G82 X4.1275  Y3.4925  
M05
G00 Z25.4000 
G00 X0.0000  Y0.0000  
M06 T05  ; 3.0000  
G01 Z0.0000  F508   
M06 
G00 Z3.0000  
M03
G04 P1.000000
G82 X22.0000 Y5.0000  Z-1.7500 F508   R3.0000  P1.000000
G82 X44.0000 Y11.0000 
G82 X44.0000 Y43.0000 
G82 X44.0000 Y68.0000 
T01 
G00 Z12.0000 
M05
M02
